; generated by PrusaSlicer 2.6.1+win64 on 2023-11-06 at 03:19:33 UTC


;
;
; 

; external perimeters extrusion width = 0.45mm
; perimeters extrusion width = 0.45mm
; infill extrusion width = 0.45mm
; solid infill extrusion width = 0.45mm
; top infill extrusion width = 0.40mm
; first layer extrusion width = 0.42mm

M73 P0 R187
M73 Q0 S192
M201 X1000 Y1000 Z200 E5000 ; sets maximum accelerations, mm/sec^2
M203 X200 Y200 Z12 E120 ; sets maximum feedrates, mm / sec
M204 S1250 T1250 ; sets acceleration (S) and retract acceleration (R), mm/sec^2
M205 X8.00 Y8.00 Z0.40 E4.50 ; sets the jerk limits, mm/sec
M205 S0 T0 ; sets the minimum extruding and travel feed rate, mm/sec
;TYPE:Custom
M862.3 P "MK3S" ; printer model check
M862.1 P0.4 ; nozzle diameter check
M115 U3.13.0 ; tell printer latest fw version
G90 ; use absolute coordinates
M83 ; extruder relative mode
M104 S215 ; set extruder temp
M140 S60 ; set bed temp
M190 S60 ; wait for bed temp
M109 S215 ; wait for extruder temp
G28 W ; home all without mesh bed level
G80 ; mesh bed leveling

G1 Z0.2 F720
G1 Y-3 F1000 ; go outside print area
G92 E0
G1 X60 E9 F1000 ; intro line
G1 X100 E12.5 F1000 ; intro line

G92 E0
M221 S95

; Don't change E values below. Excessive value can damage the printer.

M907 E538 ; set extruder motor current
G21 ; set units to millimeters
G90 ; use absolute coordinates
M83 ; use relative distances for extrusion
M900 K0.05 ; Filament gcode LA 1.5
M900 K30 ; Filament gcode LA 1.0
M107
;LAYER_CHANGE
;Z:0.2
;HEIGHT:0.2
;BEFORE_LAYER_CHANGE
G92 E0.0
;0.2


G1 E-.8 F2100
G1 Z.4 F720
;AFTER_LAYER_CHANGE
;0.2
G1 X76.494 Y71.943 F10800
G1 Z.2 F720
G1 E.8 F2100
M204 S800
;TYPE:Skirt/Brim
;WIDTH:0.42
G1 F1200
G1 X77.54 Y71.067 E.04278
G1 X78.48 Y70.873 E.03009
G1 X171.52 Y70.873 E2.9172
G1 X172.827 Y71.265 E.04278
G1 X173.704 Y72.31 E.04277
G1 X173.897 Y73.25 E.03009
G1 X173.897 Y136.75 E1.991
G1 X173.506 Y138.057 E.04277
G1 X172.46 Y138.933 E.04278
G1 X171.52 Y139.127 E.03009
G1 X78.48 Y139.127 E2.9172
G1 X77.173 Y138.735 E.04278
G1 X76.296 Y137.69 E.04277
G1 X76.103 Y136.75 E.03009
G1 X76.103 Y73.25 E1.991
G1 X76.477 Y72 E.04091
M204 S1000
; printing object Base Extension.stl id:0 copy 0
;WIPE_START
G1 F8640
G1 X77.54 Y71.067 E-.32658
G1 X78.48 Y70.873 E-.22162
G1 X79.571 Y70.873 E-.2518
;WIPE_END
G1 Z.6 F720
G1 X170.733 Y135.963 F10800
G1 Z.2 F720
G1 E.8 F2100
M204 S800
;TYPE:Perimeter
;WIDTH:0.419999
G1 F1200
G1 X79.267 Y135.963 E2.86785
G1 X79.267 Y74.037 E1.94164
G1 X170.733 Y74.037 E2.86785
M73 Q0 S191
G1 X170.733 Y135.903 E1.93976
M204 S1000
G1 X171.11 Y136.34 F10800
M204 S800
;TYPE:External perimeter
G1 F1200
G1 X78.89 Y136.34 E2.89149
G1 X78.89 Y73.66 E1.96528
G1 X171.11 Y73.66 E2.89149
G1 X171.11 Y136.28 E1.9634
M204 S1000
G1 X170.718 Y136.261 F10800
;WIPE_START
G1 F8640
G1 X167.645 Y136.282 E-.8
;WIPE_END
G1 Z.6 F720
G1 X169.8 Y74.207 F10800
G1 Z.2 F720
G1 E.8 F2100
M204 S800
;TYPE:Solid infill
;WIDTH:0.420674
G1 F1200
G1 X170.394 Y74.801 E.02639
G1 X170.394 Y75.335 E.01677
G1 X169.435 Y74.376 E.0426
G1 X168.901 Y74.376 E.01677
G1 X170.394 Y75.869 E.06632
G1 X170.394 Y76.403 E.01677
G1 X168.367 Y74.376 E.09004
G1 X167.832 Y74.376 E.0168
G1 X170.394 Y76.938 E.11381
G1 X170.394 Y77.472 E.01677
G1 X167.298 Y74.376 E.13753
G1 X166.764 Y74.376 E.01677
G1 X170.394 Y78.006 E.16125
G1 X170.394 Y78.54 E.01677
G1 X166.23 Y74.376 E.18497
G1 X165.696 Y74.376 E.01677
G1 X170.394 Y79.075 E.20871
G1 X170.394 Y79.609 E.01677
G1 X165.161 Y74.376 E.23245
G1 X164.627 Y74.376 E.01677
G1 X170.394 Y80.143 E.25618
G1 X170.394 Y80.677 E.01677
M73 P0 R186
G1 X164.093 Y74.376 E.2799
G1 X163.559 Y74.376 E.01677
G1 X170.394 Y81.211 E.30362
G1 X170.394 Y81.746 E.0168
G1 X163.024 Y74.376 E.32738
G1 X162.49 Y74.376 E.01677
G1 X170.394 Y82.28 E.3511
G1 X170.394 Y82.814 E.01677
G1 X161.956 Y74.376 E.37482
G1 X161.422 Y74.376 E.01677
G1 X170.394 Y83.348 E.39854
G1 X170.394 Y83.883 E.0168
G1 X160.888 Y74.376 E.42229
G1 X160.353 Y74.376 E.0168
G1 X170.394 Y84.417 E.44603
G1 X170.394 Y84.951 E.01677
G1 X159.819 Y74.376 E.46975
G1 X159.285 Y74.376 E.01677
G1 X170.394 Y85.485 E.49347
G1 X170.394 Y86.019 E.01677
G1 X158.751 Y74.376 E.51719
G1 X158.216 Y74.376 E.0168
G1 X170.394 Y86.554 E.54096
G1 X170.394 Y87.088 E.01677
G1 X157.682 Y74.376 E.56468
G1 X157.148 Y74.376 E.01677
G1 X170.394 Y87.622 E.5884
G1 X170.394 Y88.156 E.01677
G1 X156.614 Y74.376 E.61212
G1 X156.079 Y74.376 E.0168
G1 X170.394 Y88.691 E.63589
G1 X170.394 Y89.225 E.01677
G1 X155.545 Y74.376 E.65961
G1 X155.011 Y74.376 E.01677
G1 X170.394 Y89.759 E.68333
G1 X170.394 Y90.293 E.01677
G1 X154.477 Y74.376 E.70705
G1 X153.943 Y74.376 E.01677
G1 X170.394 Y90.828 E.73079
G1 X170.394 Y91.362 E.01677
G1 X153.408 Y74.376 E.75453
G1 X152.874 Y74.376 E.01677
G1 X170.394 Y91.896 E.77826
G1 X170.394 Y92.43 E.01677
G1 X152.34 Y74.376 E.80198
G1 X151.806 Y74.376 E.01677
G1 X170.394 Y92.964 E.8257
G1 X170.394 Y93.499 E.0168
G1 X151.271 Y74.376 E.84946
G1 X150.737 Y74.376 E.01677
G1 X170.394 Y94.033 E.87318
G1 X170.394 Y94.567 E.01677
G1 X150.203 Y74.376 E.8969
G1 X149.669 Y74.376 E.01677
G1 X170.394 Y95.101 E.92062
G1 X170.394 Y95.636 E.0168
G1 X149.135 Y74.376 E.94437
G1 X148.6 Y74.376 E.0168
G1 X170.394 Y96.17 E.96811
G1 X170.394 Y96.704 E.01677
G1 X148.066 Y74.376 E.99183
G1 X147.532 Y74.376 E.01677
M73 Q0 S190
G1 X170.394 Y97.238 E1.01555
G1 X170.394 Y97.772 E.01677
G1 X146.998 Y74.376 E1.03927
G1 X146.463 Y74.376 E.0168
G1 X170.394 Y98.307 E1.06304
G1 X170.394 Y98.841 E.01677
G1 X145.929 Y74.376 E1.08676
G1 X145.395 Y74.376 E.01677
G1 X170.394 Y99.375 E1.11048
G1 X170.394 Y99.909 E.01677
G1 X144.861 Y74.376 E1.1342
G1 X144.327 Y74.376 E.01677
G1 X170.394 Y100.444 E1.15794
G1 X170.394 Y100.978 E.01677
G1 X143.792 Y74.376 E1.18169
G1 X143.258 Y74.376 E.01677
G1 X170.394 Y101.512 E1.20541
G1 X170.394 Y102.046 E.01677
G1 X142.724 Y74.376 E1.22913
G1 X142.19 Y74.376 E.01677
G1 X170.394 Y102.58 E1.25285
G1 X170.394 Y103.115 E.0168
G1 X141.655 Y74.376 E1.27661
G1 X141.121 Y74.376 E.01677
M73 P1 R186
G1 X170.394 Y103.649 E1.30034
G1 X170.394 Y104.183 E.01677
M73 Q1 S190
G1 X140.587 Y74.376 E1.32406
G1 X140.053 Y74.376 E.01677
G1 X170.394 Y104.717 E1.34778
G1 X170.394 Y105.252 E.0168
M73 P1 R185
G1 X139.519 Y74.376 E1.37152
G1 X138.984 Y74.376 E.0168
G1 X170.394 Y105.786 E1.39526
G1 X170.394 Y106.32 E.01677
G1 X138.45 Y74.376 E1.41898
G1 X137.916 Y74.376 E.01677
G1 X170.394 Y106.854 E1.4427
G1 X170.394 Y107.388 E.01677
G1 X137.382 Y74.376 E1.46643
G1 X136.847 Y74.376 E.0168
G1 X170.394 Y107.923 E1.49019
G1 X170.394 Y108.457 E.01677
G1 X136.313 Y74.376 E1.51391
G1 X135.779 Y74.376 E.01677
G1 X170.394 Y108.991 E1.53763
G1 X170.394 Y109.525 E.01677
G1 X135.245 Y74.376 E1.56135
G1 X134.71 Y74.376 E.0168
G1 X170.394 Y110.06 E1.58512
G1 X170.394 Y110.594 E.01677
G1 X134.176 Y74.376 E1.60884
G1 X133.642 Y74.376 E.01677
G1 X170.394 Y111.128 E1.63256
G1 X170.394 Y111.662 E.01677
G1 X133.108 Y74.376 E1.65628
G1 X132.574 Y74.376 E.01677
M73 Q1 S189
G1 X170.394 Y112.197 E1.68002
G1 X170.394 Y112.731 E.01677
G1 X132.039 Y74.376 E1.70377
G1 X131.505 Y74.376 E.01677
G1 X170.394 Y113.265 E1.72749
G1 X170.394 Y113.799 E.01677
G1 X130.971 Y74.376 E1.75121
G1 X130.437 Y74.376 E.01677
G1 X170.394 Y114.333 E1.77493
G1 X170.394 Y114.868 E.0168
G1 X129.902 Y74.376 E1.79869
G1 X129.368 Y74.376 E.01677
G1 X170.394 Y115.402 E1.82241
G1 X170.394 Y115.936 E.01677
G1 X128.834 Y74.376 E1.84614
G1 X128.3 Y74.376 E.01677
G1 X170.394 Y116.47 E1.86986
G1 X170.394 Y117.005 E.0168
G1 X127.766 Y74.376 E1.8936
G1 X127.231 Y74.376 E.0168
M73 P1 R184
G1 X170.394 Y117.539 E1.91734
G1 X170.394 Y118.073 E.01677
G1 X126.697 Y74.376 E1.94106
G1 X126.163 Y74.376 E.01677
G1 X170.394 Y118.607 E1.96478
G1 X170.394 Y119.141 E.01677
G1 X125.629 Y74.376 E1.9885
G1 X125.094 Y74.376 E.0168
G1 X170.394 Y119.676 E2.01227
G1 X170.394 Y120.21 E.01677
G1 X124.56 Y74.376 E2.03599
G1 X124.026 Y74.376 E.01677
G1 X170.394 Y120.744 E2.05971
G1 X170.394 Y121.278 E.01677
G1 X123.492 Y74.376 E2.08343
G1 X122.958 Y74.376 E.01677
G1 X170.394 Y121.813 E2.10718
G1 X170.394 Y122.347 E.01677
G1 X122.423 Y74.376 E2.13092
G1 X121.889 Y74.376 E.01677
M73 Q1 S188
G1 X170.394 Y122.881 E2.15464
G1 X170.394 Y123.415 E.01677
G1 X121.355 Y74.376 E2.17836
G1 X120.821 Y74.376 E.01677
G1 X170.394 Y123.949 E2.20208
G1 X170.394 Y124.484 E.0168
G1 X120.286 Y74.376 E2.22585
G1 X119.752 Y74.376 E.01677
M73 P2 R184
G1 X170.394 Y125.018 E2.24957
G1 X170.394 Y125.552 E.01677
M73 Q2 S188
G1 X119.218 Y74.376 E2.27329
G1 X118.684 Y74.376 E.01677
G1 X170.394 Y126.086 E2.29701
G1 X170.394 Y126.621 E.0168
M73 P2 R183
G1 X118.15 Y74.376 E2.32075
G1 X117.615 Y74.376 E.0168
G1 X170.394 Y127.155 E2.34449
G1 X170.394 Y127.689 E.01677
G1 X117.081 Y74.376 E2.36822
G1 X116.547 Y74.376 E.01677
G1 X170.394 Y128.223 E2.39194
G1 X170.394 Y128.757 E.01677
G1 X116.013 Y74.376 E2.41566
G1 X115.478 Y74.376 E.0168
G1 X170.394 Y129.292 E2.43942
G1 X170.394 Y129.826 E.01677
G1 X114.944 Y74.376 E2.46314
G1 X114.41 Y74.376 E.01677
G1 X170.394 Y130.36 E2.48686
G1 X170.394 Y130.894 E.01677
G1 X113.876 Y74.376 E2.51058
G1 X113.341 Y74.376 E.0168
M73 Q2 S187
G1 X170.394 Y131.429 E2.53435
G1 X170.394 Y131.963 E.01677
G1 X112.807 Y74.376 E2.55807
G1 X112.273 Y74.376 E.01677
G1 X170.394 Y132.497 E2.58179
G1 X170.394 Y133.031 E.01677
G1 X111.739 Y74.376 E2.60551
G1 X111.205 Y74.376 E.01677
G1 X170.394 Y133.566 E2.62926
G1 X170.394 Y134.1 E.01677
G1 X110.67 Y74.376 E2.653
G1 X110.136 Y74.376 E.01677
M73 P2 R182
G1 X170.394 Y134.634 E2.67672
G1 X170.394 Y135.168 E.01677
G1 X109.602 Y74.376 E2.70044
G1 X109.068 Y74.376 E.01677
G1 X170.315 Y135.624 E2.72067
G1 X169.781 Y135.624 E.01677
G1 X108.533 Y74.376 E2.7207
G1 X107.999 Y74.376 E.01677
G1 X169.246 Y135.624 E2.72067
G1 X168.712 Y135.624 E.01677
G1 X107.465 Y74.376 E2.72067
G1 X106.931 Y74.376 E.01677
G1 X168.178 Y135.624 E2.72067
G1 X167.644 Y135.624 E.01677
G1 X106.397 Y74.376 E2.72067
G1 X105.862 Y74.376 E.0168
M73 Q2 S186
G1 X167.109 Y135.624 E2.72067
G1 X166.575 Y135.624 E.01677
G1 X105.328 Y74.376 E2.72067
G1 X104.794 Y74.376 E.01677
M73 P3 R182
G1 X166.041 Y135.624 E2.72067
G1 X165.507 Y135.624 E.01677
M73 Q3 S186
G1 X104.26 Y74.376 E2.72067
G1 X103.725 Y74.376 E.0168
G1 X164.973 Y135.624 E2.7207
G1 X164.438 Y135.624 E.0168
G1 X103.191 Y74.376 E2.72067
G1 X102.657 Y74.376 E.01677
M73 P3 R181
G1 X163.904 Y135.624 E2.72067
G1 X163.37 Y135.624 E.01677
G1 X102.123 Y74.376 E2.72067
G1 X101.589 Y74.376 E.01677
G1 X162.836 Y135.624 E2.72067
G1 X162.301 Y135.624 E.0168
G1 X101.054 Y74.376 E2.72067
G1 X100.52 Y74.376 E.01677
G1 X161.767 Y135.624 E2.72067
G1 X161.233 Y135.624 E.01677
G1 X99.986 Y74.376 E2.72067
G1 X99.452 Y74.376 E.01677
G1 X160.699 Y135.624 E2.72067
G1 X160.165 Y135.624 E.01677
G1 X98.917 Y74.376 E2.7207
G1 X98.383 Y74.376 E.01677
M73 Q3 S185
G1 X159.63 Y135.624 E2.72067
G1 X159.096 Y135.624 E.01677
G1 X97.849 Y74.376 E2.72067
G1 X97.315 Y74.376 E.01677
G1 X158.562 Y135.624 E2.72067
G1 X158.028 Y135.624 E.01677
G1 X96.781 Y74.376 E2.72067
G1 X96.246 Y74.376 E.0168
G1 X157.493 Y135.624 E2.72067
G1 X156.959 Y135.624 E.01677
G1 X95.712 Y74.376 E2.72067
G1 X95.178 Y74.376 E.01677
M73 P3 R180
G1 X156.425 Y135.624 E2.72067
G1 X155.891 Y135.624 E.01677
G1 X94.644 Y74.376 E2.72067
G1 X94.109 Y74.376 E.0168
G1 X155.357 Y135.624 E2.7207
G1 X154.822 Y135.624 E.0168
G1 X93.575 Y74.376 E2.72067
G1 X93.041 Y74.376 E.01677
G1 X154.288 Y135.624 E2.72067
G1 X153.754 Y135.624 E.01677
G1 X92.507 Y74.376 E2.72067
G1 X91.972 Y74.376 E.0168
G1 X153.22 Y135.624 E2.7207
G1 X152.685 Y135.624 E.0168
M73 P4 R180
M73 Q3 S184
G1 X91.438 Y74.376 E2.72067
G1 X90.904 Y74.376 E.01677
G1 X152.151 Y135.624 E2.72067
G1 X151.617 Y135.624 E.01677
G1 X90.37 Y74.376 E2.72067
G1 X89.836 Y74.376 E.01677
M73 Q4 S184
G1 X151.083 Y135.624 E2.72067
G1 X150.548 Y135.624 E.0168
G1 X89.301 Y74.376 E2.72067
G1 X88.767 Y74.376 E.01677
G1 X150.014 Y135.624 E2.72067
G1 X149.48 Y135.624 E.01677
G1 X88.233 Y74.376 E2.72067
G1 X87.699 Y74.376 E.01677
M73 P4 R179
G1 X148.946 Y135.624 E2.72067
G1 X148.412 Y135.624 E.01677
G1 X87.164 Y74.376 E2.7207
G1 X86.63 Y74.376 E.01677
G1 X147.877 Y135.624 E2.72067
G1 X147.343 Y135.624 E.01677
G1 X86.096 Y74.376 E2.72067
G1 X85.562 Y74.376 E.01677
G1 X146.809 Y135.624 E2.72067
G1 X146.275 Y135.624 E.01677
G1 X85.028 Y74.376 E2.72067
G1 X84.493 Y74.376 E.0168
G1 X145.74 Y135.624 E2.72067
G1 X145.206 Y135.624 E.01677
M73 Q4 S183
G1 X83.959 Y74.376 E2.72067
G1 X83.425 Y74.376 E.01677
G1 X144.672 Y135.624 E2.72067
G1 X144.138 Y135.624 E.01677
G1 X82.891 Y74.376 E2.72067
G1 X82.356 Y74.376 E.0168
G1 X143.604 Y135.624 E2.7207
G1 X143.069 Y135.624 E.0168
G1 X81.822 Y74.376 E2.72067
G1 X81.288 Y74.376 E.01677
G1 X142.535 Y135.624 E2.72067
G1 X142.001 Y135.624 E.01677
M73 P4 R178
G1 X80.754 Y74.376 E2.72067
G1 X80.22 Y74.376 E.01677
G1 X141.467 Y135.624 E2.72067
G1 X140.932 Y135.624 E.0168
G1 X79.685 Y74.376 E2.72067
G1 X79.606 Y74.376 E.00248
G1 X79.606 Y74.832 E.01432
G1 X140.398 Y135.624 E2.70044
G1 X139.864 Y135.624 E.01677
G1 X79.606 Y75.366 E2.67672
G1 X79.606 Y75.9 E.01677
G1 X139.33 Y135.624 E2.653
G1 X138.796 Y135.624 E.01677
M73 P5 R178
G1 X79.606 Y76.434 E2.62928
G1 X79.606 Y76.969 E.0168
G1 X138.261 Y135.624 E2.60551
G1 X137.727 Y135.624 E.01677
M73 Q4 S182
G1 X79.606 Y77.503 E2.58179
G1 X79.606 Y78.037 E.01677
M73 Q5 S182
G1 X137.193 Y135.624 E2.55807
G1 X136.659 Y135.624 E.01677
G1 X79.606 Y78.571 E2.53435
G1 X79.606 Y79.105 E.01677
G1 X136.124 Y135.624 E2.51061
G1 X135.59 Y135.624 E.01677
G1 X79.606 Y79.64 E2.48686
G1 X79.606 Y80.174 E.01677
G1 X135.056 Y135.624 E2.46314
G1 X134.522 Y135.624 E.01677
G1 X79.606 Y80.708 E2.43942
G1 X79.606 Y81.242 E.01677
M73 P5 R177
G1 X133.988 Y135.624 E2.4157
G1 X133.453 Y135.624 E.0168
G1 X79.606 Y81.777 E2.39194
G1 X79.606 Y82.311 E.01677
G1 X132.919 Y135.624 E2.36822
G1 X132.385 Y135.624 E.01677
G1 X79.606 Y82.845 E2.34449
G1 X79.606 Y83.379 E.01677
G1 X131.851 Y135.624 E2.32077
G1 X131.316 Y135.624 E.0168
G1 X79.606 Y83.914 E2.29701
G1 X79.606 Y84.448 E.01677
G1 X130.782 Y135.624 E2.27329
G1 X130.248 Y135.624 E.01677
G1 X79.606 Y84.982 E2.24957
G1 X79.606 Y85.516 E.01677
M73 Q5 S181
G1 X129.714 Y135.624 E2.22585
G1 X129.179 Y135.624 E.0168
G1 X79.606 Y86.05 E2.2021
G1 X79.606 Y86.585 E.0168
G1 X128.645 Y135.624 E2.17836
G1 X128.111 Y135.624 E.01677
G1 X79.606 Y87.119 E2.15464
G1 X79.606 Y87.653 E.01677
G1 X127.577 Y135.624 E2.13092
G1 X127.043 Y135.624 E.01677
G1 X79.606 Y88.187 E2.1072
G1 X79.606 Y88.722 E.0168
G1 X126.508 Y135.624 E2.08343
G1 X125.974 Y135.624 E.01677
G1 X79.606 Y89.256 E2.05971
G1 X79.606 Y89.79 E.01677
M73 P5 R176
G1 X125.44 Y135.624 E2.03599
G1 X124.906 Y135.624 E.01677
G1 X79.606 Y90.324 E2.01227
G1 X79.606 Y90.858 E.01677
G1 X124.371 Y135.624 E1.98853
G1 X123.837 Y135.624 E.01677
G1 X79.606 Y91.393 E1.96478
G1 X79.606 Y91.927 E.01677
G1 X123.303 Y135.624 E1.94106
G1 X122.769 Y135.624 E.01677
G1 X79.606 Y92.461 E1.91734
G1 X79.606 Y92.995 E.01677
M73 P6 R176
G1 X122.235 Y135.624 E1.89362
G1 X121.7 Y135.624 E.0168
G1 X79.606 Y93.53 E1.86986
G1 X79.606 Y94.064 E.01677
G1 X121.166 Y135.624 E1.84614
G1 X120.632 Y135.624 E.01677
G1 X79.606 Y94.598 E1.82241
G1 X79.606 Y95.132 E.01677
G1 X120.098 Y135.624 E1.79869
G1 X119.563 Y135.624 E.0168
M73 Q6 S180
G1 X79.606 Y95.666 E1.77495
G1 X79.606 Y96.201 E.0168
G1 X119.029 Y135.624 E1.75121
G1 X118.495 Y135.624 E.01677
G1 X79.606 Y96.735 E1.72749
G1 X79.606 Y97.269 E.01677
G1 X117.961 Y135.624 E1.70377
G1 X117.427 Y135.624 E.01677
G1 X79.606 Y97.803 E1.68005
G1 X79.606 Y98.338 E.0168
G1 X116.892 Y135.624 E1.65628
G1 X116.358 Y135.624 E.01677
G1 X79.606 Y98.872 E1.63256
G1 X79.606 Y99.406 E.01677
G1 X115.824 Y135.624 E1.60884
G1 X115.29 Y135.624 E.01677
G1 X79.606 Y99.94 E1.58512
G1 X79.606 Y100.474 E.01677
G1 X114.755 Y135.624 E1.56138
G1 X114.221 Y135.624 E.01677
M73 P6 R175
G1 X79.606 Y101.009 E1.53763
G1 X79.606 Y101.543 E.01677
G1 X113.687 Y135.624 E1.51391
G1 X113.153 Y135.624 E.01677
G1 X79.606 Y102.077 E1.49019
G1 X79.606 Y102.611 E.01677
G1 X112.619 Y135.624 E1.46647
