; generated by PrusaSlicer 2.6.1+win64 on 2023-11-06 at 03:22:23 UTC


;
;
; 

; external perimeters extrusion width = 0.45mm
; perimeters extrusion width = 0.45mm
; infill extrusion width = 0.45mm
; solid infill extrusion width = 0.45mm
; top infill extrusion width = 0.40mm
; first layer extrusion width = 0.42mm

M73 P0 R14
M73 Q0 S14
M201 X1000 Y1000 Z200 E5000 ; sets maximum accelerations, mm/sec^2
M203 X200 Y200 Z12 E120 ; sets maximum feedrates, mm / sec
M204 S1250 T1250 ; sets acceleration (S) and retract acceleration (R), mm/sec^2
M205 X8.00 Y8.00 Z0.40 E4.50 ; sets the jerk limits, mm/sec
M205 S0 T0 ; sets the minimum extruding and travel feed rate, mm/sec
;TYPE:Custom
M862.3 P "MK3S" ; printer model check
M862.1 P0.4 ; nozzle diameter check
M115 U3.13.0 ; tell printer latest fw version
G90 ; use absolute coordinates
M83 ; extruder relative mode
M104 S215 ; set extruder temp
M140 S60 ; set bed temp
M190 S60 ; wait for bed temp
M109 S215 ; wait for extruder temp
G28 W ; home all without mesh bed level
G80 ; mesh bed leveling

G1 Z0.2 F720
G1 Y-3 F1000 ; go outside print area
G92 E0
G1 X60 E9 F1000 ; intro line
G1 X100 E12.5 F1000 ; intro line

G92 E0
M221 S95

; Don't change E values below. Excessive value can damage the printer.

M907 E538 ; set extruder motor current
G21 ; set units to millimeters
G90 ; use absolute coordinates
M83 ; use relative distances for extrusion
M900 K0.05 ; Filament gcode LA 1.5
M900 K30 ; Filament gcode LA 1.0
M107
;LAYER_CHANGE
;Z:0.2
;HEIGHT:0.2
;BEFORE_LAYER_CHANGE
G92 E0.0
;0.2


G1 E-.8 F2100
G1 Z.4 F720
;AFTER_LAYER_CHANGE
;0.2
G1 X116.289 Y90.883 F10800
G1 Z.2 F720
G1 E.8 F2100
M204 S800
;TYPE:Skirt/Brim
;WIDTH:0.42
G1 F1200
G1 X117.355 Y89.869 E.04613
G1 X118.65 Y89.546 E.04185
G1 X131.35 Y89.546 E.3982
G1 X132.767 Y89.939 E.04611
G1 X133.781 Y91.005 E.04613
G1 X134.104 Y92.3 E.04185
G1 X134.104 Y117.7 E.7964
G1 X133.711 Y119.117 E.04611
M73 P1 R14
M73 Q1 S14
G1 X132.645 Y120.131 E.04613
G1 X131.35 Y120.454 E.04185
G1 X118.65 Y120.454 E.3982
G1 X117.233 Y120.061 E.04611
G1 X116.219 Y118.995 E.04613
G1 X115.896 Y117.7 E.04185
G1 X115.896 Y92.3 E.7964
G1 X116.273 Y90.94 E.04425
M204 S1000
G1 X116.647 Y91.052 F10800
M204 S800
G1 F1200
G1 X116.665 Y90.993 E.00193
G1 X117.71 Y90.117 E.04275
G1 X118.65 Y89.923 E.03009
G1 X131.35 Y89.923 E.3982
G1 X132.657 Y90.315 E.04278
G1 X133.533 Y91.36 E.04275
G1 X133.727 Y92.3 E.03009
G1 X133.727 Y117.7 E.7964
G1 X133.335 Y119.007 E.04278
G1 X132.29 Y119.883 E.04275
G1 X131.35 Y120.077 E.03009
G1 X118.65 Y120.077 E.3982
G1 X117.343 Y119.685 E.04278
G1 X116.467 Y118.64 E.04275
G1 X116.273 Y117.7 E.03009
G1 X116.273 Y92.3 E.7964
G1 X116.629 Y91.11 E.03895
M204 S1000
; printing object Coupler Mount.stl id:0 copy 0
;WIPE_START
G1 F8640
G1 X116.665 Y90.993 E-.02827
G1 X117.71 Y90.117 E-.31486
G1 X118.65 Y89.923 E-.22162
G1 X119.669 Y89.923 E-.23525
;WIPE_END
G1 Z.6 F720
G1 X130.563 Y116.913 F10800
G1 Z.2 F720
G1 E.8 F2100
M204 S800
;TYPE:Perimeter
;WIDTH:0.419999
G1 F1200
G1 X119.437 Y116.913 E.34885
G1 X119.437 Y93.087 E.74705
M73 Q2 S14
G1 X123.536 Y93.084 E.12852
M73 P2 R14
G1 X123.308 Y93.308 E.01002
G1 X123.012 Y93.714 E.01575
G1 X122.816 Y94.17 E.01556
G1 X122.716 Y94.777 E.01929
G1 X122.765 Y95.299 E.01644
G1 X123.011 Y95.964 E.02223
G1 X123.322 Y96.386 E.01644
G1 X123.747 Y96.747 E.01748
G1 X124.213 Y96.985 E.01641
G1 X124.692 Y97.104 E.01548
G1 X125.308 Y97.104 E.01931
G1 X125.815 Y96.971 E.01643
G1 X126.431 Y96.621 E.02221
G1 X126.797 Y96.246 E.01643
G1 X127.084 Y95.768 E.01748
G1 X127.244 Y95.27 E.0164
G1 X127.285 Y94.741 E.01664
G1 X127.184 Y94.17 E.01818
G1 X126.969 Y93.688 E.01655
G1 X126.464 Y93.084 E.02469
G1 X130.563 Y93.087 E.12852
G1 X130.563 Y116.853 E.74516
M204 S1000
G1 X130.94 Y117.29 F10800
M204 S800
;TYPE:External perimeter
G1 F1200
G1 X119.06 Y117.29 E.37249
G1 X119.06 Y92.71 E.77069
G1 X123.736 Y92.697 E.14661
;WIDTH:0.430308
G1 X125.163 Y92.639 E.046
;WIDTH:0.42823
G1 X126.465 Y92.707 E.04177
;WIDTH:0.419999
G1 X130.94 Y92.71 E.14031
G1 X130.94 Y94.725 E.06318
G1 X130.94 Y117.23 E.70563
M204 S1000
;WIPE_START
G1 F8640
G1 X127.475 Y117.247 E-.8
;WIPE_END
G1 Z.6 F720
G1 X126.768 Y95.551 F10800
G1 Z.2 F720
G1 E.8 F2100
M204 S800
G1 F1200
G1 X126.474 Y96.052 E.01821
G1 X126.131 Y96.377 E.01482
G1 X125.638 Y96.638 E.01749
G1 X125.186 Y96.74 E.01453
G1 X124.773 Y96.736 E.01295
G1 X124.371 Y96.643 E.01294
G1 X123.991 Y96.459 E.01324
G1 X123.566 Y96.098 E.01748
G1 X123.3 Y95.707 E.01483
G1 X123.122 Y95.179 E.01747
G1 X123.095 Y94.716 E.01454
G1 X123.166 Y94.309 E.01295
G1 X123.323 Y93.927 E.01295
G1 X123.562 Y93.587 E.01303
G1 X123.886 Y93.305 E.01347
;WIDTH:0.430534
G1 X124.385 Y93.07 E.01778
G1 X125.012 Y93.02 E.02027
;WIDTH:0.430822
G1 X125.559 Y93.054 E.01768
G1 X125.987 Y93.224 E.01485
;WIDTH:0.419999
G1 X126.33 Y93.477 E.01336
G1 X126.67 Y93.918 E.01746
G1 X126.845 Y94.349 E.01459
G1 X126.908 Y94.757 E.01294
G1 X126.881 Y95.169 E.01295
G1 X126.785 Y95.493 E.0106
M204 S1000
G1 X127.006 Y95.873 F10800
;WIPE_START
G1 F8640
G1 X126.474 Y96.052 E-.14771
G1 X126.131 Y96.377 E-.10911
G1 X125.638 Y96.638 E-.1288
G1 X125.186 Y96.74 E-.10699
G1 X124.773 Y96.736 E-.09537
G1 X124.371 Y96.643 E-.09527
G1 X123.991 Y96.459 E-.09749
G1 X123.927 Y96.405 E-.01926
;WIPE_END
G1 Z.6 F720
G1 X129.625 Y93.256 F10800
G1 Z.2 F720
M73 Q3 S14
G1 E.8 F2100
M204 S800
;TYPE:Solid infill
;WIDTH:0.422424
G1 F1200
G1 X130.224 Y93.854 E.02671
G1 X130.224 Y94.391 E.01695
G1 X129.258 Y93.425 E.04311
M73 P3 R14
G1 X128.721 Y93.425 E.01695
G1 X130.224 Y94.927 E.06705
G1 X130.224 Y95.464 E.01695
G1 X128.184 Y93.425 E.09102
G1 X127.647 Y93.424 E.01695
G1 X130.224 Y96.001 E.115
G1 X130.224 Y96.538 E.01695
G1 X127.336 Y93.65 E.12888
G1 X127.505 Y94.057 E.01391
G1 X127.579 Y94.429 E.01197
G1 X130.224 Y97.074 E.11804
G1 X130.224 Y97.611 E.01695
G1 X127.61 Y94.997 E.11665
G1 X127.592 Y95.274 E.00876
G1 X127.54 Y95.464 E.00622
G1 X130.224 Y98.148 E.11978
G1 X130.224 Y98.684 E.01691
G1 X127.409 Y95.869 E.12562
G1 X127.214 Y96.211 E.01242
G1 X130.224 Y99.221 E.13433
G1 X130.224 Y99.758 E.01695
G1 X126.999 Y96.534 E.1439
G1 X126.732 Y96.803 E.01196
G1 X130.224 Y100.294 E.15581
G1 X130.224 Y100.831 E.01695
G1 X126.425 Y97.032 E.16954
G1 X126.074 Y97.218 E.01254
G1 X130.224 Y101.368 E.1852
G1 X130.224 Y101.905 E.01695
G1 X125.686 Y97.367 E.20252
G1 X125.233 Y97.451 E.01454
G1 X130.224 Y102.441 E.22271
G1 X130.224 Y102.978 E.01695
G1 X124.476 Y97.23 E.25651
M204 S1000
;WIPE_START
G1 F8640
G1 X126.926 Y99.68 E-.8
;WIPE_END
G1 Z.6 F720
G1 X122.745 Y93.889 F10800
G1 Z.2 F720
G1 E.8 F2100
M204 S800
G1 F1200
G1 X122.28 Y93.424 E.02075
G1 X121.744 Y93.425 E.01691
G1 X122.47 Y94.151 E.0324
G1 X122.393 Y94.611 E.01472
G1 X121.207 Y93.425 E.05293
G1 X120.671 Y93.425 E.01691
G1 X122.618 Y95.372 E.08689
M204 S1000
;WIPE_START
G1 F8640
G1 X120.671 Y93.425 E-.63578
G1 X121.207 Y93.425 E-.12376
G1 X121.331 Y93.549 E-.04046
;WIPE_END
G1 Z.6 F720
G1 X119.965 Y93.256 F10800
G1 Z.2 F720
G1 E.8 F2100
M204 S800
G1 F1200
G1 X122.61 Y95.901 E.11804
G1 X122.724 Y96.146 E.00853
G1 X122.944 Y96.471 E.01238
G1 X123.094 Y96.638 E.00708
G1 X123.535 Y97.012 E.01825
G1 X123.726 Y97.134 E.00715
G1 X123.929 Y97.22 E.00696
G1 X130.224 Y103.515 E.28093
G1 X130.224 Y104.051 E.01691
G1 X119.776 Y93.604 E.46624
G1 X119.776 Y94.141 E.01695
G1 X130.224 Y104.588 E.46624
G1 X130.224 Y105.125 E.01695
G1 X119.776 Y94.678 E.46624
G1 X119.776 Y95.214 E.01691
M73 P4 R14
M73 Q4 S14
G1 X130.224 Y105.661 E.46624
G1 X130.224 Y106.198 E.01695
G1 X119.776 Y95.751 E.46624
G1 X119.776 Y96.288 E.01695
G1 X130.224 Y106.735 E.46624
G1 X130.224 Y107.272 E.01695
G1 X119.776 Y96.824 E.46626
G1 X119.776 Y97.361 E.01695
G1 X130.224 Y107.808 E.46624
G1 X130.224 Y108.345 E.01695
G1 X119.776 Y97.898 E.46624
G1 X119.776 Y98.435 E.01695
G1 X130.224 Y108.882 E.46624
G1 X130.224 Y109.418 E.01691
G1 X119.776 Y98.971 E.46624
G1 X119.776 Y99.508 E.01695
M73 P4 R13
G1 X130.224 Y109.955 E.46624
G1 X130.224 Y110.492 E.01695
G1 X119.776 Y100.045 E.46624
G1 X119.776 Y100.581 E.01691
G1 X130.224 Y111.028 E.46624
G1 X130.224 Y111.565 E.01695
G1 X119.776 Y101.118 E.46624
M73 Q5 S14
G1 X119.776 Y101.655 E.01695
M73 P5 R13
G1 X130.224 Y112.102 E.46624
G1 X130.224 Y112.639 E.01695
M73 Q5 S13
G1 X119.776 Y102.191 E.46626
G1 X119.776 Y102.728 E.01695
G1 X130.224 Y113.175 E.46624
G1 X130.224 Y113.712 E.01695
G1 X119.776 Y103.265 E.46624
G1 X119.776 Y103.802 E.01695
G1 X130.224 Y114.249 E.46624
G1 X130.224 Y114.785 E.01691
G1 X119.776 Y104.338 E.46624
G1 X119.776 Y104.875 E.01695
G1 X130.224 Y115.322 E.46624
G1 X130.224 Y115.859 E.01695
G1 X119.776 Y105.412 E.46624
G1 X119.776 Y105.948 E.01691
G1 X130.224 Y116.395 E.46624
G1 X130.224 Y116.574 E.00565
G1 X129.865 Y116.574 E.01133
G1 X119.776 Y106.485 E.45024
G1 X119.776 Y107.022 E.01695
G1 X129.328 Y116.574 E.42627
G1 X128.792 Y116.574 E.01691
M73 P6 R13
M73 Q6 S13
G1 X119.776 Y107.558 E.40235
G1 X119.776 Y108.095 E.01695
G1 X128.255 Y116.574 E.37839
G1 X127.718 Y116.574 E.01695
G1 X119.776 Y108.632 E.35443
G1 X119.776 Y109.169 E.01695
G1 X127.181 Y116.574 E.33046
G1 X126.645 Y116.574 E.01691
G1 X119.776 Y109.705 E.30654
G1 X119.776 Y110.242 E.01695
G1 X126.108 Y116.574 E.28258
G1 X125.571 Y116.574 E.01695
G1 X119.776 Y110.779 E.25861
G1 X119.776 Y111.315 E.01691
G1 X125.035 Y116.574 E.23469
G1 X124.498 Y116.574 E.01695
G1 X119.776 Y111.852 E.21073
G1 X119.776 Y112.389 E.01695
G1 X123.961 Y116.574 E.18676
G1 X123.425 Y116.574 E.01691
G1 X119.776 Y112.925 E.16284
G1 X119.776 Y113.462 E.01695
G1 X122.888 Y116.574 E.13888
G1 X122.351 Y116.574 E.01695
G1 X119.776 Y113.999 E.11491
G1 X119.776 Y114.536 E.01695
G1 X121.814 Y116.574 E.09095
G1 X121.278 Y116.574 E.01691
G1 X119.776 Y115.072 E.06703
G1 X119.776 Y115.609 E.01695
G1 X120.741 Y116.574 E.04306
G1 X120.204 Y116.574 E.01695
G1 X119.607 Y115.976 E.02666
M204 S1000
; stop printing object Coupler Mount.stl id:0 copy 0
M106 S84.15
;LAYER_CHANGE
;Z:0.4
;HEIGHT:0.2
;BEFORE_LAYER_CHANGE
G92 E0.0
;0.4


;WIPE_START
G1 F8640
G1 X120.204 Y116.574 E-.19511
G1 X120.741 Y116.574 E-.12399
G1 X119.776 Y115.609 E-.31512
G1 X119.776 Y115.072 E-.12399
G1 X119.904 Y115.2 E-.04179
;WIPE_END
G1 Z.6 F720
;AFTER_LAYER_CHANGE
;0.4
M104 S210 ; set temperature
G1 X115.896 Y115.2 F10800
G1 Z.4 F720
G1 E.8 F2100
;TYPE:Skirt/Brim
;WIDTH:0.42
G1 F3000
G1 X115.896 Y92.3 E.71801
G1 X116.289 Y90.883 E.04611
G1 X117.355 Y89.869 E.04613
G1 X118.65 Y89.546 E.04185
G1 X131.35 Y89.546 E.3982
G1 X132.767 Y89.939 E.04611
G1 X133.781 Y91.005 E.04613
G1 X134.104 Y92.3 E.04185
G1 X134.104 Y117.7 E.7964
G1 X133.711 Y119.117 E.04611
G1 X132.645 Y120.131 E.04613
G1 X131.35 Y120.454 E.04185
G1 X118.65 Y120.454 E.3982
M73 Q7 S13
G1 X117.233 Y120.061 E.04611
M73 P7 R13
G1 X116.219 Y118.995 E.04613
G1 X115.896 Y117.7 E.04185
G1 X115.896 Y115.26 E.0765
G1 X116.273 Y115.26 F10800
G1 F3000
G1 X116.273 Y92.3 E.71989
G1 X116.665 Y90.993 E.04278
G1 X117.71 Y90.117 E.04275
G1 X118.65 Y89.923 E.03009
G1 X131.35 Y89.923 E.3982
G1 X132.657 Y90.315 E.04278
G1 X133.533 Y91.36 E.04275
G1 X133.727 Y92.3 E.03009
G1 X133.727 Y117.7 E.7964
G1 X133.335 Y119.007 E.04278
G1 X132.29 Y119.883 E.04275
G1 X131.35 Y120.077 E.03009
G1 X118.65 Y120.077 E.3982
G1 X117.343 Y119.685 E.04278
G1 X116.467 Y118.64 E.04275
G1 X116.273 Y117.7 E.03009
G1 X116.273 Y115.32 E.07462
; printing object Coupler Mount.stl id:0 copy 0
;WIPE_START
G1 F8640
G1 X116.273 Y111.855 E-.8
;WIPE_END
G1 Z.8 F720
G1 X130.718 Y117.068 F10800
G1 Z.4 F720
G1 E.8 F2100
M204 S800
;TYPE:Perimeter
;WIDTH:0.449999
G1 F3600
G1 X119.282 Y117.068 E.38709
G1 X119.282 Y92.932 E.81697
G1 X124.045 Y92.934 E.16122
G1 X123.764 Y93.105 E.01113
G1 X123.294 Y93.571 E.0224
G1 X123.047 Y93.991 E.01649
G1 X122.91 Y94.43 E.01557
G1 X122.889 Y95.092 E.02242
G1 X122.998 Y95.567 E.0165
G1 X123.201 Y95.98 E.01558
G1 X123.64 Y96.475 E.0224
G1 X124.047 Y96.744 E.01651
G1 X124.563 Y96.927 E.01853
G1 X125.137 Y96.962 E.01947
G1 X125.618 Y96.878 E.01653
G1 X126.041 Y96.698 E.01556
G1 X126.416 Y96.431 E.01558
G1 X126.725 Y96.089 E.0156
G1 X126.953 Y95.689 E.01558
G1 X127.09 Y95.25 E.01557
G1 X127.13 Y94.75 E.01698
G1 X127.008 Y94.14 E.02106
G1 X126.799 Y93.7 E.01649
G1 X126.512 Y93.34 E.01558
G1 X126.154 Y93.05 E.01559
G1 X125.933 Y92.932 E.00848
G1 X130.718 Y92.932 E.16197
G1 X130.718 Y117.008 E.81494
M204 S1000
G1 X131.125 Y117.475 F10800
M204 S800
;TYPE:External perimeter
G1 F2099.996

G1 X130.675 Y117.475 E.01523
G1 X119.325 Y117.475 E.38418
G1 X118.875 Y117.475 E.01523
G1 X118.875 Y117.025 E.01523
G1 X118.875 Y92.975 E.81406
G1 F2100
G1 X118.875 Y92.525 E.01523
G1 X119.325 Y92.525 E.01523
G1 F2099.997
G1 X123.595 Y92.525 E.14453
G1 X124.045 Y92.525 E.01523

;WIDTH:0.495236
G1 F1990.385

G1 X124.274 Y92.548 E.00866
G1 F2100

;WIDTH:0.540472
G1 F1999.563

G1 X124.504 Y92.57 E.00956
G1 F2099.999

;WIDTH:0.541535
G1 F2097.644

G1 X124.996 Y92.571 E.0204
G1 F2099.997

;WIDTH:0.584705
G1 F2011.399

G1 X125.572 Y92.592 E.02597
G1 F2007.844
G1 X125.732 Y92.57 E.00728

;WIDTH:0.539803
G1 F2000.178

G1 X125.892 Y92.547 E.00668

;WIDTH:0.494901
G1 F1991.122

G1 X126.052 Y92.525 E.00607

;WIDTH:0.449999
G1 F2099.996

G1 X126.502 Y92.525 E.01523
G1 X130.675 Y92.525 E.14125
G1 X131.125 Y92.525 E.01523
G1 X131.125 Y94.726 E.0745


G1 X131.125 Y95.176 E.01523
G1 X131.125 Y116.965 E.73753
G1 X131.125 Y117.415 E.01523

M204 S1000
;WIPE_START
G1 F8640
G1 X127.66 Y117.432 E-.8
;WIPE_END
G1 Z.8 F720
G1 X126.593 Y95.499 F10800
G1 Z.4 F720
G1 E.8 F2100
M204 S800
G1 F1500
G1 X126.415 Y95.826 E.0126
G1 X126.17 Y96.107 E.01262
G1 X125.87 Y96.329 E.01263
G1 X125.53 Y96.481 E.01261
G1 X125.158 Y96.555 E.01284
G1 X124.636 Y96.526 E.0177
G1 X124.256 Y96.395 E.01361
G1 X123.935 Y96.194 E.01282
G1 X123.561 Y95.789 E.01866
G1 X123.39 Y95.458 E.01261
G1 X123.296 Y95.091 E.01282
G1 X123.295 Y94.594 E.01682
G1 X123.407 Y94.182 E.01445
G1 X123.59 Y93.85 E.01283
G1 X123.974 Y93.454 E.01867
;WIDTH:0.495236
G1 X124.284 Y93.286 E.01326
;WIDTH:0.540472
G1 X124.593 Y93.118 E.01455
;WIDTH:0.54476
G1 X125.036 Y93.071 E.01859
;WIDTH:0.584705
G1 X125.529 Y93.131 E.02237
G1 X125.743 Y93.278 E.0117
;WIDTH:0.539803
G1 X125.956 Y93.426 E.01072
;WIDTH:0.494901
G1 X126.17 Y93.573 E.00976
;WIDTH:0.449999

G1 X126.439 Y93.891 E.0141
G1 X126.61 Y94.229 E.01282
G1 X126.723 Y94.755 E.01821
G1 X126.698 Y95.141 E.01309
G1 X126.61 Y95.441 E.01058

M204 S1000
G1 X126.821 Y95.794 F10800
;WIPE_START
G1 F8640
G1 X126.415 Y95.826 E-.09965
G1 X126.17 Y96.107 E-.08608
G1 X125.87 Y96.329 E-.08617
G1 X125.53 Y96.481 E-.086
G1 X125.158 Y96.555 E-.08758
G1 X124.636 Y96.526 E-.12072
G1 X124.256 Y96.395 E-.09281
G1 X123.935 Y96.194 E-.08745
G1 X123.778 Y96.024 E-.05354
;WIPE_END
G1 Z.8 F720
G1 X127.18 Y93.359 F10800
G1 Z.4 F720
G1 E.8 F2100
;TYPE:Solid infill
;WIDTH:0.6068
G1 F7980.421
G1 X127.13 Y93.309 E.00332
G1 X127.062 Y93.327 E.0033
G1 X127.044 Y93.395 E.0033
G1 X127.094 Y93.445 E.00332
G1 X127.162 Y93.427 E.0033
;WIDTH:0.449999
G1 F11054.364
G1 X127.299 Y93.876 E.01589
G1 X127.877 Y93.298 E.02767
G1 X127.97 Y93.227 E.00396
;WIDTH:0.41646
G1 F12000
G1 X128.063 Y93.155 E.00365
;WIDTH:0.38292
G1 X128.022 Y93.166 E.0012
G1 X128.003 Y93.095 E.00208
G1 X128.074 Y93.114 E.00208
;WIDTH:0.449999
G1 F11054.364
G1 X128.453 Y93.298 E.01426
G1 X127.424 Y94.327 E.04926
G1 X127.492 Y94.835 E.01735
M73 Q8 S13
G1 X129.028 Y93.298 E.07355
G1 X129.933 Y93.168 F10800
;WIDTH:0.38292
M73 P8 R13
G1 F12000
G1 X129.862 Y93.149 E.00208
G1 X129.881 Y93.22 E.00208
G1 X129.922 Y93.209 E.0012
;WIDTH:0.41646
G1 X129.763 Y93.254 E.00513
;WIDTH:0.449999
G1 F11054.364
G1 X129.604 Y93.298 E.00558
G1 X127.398 Y95.505 E.10562
G1 X127.306 Y95.649 E.00578
;WIDTH:0.41646
G1 F12000
G1 X127.214 Y95.793 E.00531
;WIDTH:0.38292
G1 X126.995 Y96.099 E.01064
;WIPE_START
G1 F8640
G1 X127.214 Y95.793 E-.08689
G1 X127.306 Y95.649 E-.03946
G1 X127.398 Y95.505 E-.03946
G1 X129.34 Y93.562 E-.63419
;WIPE_END
G1 Z.8 F720
G1 X119.743 Y93.393 F10800
G1 Z.4 F720
G1 E.8 F2100
;WIDTH:0.548766
G1 F8895.988
G1 X119.681 Y93.409 E.00269
G1 X119.637 Y93.364 E.00265
G1 X119.653 Y93.303 E.00265
