; generated by PrusaSlicer 2.6.1+win64 on 2023-11-06 at 03:20:29 UTC


;
;
; 

; external perimeters extrusion width = 0.45mm
; perimeters extrusion width = 0.45mm
; infill extrusion width = 0.45mm
; solid infill extrusion width = 0.45mm
; top infill extrusion width = 0.40mm
; first layer extrusion width = 0.42mm

M73 P0 R13
M73 Q0 S13
M201 X1000 Y1000 Z200 E5000 ; sets maximum accelerations, mm/sec^2
M203 X200 Y200 Z12 E120 ; sets maximum feedrates, mm / sec
M204 S1250 T1250 ; sets acceleration (S) and retract acceleration (R), mm/sec^2
M205 X8.00 Y8.00 Z0.40 E4.50 ; sets the jerk limits, mm/sec
M205 S0 T0 ; sets the minimum extruding and travel feed rate, mm/sec
;TYPE:Custom
M862.3 P "MK3S" ; printer model check
M862.1 P0.4 ; nozzle diameter check
M115 U3.13.0 ; tell printer latest fw version
G90 ; use absolute coordinates
M83 ; extruder relative mode
M104 S215 ; set extruder temp
M140 S60 ; set bed temp
M190 S60 ; wait for bed temp
M109 S215 ; wait for extruder temp
G28 W ; home all without mesh bed level
G80 ; mesh bed leveling

G1 Z0.2 F720
G1 Y-3 F1000 ; go outside print area
G92 E0
G1 X60 E9 F1000 ; intro line
G1 X100 E12.5 F1000 ; intro line

G92 E0
M221 S95

; Don't change E values below. Excessive value can damage the printer.
M907 E430 ; set extruder motor current
G21 ; set units to millimeters
G90 ; use absolute coordinates
M83 ; use relative distances for extrusion
M900 K0.05 ; Filament gcode LA 1.5
M900 K30 ; Filament gcode LA 1.0
M107
;LAYER_CHANGE
;Z:0.2
;HEIGHT:0.2
;BEFORE_LAYER_CHANGE
G92 E0.0
;0.2


G1 E-.8 F2100
G1 Z.4 F720
;AFTER_LAYER_CHANGE
;0.2
G1 X119.334 Y77.854 F10800
G1 Z.2 F720
G1 E.8 F2100
M204 S800
;TYPE:Skirt/Brim
;WIDTH:0.42
G1 F1200
G1 X120.36 Y76.731 E.04769
G1 X121.588 Y75.865 E.04711
G1 X122.523 Y75.432 E.03231
G1 X123.992 Y75.053 E.04757
G1 X125.508 Y74.999 E.04756
G1 X126.993 Y75.27 E.04733
G1 X128.167 Y75.735 E.03959
G1 X129.043 Y76.261 E.03204
G1 X130.182 Y77.262 E.04754
G1 X130.946 Y78.266 E.03956
G1 X131.61 Y79.627 E.04748
M73 Q1 S13
G1 X131.884 Y80.608 E.03194
G1 X132.026 Y82.058 E.04568
G1 X130.719 Y130.031 E1.50472
M73 P1 R13
G1 X130.415 Y131.244 E.03921
M73 P1 R12
G1 X130.045 Y132.047 E.02772
G1 X129.489 Y132.871 E.03117
G1 X128.603 Y133.75 E.03913
G1 X127.87 Y134.249 E.0278
G1 X126.969 Y134.667 E.03114
G1 X126.117 Y134.904 E.02773
G1 X124.871 Y135.011 E.03921
G1 X123.883 Y134.904 E.03116
G1 X123.031 Y134.667 E.02773
G1 X121.909 Y134.116 E.03919
G1 X121.118 Y133.513 E.03119
G1 X120.511 Y132.871 E.0277
G1 X119.955 Y132.047 E.03117
G1 X119.473 Y130.907 E.03881
G1 X119.282 Y130.037 E.02793
G1 X117.974 Y82.058 E1.50491
G1 X118.115 Y80.612 E.04555
G1 X118.576 Y79.162 E.04771
G1 X119.303 Y77.906 E.0455
M204 S1000
; printing object Coupler.stl id:0 copy 0
;WIPE_START
G1 F8640
G1 X120.36 Y76.731 E-.36493
G1 X121.588 Y75.865 E-.34696
G1 X121.934 Y75.705 E-.08811
;WIPE_END
G1 Z.6 F720
G1 X126.128 Y85.793 F10800
G1 Z.2 F720
G1 E.8 F2100
M204 S800
;TYPE:Perimeter
;WIDTH:0.419999
G1 F1200
G1 X126.018 Y85.911 E.00506
G1 X125.951 Y86.177 E.0086
G1 X125.951 Y125.95 E1.24705
G1 X125.971 Y126.586 E.01995
M73 P2 R12
M73 Q2 S13
G1 X126.112 Y126.811 E.00833
;WIDTH:0.392768
G1 X126.21 Y126.886 E.00359
;WIDTH:0.377456
G1 X126.816 Y127.336 E.021
;WIDTH:0.371546
G1 X127.182 Y127.769 E.01549
;WIDTH:0.376027
G1 X127.445 Y128.274 E.01577
G1 X127.6 Y128.822 E.01577
;WIDTH:0.366378
G1 X127.629 Y129.392 E.01535
G1 X127.534 Y129.954 E.01533
G1 X127.321 Y130.483 E.01534
G1 X126.998 Y130.954 E.01536
G1 X126.582 Y131.344 E.01534
G1 X126.092 Y131.635 E.01533
;WIDTH:0.376245
G1 X125.548 Y131.809 E.01583
G1 X124.982 Y131.867 E.01577
G1 X124.416 Y131.806 E.01578
;WIDTH:0.366417
G1 X123.877 Y131.62 E.01534
G1 X123.39 Y131.323 E.01534
G1 X122.979 Y130.927 E.01535
G1 X122.663 Y130.452 E.01535
;WIDTH:0.376072
G1 X122.461 Y129.919 E.01579
G1 X122.372 Y129.356 E.01579
;WIDTH:0.371546
G1 X122.408 Y128.788 E.01555
G1 X122.566 Y128.24 E.01558
G1 X122.839 Y127.739 E.01559
G1 X123.184 Y127.336 E.0145
;WIDTH:0.371386
G1 X123.476 Y127.107 E.01014
;WIDTH:0.392766
G1 X123.888 Y126.811 E.01476
;WIDTH:0.419999
G1 X124.028 Y126.586 E.00831
G1 X124.049 Y126.436 E.00475
G1 X124.049 Y86.177 E1.26229
G1 X123.982 Y85.911 E.0086
M73 Q2 S12
G1 X123.869 Y85.764 E.00581
G1 X122.821 Y85.194 E.03741
G1 X122.314 Y84.772 E.02068
G1 X121.925 Y84.34 E.01823
G1 X121.589 Y83.801 E.01991
G1 X121.338 Y83.228 E.01961
G1 X121.258 Y82.89 E.01089
G1 X121.159 Y82.218 E.0213
G1 X121.162 Y81.58 E.02
G1 X121.288 Y80.96 E.01984
G1 X121.498 Y80.378 E.0194
G1 X121.813 Y79.835 E.01968
G1 X122.2 Y79.346 E.01955
G1 X122.67 Y78.933 E.01962
G1 X123.194 Y78.592 E.0196
G1 X123.771 Y78.35 E.01962
G1 X124.376 Y78.194 E.01959
G1 X125.001 Y78.149 E.01965
G1 X125.624 Y78.194 E.01958
G1 X126.23 Y78.351 E.01963
G1 X126.806 Y78.592 E.01958
G1 X127.331 Y78.934 E.01965
G1 X127.8 Y79.346 E.01957
G1 X128.189 Y79.837 E.01964
G1 X128.502 Y80.378 E.0196
G1 X128.714 Y80.967 E.01963
G1 X128.838 Y81.58 E.01961
G1 X128.851 Y82.205 E.0196
G1 X128.84 Y82.414 E.00656
G1 X128.718 Y83.027 E.0196
G1 X128.51 Y83.617 E.01961
G1 X128.198 Y84.16 E.01964
G1 X127.813 Y84.652 E.01959
G1 X127.344 Y85.067 E.01964
G1 X126.822 Y85.41 E.01958
G1 X126.218 Y85.697 E.02097
G1 X126.169 Y85.749 E.00224
M204 S1000
G1 X126.388 Y86.04 F10800
M204 S800
;TYPE:External perimeter
G1 F1200
G1 X126.329 Y86.177 E.00468
G1 X126.329 Y126.436 E1.26229
G1 X126.405 Y126.588 E.00533
G1 X127.046 Y127.062 E.025
G1 X127.466 Y127.553 E.02026
G1 X127.771 Y128.123 E.02027
G1 X127.947 Y128.746 E.0203
G1 X127.983 Y129.392 E.02029
G1 X127.88 Y130.031 E.02029
G1 X127.642 Y130.633 E.0203
G1 X127.28 Y131.169 E.02028
G1 X126.811 Y131.615 E.02029
G1 X126.257 Y131.949 E.02028
G1 X125.643 Y132.156 E.02032
G1 X125 Y132.226 E.02028
G1 X124.357 Y132.156 E.02028
G1 X123.743 Y131.949 E.02032
G1 X123.189 Y131.615 E.02028
G1 X122.72 Y131.169 E.02029
G1 X122.358 Y130.633 E.02028
G1 X122.12 Y130.031 E.0203
G1 X122.017 Y129.392 E.02029
G1 X122.053 Y128.746 E.02029
G1 X122.229 Y128.123 E.0203
G1 X122.534 Y127.553 E.02027
G1 X122.954 Y127.062 E.02026
G1 X123.595 Y126.588 E.025
G1 X123.671 Y126.436 E.00533
G1 X123.671 Y86.177 E1.26229
G1 X123.612 Y86.04 E.00468
M73 P3 R12
M73 Q3 S12
G1 X123.203 Y85.838 E.0143
G1 X122.608 Y85.506 E.02136
G1 X122.053 Y85.045 E.02262
G1 X121.619 Y84.563 E.02034
G1 X121.254 Y83.977 E.02165
G1 X120.979 Y83.348 E.02152
G1 X120.821 Y82.68 E.02152
G1 X120.784 Y82.251 E.0135
G1 X120.786 Y81.538 E.02236
G1 X120.925 Y80.858 E.02176
G1 X121.155 Y80.219 E.02129
G1 X121.501 Y79.623 E.02161
G1 X121.926 Y79.086 E.02147
G1 X122.442 Y78.632 E.02155
G1 X123.017 Y78.258 E.02151
G1 X123.651 Y77.993 E.02155
G1 X124.315 Y77.822 E.0215
G1 X125.001 Y77.772 E.02157
G1 X125.685 Y77.822 E.0215
G1 X126.35 Y77.993 E.02153
G1 X126.983 Y78.258 E.02152
G1 X127.559 Y78.633 E.02155
G1 X128.074 Y79.086 E.02151
G1 X128.501 Y79.625 E.02156
G1 X128.845 Y80.219 E.02152
G1 X129.077 Y80.866 E.02155
G1 X129.214 Y81.538 E.0215
G1 X129.216 Y82.454 E.02872
G1 X129.082 Y83.127 E.02152
G1 X128.853 Y83.774 E.02152
G1 X128.511 Y84.37 E.02155
G1 X128.088 Y84.91 E.02151
G1 X127.574 Y85.367 E.02156
G1 X127 Y85.743 E.02151
G1 X126.442 Y86.013 E.01944
M204 S1000
G1 X126.239 Y86.024 F10800
;WIPE_START
G1 F8640
G1 X126.329 Y86.177 E-.04599
G1 X126.329 Y89.442 E-.75401
;WIPE_END
G1 Z.6 F720
G1 X123.641 Y127.404 F10800
G1 Z.2 F720
G1 E.8 F2100
M204 S800
;TYPE:Perimeter
;WIDTH:0.377455
G1 F1200
G1 X123.975 Y127.164 E.01144
;WIDTH:0.419999
G1 X124.438 Y126.973 E.0157
G1 X124.939 Y126.905 E.01585
G1 X125.442 Y126.946 E.01582
G1 X125.92 Y127.108 E.01582
;WIDTH:0.392768
G1 X126.348 Y127.37 E.0146
;WIDTH:0.359209
G1 X126.757 Y127.744 E.01458
;WIDTH:0.363936
G1 X127.075 Y128.237 E.01566
;WIDTH:0.365078
G1 X127.258 Y128.78 E.01535
G1 X127.306 Y129.306 E.01415
;WIDTH:0.366387
G1 X127.228 Y129.853 E.01486
G1 X127.043 Y130.318 E.01346
G1 X126.763 Y130.732 E.01344
G1 X126.4 Y131.077 E.01347
G1 X125.972 Y131.335 E.01344
;WIDTH:0.376273
G1 X125.486 Y131.483 E.01408
G1 X125.163 Y131.537 E.00908
;WIDTH:0.364795
G1 X124.59 Y131.507 E.01536
G1 X124.084 Y131.357 E.01413
;WIDTH:0.366379
G1 X123.6 Y131.077 E.01504
G1 X123.237 Y130.732 E.01347
G1 X122.957 Y130.318 E.01344
;WIDTH:0.376072
G1 X122.783 Y129.839 E.01412
G1 X122.7 Y129.357 E.01355
;WIDTH:0.37155
G1 X122.729 Y128.859 E.01363
G1 X122.864 Y128.378 E.01365
G1 X123.099 Y127.938 E.01363
G1 X123.422 Y127.562 E.01354
;WIDTH:0.377455
G1 X123.592 Y127.439 E.00584
M204 S1000
G1 X123.847 Y127.657 F10800
M204 S800
;TYPE:External perimeter
;WIDTH:0.419999
G1 F1200
G1 X124.196 Y127.452 E.01269
G1 X124.651 Y127.315 E.0149
G1 X125.021 Y127.28 E.01165
G1 X125.441 Y127.33 E.01326
G1 X125.841 Y127.469 E.01328
G1 X126.202 Y127.691 E.01329
G1 X126.507 Y127.986 E.0133
G1 X126.744 Y128.348 E.01357
G1 X126.927 Y128.892 E.018
G1 X126.955 Y129.365 E.01486
G1 X126.882 Y129.783 E.0133
G1 X126.722 Y130.175 E.01328
G1 X126.48 Y130.523 E.01329
G1 X126.169 Y130.811 E.01329
G1 X125.794 Y131.029 E.0136
G1 X125.242 Y131.182 E.01796
G1 X124.609 Y131.158 E.01986
G1 X124.159 Y131.009 E.01486
G1 X123.798 Y130.786 E.0133
G1 X123.493 Y130.492 E.01328
G1 X123.256 Y130.13 E.01357
G1 X123.073 Y129.586 E.018
G1 X123.052 Y129.338 E.0078
G1 X123.077 Y128.916 E.01325
G1 X123.192 Y128.509 E.01326
G1 X123.391 Y128.136 E.01326
G1 X123.665 Y127.818 E.01316
G1 X123.8 Y127.694 E.00575
M204 S1000
G1 X123.807 Y127.259 F10800
;WIPE_START
G1 F8640
G1 X124.196 Y127.452 E-.10716
G1 X124.651 Y127.315 E-.10972
G1 X125.021 Y127.28 E-.08582
G1 X125.441 Y127.33 E-.09766
G1 X125.841 Y127.469 E-.09778
G1 X126.202 Y127.691 E-.09786
G1 X126.507 Y127.986 E-.09798
G1 X126.744 Y128.348 E-.09991
G1 X126.752 Y128.373 E-.00611
;WIPE_END
G1 Z.6 F720
G1 X126.705 Y78.732 F10800
G1 Z.2 F720
G1 E.8 F2100
M204 S800
;TYPE:Solid infill
;WIDTH:0.421554
G1 F1200
G1 X127.559 Y79.586 E.03802
G1 X127.801 Y79.87 E.01175
G1 X128.015 Y80.185 E.01199
G1 X128.194 Y80.521 E.01199
G1 X128.345 Y80.907 E.01305
G1 X126.104 Y78.666 E.09978
G1 X125.941 Y78.612 E.00541
G1 X125.415 Y78.513 E.01685
G1 X128.497 Y81.595 E.13722
G1 X128.522 Y81.997 E.01268
G1 X128.514 Y82.148 E.00476
G1 X124.855 Y78.489 E.16292
G1 X124.373 Y78.543 E.01527
G1 X128.461 Y82.631 E.18202
G1 X128.357 Y83.062 E.01396
G1 X123.945 Y78.65 E.19644
G1 X123.558 Y78.798 E.01304
G1 X128.21 Y83.45 E.20713
G1 X128.028 Y83.803 E.0125
G1 X123.205 Y78.981 E.21472
G1 X122.885 Y79.196 E.01214
M73 Q4 S12
G1 X127.813 Y84.124 E.21942
G1 X127.568 Y84.415 E.01198
M73 P4 R12
G1 X122.594 Y79.441 E.22146
G1 X122.332 Y79.714 E.01191
G1 X127.295 Y84.677 E.22097
G1 X126.992 Y84.909 E.01201
G1 X122.099 Y80.017 E.21784
G1 X121.897 Y80.35 E.01226
G1 X126.659 Y85.112 E.21203
G1 X126.297 Y85.285 E.01263
G1 X121.728 Y80.716 E.20343
G1 X121.596 Y81.12 E.01338
G1 X125.951 Y85.475 E.1939
G1 X125.894 Y85.519 E.00227
G1 X125.71 Y85.769 E.00977
G1 X121.508 Y81.567 E.18709
G1 X121.479 Y81.981 E.01307
G1 X121.488 Y82.083 E.00322
G1 X125.612 Y86.207 E.18362
G1 X125.612 Y86.742 E.01684
G1 X121.56 Y82.69 E.18041
G1 X121.662 Y83.12 E.01391
G1 X121.823 Y83.489 E.01268
G1 X123.542 Y85.208 E.07654
G1 X123.961 Y85.408 E.01462
G1 X124.106 Y85.519 E.00575
G1 X124.287 Y85.755 E.00936
G1 X124.353 Y86.019 E.00857
G1 X125.612 Y87.278 E.05606
G1 X125.612 Y87.813 E.01684
G1 X124.388 Y86.589 E.0545
G1 X124.388 Y87.125 E.01688
G1 X125.612 Y88.349 E.0545
G1 X125.612 Y88.884 E.01684
G1 X124.388 Y87.66 E.0545
G1 X124.388 Y88.196 E.01688
G1 X125.612 Y89.42 E.0545
G1 X125.612 Y89.955 E.01684
G1 X124.388 Y88.731 E.0545
G1 X124.388 Y89.266 E.01684
G1 X125.612 Y90.491 E.05452
G1 X125.612 Y91.026 E.01684
G1 X124.388 Y89.802 E.0545
G1 X124.388 Y90.337 E.01684
G1 X125.612 Y91.562 E.05452
G1 X125.612 Y92.097 E.01684
G1 X124.388 Y90.873 E.0545
G1 X124.388 Y91.408 E.01684
G1 X125.612 Y92.633 E.05452
G1 X125.612 Y93.168 E.01684
G1 X124.388 Y91.944 E.0545
G1 X124.388 Y92.479 E.01684
G1 X125.612 Y93.703 E.0545
G1 X125.612 Y94.239 E.01688
G1 X124.388 Y93.015 E.0545
G1 X124.388 Y93.55 E.01684
G1 X125.612 Y94.774 E.0545
G1 X125.612 Y95.31 E.01688
G1 X124.388 Y94.086 E.0545
G1 X124.388 Y94.621 E.01684
G1 X125.612 Y95.845 E.0545
G1 X125.612 Y96.381 E.01688
G1 X124.388 Y95.157 E.0545
G1 X124.388 Y95.692 E.01684
G1 X125.612 Y96.916 E.0545
G1 X125.612 Y97.452 E.01688
G1 X124.388 Y96.228 E.0545
G1 X124.388 Y96.763 E.01684
G1 X125.612 Y97.987 E.0545
G1 X125.612 Y98.523 E.01688
G1 X124.388 Y97.299 E.0545
G1 X124.388 Y97.834 E.01684
G1 X125.612 Y99.058 E.0545
G1 X125.612 Y99.594 E.01688
G1 X124.388 Y98.369 E.05452
G1 X124.388 Y98.905 E.01688
G1 X125.612 Y100.129 E.0545
G1 X125.612 Y100.665 E.01688
G1 X124.388 Y99.44 E.05452
G1 X124.388 Y99.976 E.01688
G1 X125.612 Y101.2 E.0545
G1 X125.612 Y101.735 E.01684
G1 X124.388 Y100.511 E.0545
G1 X124.388 Y101.047 E.01688
G1 X125.612 Y102.271 E.0545
G1 X125.612 Y102.806 E.01684
G1 X124.388 Y101.582 E.0545
G1 X124.388 Y102.118 E.01688
G1 X125.612 Y103.342 E.0545
G1 X125.612 Y103.877 E.01684
G1 X124.388 Y102.653 E.0545
G1 X124.388 Y103.189 E.01688
G1 X125.612 Y104.413 E.0545
G1 X125.612 Y104.948 E.01684
M73 Q5 S12
G1 X124.388 Y103.724 E.0545
G1 X124.388 Y104.26 E.01688
M73 P5 R12
G1 X125.612 Y105.484 E.0545
G1 X125.612 Y106.019 E.01684
G1 X124.388 Y104.795 E.0545
G1 X124.388 Y105.331 E.01688
G1 X125.612 Y106.555 E.0545
G1 X125.612 Y107.09 E.01684
G1 X124.388 Y105.866 E.0545
G1 X124.388 Y106.401 E.01684
G1 X125.612 Y107.626 E.05452
G1 X125.612 Y108.161 E.01684
G1 X124.388 Y106.937 E.0545
G1 X124.388 Y107.472 E.01684
G1 X125.612 Y108.697 E.05452
G1 X125.612 Y109.232 E.01684
G1 X124.388 Y108.008 E.0545
G1 X124.388 Y108.543 E.01684
G1 X125.612 Y109.768 E.05452
G1 X125.612 Y110.303 E.01684
G1 X124.388 Y109.079 E.0545
G1 X124.388 Y109.614 E.01684
G1 X125.612 Y110.838 E.0545
G1 X125.612 Y111.374 E.01688
G1 X124.388 Y110.15 E.0545
G1 X124.388 Y110.685 E.01684
G1 X125.612 Y111.909 E.0545
G1 X125.612 Y112.445 E.01688
G1 X124.388 Y111.221 E.0545
G1 X124.388 Y111.756 E.01684
G1 X125.612 Y112.98 E.0545
G1 X125.612 Y113.516 E.01688
G1 X124.388 Y112.292 E.0545
G1 X124.388 Y112.827 E.01684
G1 X125.612 Y114.051 E.0545
G1 X125.612 Y114.587 E.01688
G1 X124.388 Y113.363 E.0545
G1 X124.388 Y113.898 E.01684
G1 X125.612 Y115.122 E.0545
G1 X125.612 Y115.658 E.01688
G1 X124.388 Y114.434 E.0545
G1 X124.388 Y114.969 E.01684
G1 X125.612 Y116.193 E.0545
G1 X125.612 Y116.729 E.01688
G1 X124.388 Y115.504 E.05452
G1 X124.388 Y116.04 E.01688
G1 X125.612 Y117.264 E.0545
G1 X125.612 Y117.8 E.01688
G1 X124.388 Y116.575 E.05452
G1 X124.388 Y117.111 E.01688
G1 X125.612 Y118.335 E.0545
G1 X125.612 Y118.871 E.01688
G1 X124.388 Y117.646 E.05452
G1 X124.388 Y118.182 E.01688
G1 X125.612 Y119.406 E.0545
G1 X125.612 Y119.941 E.01684
G1 X124.388 Y118.717 E.0545
G1 X124.388 Y119.253 E.01688
G1 X125.612 Y120.477 E.0545
G1 X125.612 Y121.012 E.01684
G1 X124.388 Y119.788 E.0545
G1 X124.388 Y120.324 E.01688
G1 X125.612 Y121.548 E.0545
G1 X125.612 Y122.083 E.01684
G1 X124.388 Y120.859 E.0545
G1 X124.388 Y121.395 E.01688
G1 X125.612 Y122.619 E.0545
G1 X125.612 Y123.154 E.01684
G1 X124.388 Y121.93 E.0545
G1 X124.388 Y122.466 E.01688
G1 X125.612 Y123.69 E.0545
G1 X125.612 Y124.225 E.01684
G1 X124.388 Y123.001 E.0545
G1 X124.388 Y123.537 E.01688
G1 X125.612 Y124.761 E.0545
G1 X125.612 Y125.296 E.01684
G1 X124.388 Y124.072 E.0545
G1 X124.388 Y124.607 E.01684
G1 X125.612 Y125.832 E.05452
G1 X125.612 Y126.367 E.01684
G1 X124.388 Y125.143 E.0545
G1 X124.388 Y125.678 E.01684
G1 X125.301 Y126.591 E.04065
G1 X125 Y126.561 E.00952
G1 X124.759 Y126.585 E.00763
G1 X124.218 Y126.044 E.02409
M204 S1000
; stop printing object Coupler.stl id:0 copy 0
M106 S84.15
;LAYER_CHANGE
;Z:0.4
;HEIGHT:0.2
;BEFORE_LAYER_CHANGE
G92 E0.0
;0.4


;WIPE_START
G1 F8640
G1 X124.759 Y126.585 E-.17666
G1 X125 Y126.561 E-.05592
G1 X125.301 Y126.591 E-.06985
G1 X124.388 Y125.678 E-.29814
G1 X124.388 Y125.143 E-.12353
G1 X124.62 Y125.375 E-.0759
;WIPE_END
G1 Z.6 F720
;AFTER_LAYER_CHANGE
;0.4
M104 S210 ; set temperature
G1 X119.159 Y125.524 F10800
G1 Z.4 F720
G1 E.8 F2100
;TYPE:Skirt/Brim
;WIDTH:0.42
G1 F3000
G1 X117.974 Y82.058 E1.36335
G1 X118.115 Y80.612 E.04555
