; generated by PrusaSlicer 2.6.1+win64 on 2023-11-05 at 03:01:27 UTC


;
;
; 

; external perimeters extrusion width = 0.45mm
; perimeters extrusion width = 0.45mm
; infill extrusion width = 0.45mm
; solid infill extrusion width = 0.45mm
; top infill extrusion width = 0.40mm
; first layer extrusion width = 0.42mm

M73 P0 R10
M73 Q0 S10
M201 X1000 Y1000 Z200 E5000 ; sets maximum accelerations, mm/sec^2
M203 X200 Y200 Z12 E120 ; sets maximum feedrates, mm / sec
M204 S1250 T1250 ; sets acceleration (S) and retract acceleration (R), mm/sec^2
M205 X8.00 Y8.00 Z0.40 E4.50 ; sets the jerk limits, mm/sec
M205 S0 T0 ; sets the minimum extruding and travel feed rate, mm/sec
;TYPE:Custom
M862.3 P "MK3S" ; printer model check
M862.1 P0.4 ; nozzle diameter check
M115 U3.13.0 ; tell printer latest fw version
G90 ; use absolute coordinates
M83 ; extruder relative mode
M104 S215 ; set extruder temp
M140 S60 ; set bed temp
M190 S60 ; wait for bed temp
M109 S215 ; wait for extruder temp
G28 W ; home all without mesh bed level
G80 ; mesh bed leveling

G1 Z0.2 F720
G1 Y-3 F1000 ; go outside print area
G92 E0
G1 X60 E9 F1000 ; intro line
G1 X100 E12.5 F1000 ; intro line

G92 E0
M221 S95

; Don't change E values below. Excessive value can damage the printer.
M907 E430 ; set extruder motor current
G21 ; set units to millimeters
G90 ; use absolute coordinates
M83 ; use relative distances for extrusion
M900 K0.05 ; Filament gcode LA 1.5
M900 K30 ; Filament gcode LA 1.0
M107
;LAYER_CHANGE
;Z:0.2
;HEIGHT:0.2
;BEFORE_LAYER_CHANGE
G92 E0.0
;0.2


G1 E-.8 F2100
M73 P1 R10
M73 Q1 S10
G1 Z.4 F720
;AFTER_LAYER_CHANGE
;0.2
G1 X119.185 Y89.9 F10800
G1 Z.2 F720
G1 E.8 F2100
M204 S800
;TYPE:Skirt/Brim
;WIDTH:0.42
G1 F1200
G1 X120.082 Y88.948 E.04101
G1 X121.384 Y88.021 E.05011
G1 X122.862 Y87.393 E.05035
G1 X124.42 Y87.101 E.0497
G1 X125.551 Y87.098 E.03546
G1 X127.131 Y87.391 E.05038
G1 X128.345 Y87.877 E.041
G1 X129.671 Y88.738 E.04957
G1 X130.484 Y89.508 E.03511
G1 X131.278 Y90.558 E.04128
G1 X131.976 Y92.005 E.05037
G1 X132.266 Y93.069 E.03458
G1 X132.4 Y94.659 E.05003
G1 X131.148 Y116.983 E.70105
G1 X130.951 Y118.325 E.04253
G1 X130.612 Y119.289 E.03204
G1 X129.948 Y120.424 E.04123
G1 X129.324 Y121.145 E.0299
G1 X128.54 Y121.8 E.03203
G1 X127.72 Y122.287 E.0299
G1 X126.77 Y122.661 E.03201
G1 X125.838 Y122.864 E.02991
G1 X124.818 Y122.918 E.03203
G1 X123.87 Y122.816 E.0299
G1 X122.885 Y122.546 E.03202
G1 X122.018 Y122.15 E.02989
G1 X121.176 Y121.587 E.03176
G1 X120.472 Y120.933 E.03013
G1 X119.851 Y120.134 E.03173
G1 X119.391 Y119.295 E.03
G1 X119.053 Y118.338 E.03182
G1 X118.852 Y116.987 E.04283
G1 X117.599 Y94.37 E.71023
G1 X117.797 Y92.776 E.05036
G1 X118.334 Y91.262 E.05037
G1 X119.153 Y89.951 E.04847
M204 S1000
G1 X119.47 Y90.148 F10800
M204 S800
G1 F1200
G1 X120.342 Y89.221 E.0399
G1 X121.579 Y88.344 E.04754
G1 X122.983 Y87.75 E.0478
G1 X124.462 Y87.476 E.04716
G1 X125.511 Y87.473 E.03289
G1 X127.01 Y87.748 E.04778
G1 X128.187 Y88.218 E.03974
G1 X129.44 Y89.036 E.04692
G1 X130.196 Y89.752 E.03265
G1 X130.965 Y90.769 E.03998
M73 Q2 S10
G1 X131.625 Y92.143 E.04779
G1 X131.894 Y93.128 E.03201
G1 X132.023 Y94.638 E.04752
G1 X130.772 Y116.962 E.70105
M73 P2 R10
G1 X130.589 Y118.219 E.03983
G1 X130.263 Y119.145 E.03078
G1 X129.638 Y120.21 E.03872
G1 X129.067 Y120.869 E.02734
G1 X128.314 Y121.499 E.03078
G1 X127.564 Y121.944 E.02734
G1 X126.65 Y122.303 E.03079
G1 X125.798 Y122.489 E.02734
G1 X124.818 Y122.541 E.03077
G1 X123.951 Y122.448 E.02734
G1 X123.004 Y122.188 E.03079
G1 X122.211 Y121.826 E.02733
G1 X121.401 Y121.285 E.03054
G1 X120.757 Y120.686 E.02758
G1 X120.161 Y119.919 E.03046
G1 X119.74 Y119.15 E.02749
G1 X119.415 Y118.232 E.03053
G1 X119.229 Y116.966 E.04012
G1 X117.976 Y94.388 E.70901
G1 X118.161 Y92.875 E.04779
G1 X118.668 Y91.438 E.04778
G1 X119.438 Y90.199 E.04574
M204 S1000
; printing object Coupler.stl id:0 copy 0
;WIPE_START
G1 F8640
G1 X120.342 Y89.221 E-.30752
G1 X121.579 Y88.344 E-.35013
G1 X122.147 Y88.104 E-.14235
;WIPE_END
G1 Z.6 F720
G1 X126.075 Y98.282 F10800
G1 Z.2 F720
G1 E.8 F2100
M204 S800
;TYPE:Perimeter
;WIDTH:0.419999
G1 F1200
G1 X125.963 Y98.398 E.00506
G1 X125.892 Y98.672 E.00887
G1 X125.892 Y113.936 E.47859
G1 X125.954 Y114.193 E.00829
M73 P2 R9
G1 X126.022 Y114.295 E.00384
;WIDTH:0.418082
G1 X126.161 Y114.39 E.00525
;WIDTH:0.392047
G1 X126.3 Y114.484 E.00487
;WIDTH:0.377436
G1 X126.77 Y114.828 E.0162
G1 X127.142 Y115.245 E.01554
;WIDTH:0.373821
G1 X127.42 Y115.734 E.01548
;WIDTH:0.368033
G1 X127.586 Y116.281 E.01545
;WIDTH:0.367417
G1 X127.63 Y116.848 E.01534
;WIDTH:0.377968
G1 X127.553 Y117.391 E.01528
G1 X127.366 Y117.921 E.01566
;WIDTH:0.370546
G1 X127.068 Y118.398 E.01532
;WIDTH:0.370418
G1 X126.674 Y118.8 E.01533
;WIDTH:0.370288
G1 X126.205 Y119.11 E.0153
;WIDTH:0.370146
G1 X125.68 Y119.312 E.01531
;WIDTH:0.371012
G1 X125.123 Y119.398 E.01538
G1 X124.511 Y119.353 E.01674
;WIDTH:0.370076
G1 X124.02 Y119.212 E.0139
;WIDTH:0.370219
G1 X123.523 Y118.948 E.01532
;WIDTH:0.370358
G1 X123.094 Y118.584 E.01532
;WIDTH:0.370485
G1 X122.752 Y118.137 E.01533
;WIDTH:0.378001
G1 X122.528 Y117.66 E.01468
G1 X122.419 Y117.253 E.01174
;WIDTH:0.361609
G1 X122.376 Y116.689 E.01499
;WIDTH:0.361764
G1 X122.454 Y116.129 E.01499
;WIDTH:0.361924
G1 X122.65 Y115.598 E.01501
;WIDTH:0.362088
G1 X122.956 Y115.122 E.01502
;WIDTH:0.362255
G1 X123.356 Y114.722 E.01502
;WIDTH:0.375791
G1 X123.836 Y114.394 E.01609
;WIDTH:0.419999
G1 X124.073 Y114.13 E.01112
G1 X124.108 Y113.936 E.00618
G1 X124.108 Y98.672 E.47859
G1 X124.037 Y98.398 E.00887
M73 P3 R9
M73 Q3 S10
G1 X123.921 Y98.252 E.00585
G1 X122.861 Y97.694 E.03756
G1 X122.371 Y97.3 E.01971
G1 X121.944 Y96.84 E.01968
G1 X121.606 Y96.309 E.01974
G1 X121.349 Y95.736 E.01969
G1 X121.199 Y95.125 E.01973
G1 X121.138 Y94.5 E.01969
G1 X121.192 Y93.874 E.0197
G1 X121.335 Y93.262 E.01971
G1 X121.586 Y92.685 E.01973
G1 X121.918 Y92.152 E.01969
G1 X122.341 Y91.686 E.01973
G1 X122.826 Y91.287 E.01969
G1 X123.376 Y90.982 E.01972
G1 X123.963 Y90.759 E.01969
G1 X124.582 Y90.646 E.01973
G1 X125.21 Y90.623 E.0197
G1 X125.832 Y90.714 E.01971
G1 X126.434 Y90.893 E.01969
G1 X126.995 Y91.179 E.01974
G1 X127.507 Y91.542 E.01968
G1 X127.947 Y91.992 E.01973
G1 X128.316 Y92.5 E.01969
G1 X128.589 Y93.068 E.01976
G1 X128.775 Y93.667 E.01967
G1 X128.851 Y94.289 E.01965
G1 X128.837 Y94.919 E.01976
G1 X128.707 Y95.542 E.01995
G1 X128.493 Y96.125 E.01947
G1 X128.195 Y96.639 E.01863
G1 X127.818 Y97.094 E.01853
G1 X127.312 Y97.553 E.02142
G1 X126.777 Y97.908 E.02013
G1 X126.166 Y98.187 E.02106
G1 X126.117 Y98.239 E.00224
M204 S1000
G1 X126.332 Y98.532 F10800
M204 S800
;TYPE:External perimeter
G1 F1200
G1 X126.269 Y98.672 E.00481
G1 X126.269 Y113.936 E.47859
G1 X126.349 Y114.09 E.00544
M73 Q3 S9
G1 X126.995 Y114.547 E.02481
G1 X127.422 Y115.021 E.02
G1 X127.738 Y115.576 E.02002
G1 X127.93 Y116.186 E.02005
G1 X127.987 Y116.822 E.02002
G1 X127.908 Y117.456 E.02003
G1 X127.695 Y118.059 E.02005
G1 X127.36 Y118.602 E.02
G1 X126.916 Y119.062 E.02005
G1 X126.385 Y119.417 E.02003
G1 X125.791 Y119.651 E.02002
G1 X125.16 Y119.753 E.02004
G1 X124.522 Y119.719 E.02003
G1 X123.906 Y119.55 E.02003
G1 X123.34 Y119.254 E.02003
G1 X122.85 Y118.844 E.02003
G1 X122.458 Y118.339 E.02004
G1 X122.182 Y117.763 E.02003
G1 X122.036 Y117.141 E.02003
G1 X122.025 Y116.502 E.02004
G1 X122.15 Y115.876 E.02002
G1 X122.405 Y115.29 E.02004
G1 X122.779 Y114.772 E.02003
G1 X123.228 Y114.37 E.0189
G1 X123.668 Y114.077 E.01657
G1 X123.731 Y113.936 E.00484
G1 X123.731 Y98.672 E.47859
G1 X123.668 Y98.532 E.00481
G1 X123.258 Y98.337 E.01424
G1 X122.652 Y98.009 E.02161
G1 X122.114 Y97.576 E.02165
G1 X121.645 Y97.071 E.02161
G1 X121.274 Y96.488 E.02167
G1 X120.992 Y95.859 E.02161
G1 X120.827 Y95.189 E.02163
G1 X120.761 Y94.502 E.02164
G1 X120.819 Y93.814 E.02165
G1 X120.977 Y93.143 E.02161
G1 X121.253 Y92.51 E.02165
G1 X121.617 Y91.924 E.02163
G1 X122.081 Y91.413 E.02164
G1 X122.614 Y90.975 E.02163
G1 X123.217 Y90.64 E.02163
G1 X123.862 Y90.395 E.02163
G1 X124.541 Y90.271 E.02164
G1 X125.23 Y90.246 E.02162
G1 X125.914 Y90.346 E.02167
G1 X126.574 Y90.543 E.0216
G1 X127.19 Y90.856 E.02166
G1 X127.752 Y91.255 E.02161
G1 X128.235 Y91.749 E.02166
G1 X128.64 Y92.306 E.02159
G1 X128.939 Y92.93 E.0217
G1 X129.145 Y93.587 E.02159
G1 X129.228 Y94.27 E.02157
G1 X129.225 Y94.735 E.01458
G1 X129.134 Y95.416 E.02154
G1 X128.925 Y96.066 E.02141
G1 X128.709 Y96.519 E.01574
G1 X128.357 Y97.068 E.02045
G1 X127.885 Y97.576 E.02174
G1 X127.548 Y97.847 E.01356
G1 X126.951 Y98.243 E.02246
G1 X126.386 Y98.507 E.01955
M204 S1000
G1 X126.179 Y98.516 F10800
;WIPE_START
G1 F8640
G1 X126.269 Y98.672 E-.04671
G1 X126.269 Y101.934 E-.75329
;WIPE_END
G1 Z.6 F720
G1 X122.71 Y116.592 F10800
G1 Z.2 F720
G1 E.8 F2100
M204 S800
;TYPE:Perimeter
;WIDTH:0.361969
G1 F1200
G1 X122.763 Y116.209 E.01026
G1 X122.943 Y115.726 E.01367
;WIDTH:0.367697
G1 X123.275 Y115.234 E.01603
;WIDTH:0.368535
G1 X123.649 Y114.897 E.01363
;WIDTH:0.388493
G1 X124.08 Y114.641 E.0144
;WIDTH:0.419999
G1 X124.588 Y114.475 E.01676
G1 X125.161 Y114.444 E.01799
G1 X125.687 Y114.539 E.01676
G1 X125.913 Y114.651 E.00791
;WIDTH:0.393005
G1 X126.139 Y114.763 E.00734
;WIDTH:0.377436
G1 X126.537 Y115.068 E.01395
G1 X126.857 Y115.412 E.01307
;WIDTH:0.373821
G1 X127.115 Y115.847 E.01392
;WIDTH:0.368251
G1 X127.266 Y116.33 E.01369
G1 X127.308 Y116.836 E.01374
;WIDTH:0.367165
G1 X127.17 Y117.541 E.01937
;WIDTH:0.362675
G1 X126.94 Y118.016 E.01403
;WIDTH:0.360903
G1 X126.604 Y118.428 E.01406
;WIDTH:0.364587
G1 X126.139 Y118.777 E.01555
;WIDTH:0.369999
G1 X125.618 Y118.991 E.01532
;WIDTH:0.371012
G1 X125.141 Y119.071 E.01319
G1 X124.614 Y119.042 E.0144
G1 X124.084 Y118.888 E.01506
;WIDTH:0.364704
G1 X123.584 Y118.592 E.01555
;WIDTH:0.360924
G1 X123.206 Y118.218 E.01406
;WIDTH:0.362687
G1 X122.926 Y117.772 E.014
;WIDTH:0.362989
G1 X122.743 Y117.228 E.01528
M73 Q4 S9
G1 X122.695 Y116.703 E.01403
;WIDTH:0.361969
G1 X122.702 Y116.651 E.00139
M204 S1000
G1 X123.065 Y116.969 F10800
M204 S800
;TYPE:External perimeter
;WIDTH:0.419999
G1 F1200
G1 X123.047 Y116.632 E.01058
G1 X123.107 Y116.266 E.01163
G1 X123.279 Y115.834 E.01458
G1 X123.52 Y115.486 E.01327
G1 X123.837 Y115.194 E.01351
M73 P4 R9
G1 X124.196 Y114.983 E.01306
G1 X124.693 Y114.847 E.01616
G1 X125.223 Y114.823 E.01663
G1 X125.645 Y114.92 E.01358
G1 X126.035 Y115.108 E.01357
G1 X126.472 Y115.479 E.01797
G1 X126.808 Y116.017 E.01989
G1 X126.937 Y116.473 E.01486
G1 X126.953 Y116.906 E.01359
G1 X126.83 Y117.467 E.01801
G1 X126.557 Y117.95 E.0174
G1 X126.271 Y118.253 E.01306
G1 X125.928 Y118.489 E.01305
G1 X125.543 Y118.647 E.01305
G1 X125.16 Y118.719 E.01222
G1 X124.609 Y118.689 E.0173
G1 X124.159 Y118.54 E.01486
G1 X123.798 Y118.318 E.01329
G1 X123.493 Y118.023 E.0133
G1 X123.256 Y117.661 E.01357
G1 X123.073 Y117.117 E.018
G1 X123.068 Y117.029 E.00276
M204 S1000
G1 X122.753 Y116.838 F10800
;WIPE_START
G1 F8640
G1 X123.047 Y116.632 E-.0918
G1 X123.107 Y116.266 E-.08564
G1 X123.279 Y115.834 E-.10737
G1 X123.52 Y115.486 E-.09774
G1 X123.837 Y115.194 E-.09952
G1 X124.196 Y114.983 E-.09615
G1 X124.693 Y114.847 E-.11898
G1 X125.138 Y114.827 E-.1028
;WIPE_END
G1 Z.6 F720
G1 X126.699 Y91.204 F10800
G1 Z.2 F720
G1 E.8 F2100
M204 S800
;TYPE:Solid infill
;WIDTH:0.425837
G1 F1200
G1 X127.585 Y92.089 E.03987
G1 X127.811 Y92.357 E.01116
G1 X128.024 Y92.674 E.01216
G1 X128.202 Y93.013 E.01219
G1 X128.35 Y93.396 E.01307
G1 X126.089 Y91.135 E.10181
G1 X125.572 Y91.004 E.01698
G1 X125.397 Y90.985 E.0056
G1 X128.498 Y94.086 E.13963
G1 X128.513 Y94.642 E.01771
G1 X124.833 Y90.962 E.1657
G1 X124.35 Y91.021 E.01549
G1 X128.457 Y95.127 E.18491
G1 X128.349 Y95.561 E.01424
G1 X123.92 Y91.132 E.19943
G1 X123.53 Y91.284 E.01333
G1 X128.198 Y95.951 E.21017
G1 X128.01 Y96.305 E.01276
G1 X123.177 Y91.472 E.21762
G1 X122.855 Y91.692 E.01242
G1 X127.789 Y96.626 E.22217
G1 X127.529 Y96.907 E.01219
G1 X122.564 Y91.942 E.22356
G1 X122.303 Y92.222 E.01219
G1 X127.249 Y97.168 E.22271
G1 X126.949 Y97.41 E.01227
G1 X122.071 Y92.532 E.21965
G1 X121.871 Y92.874 E.01261
G1 X126.609 Y97.611 E.21332
G1 X126.238 Y97.782 E.01301
G1 X121.705 Y93.249 E.20411
G1 X121.577 Y93.663 E.0138
G1 X125.887 Y97.973 E.19407
G1 X125.66 Y98.238 E.01111
M73 Q5 S9
G1 X125.65 Y98.277 E.00128
G1 X121.496 Y94.124 E.18702
G1 X121.488 Y94.656 E.01694
M73 P5 R9
G1 X125.553 Y98.722 E.18306
G1 X125.553 Y99.263 E.01723
G1 X121.572 Y95.283 E.17923
G1 X121.67 Y95.626 E.01136
G1 X121.814 Y95.98 E.01217
G1 X121.915 Y96.166 E.00674
G1 X123.317 Y97.569 E.06315
G1 X123.925 Y97.852 E.02135
G1 X124.15 Y97.999 E.00856
G1 X124.34 Y98.238 E.00972
G1 X124.447 Y98.699 E.01507
G1 X125.553 Y99.805 E.0498
G1 X125.553 Y100.346 E.01723
G1 X124.447 Y99.241 E.04978
G1 X124.447 Y99.782 E.01723
G1 X125.553 Y100.888 E.0498
G1 X125.553 Y101.429 E.01723
G1 X124.447 Y100.324 E.04978
G1 X124.447 Y100.865 E.01723
G1 X125.553 Y101.971 E.0498
G1 X125.553 Y102.512 E.01723
G1 X124.447 Y101.407 E.04978
G1 X124.447 Y101.948 E.01723
G1 X125.553 Y103.054 E.0498
G1 X125.553 Y103.595 E.01723
G1 X124.447 Y102.49 E.04978
G1 X124.447 Y103.031 E.01723
G1 X125.553 Y104.137 E.0498
G1 X125.553 Y104.678 E.01723
G1 X124.447 Y103.573 E.04978
G1 X124.447 Y104.114 E.01723
G1 X125.553 Y105.22 E.0498
G1 X125.553 Y105.761 E.01723
G1 X124.447 Y104.656 E.04978
G1 X124.447 Y105.197 E.01723
G1 X125.553 Y106.303 E.0498
G1 X125.553 Y106.845 E.01726
G1 X124.447 Y105.739 E.0498
G1 X124.447 Y106.28 E.01723
G1 X125.553 Y107.386 E.0498
G1 X125.553 Y107.928 E.01726
G1 X124.447 Y106.822 E.0498
G1 X124.447 Y107.363 E.01723
G1 X125.553 Y108.469 E.0498
G1 X125.553 Y109.011 E.01726
G1 X124.447 Y107.905 E.0498
G1 X124.447 Y108.447 E.01726
G1 X125.553 Y109.552 E.04978
G1 X125.553 Y110.094 E.01726
G1 X124.447 Y108.988 E.0498
G1 X124.447 Y109.53 E.01726
G1 X125.553 Y110.635 E.04978
G1 X125.553 Y111.177 E.01726
G1 X124.447 Y110.071 E.0498
G1 X124.447 Y110.613 E.01726
G1 X125.553 Y111.718 E.04978
G1 X125.553 Y112.26 E.01726
G1 X124.447 Y111.154 E.0498
G1 X124.447 Y111.696 E.01726
G1 X125.553 Y112.801 E.04978
G1 X125.553 Y113.343 E.01726
G1 X124.447 Y112.237 E.0498
G1 X124.447 Y112.779 E.01726
G1 X125.553 Y113.884 E.04978
G1 X125.553 Y113.954 E.00223
G1 X125.607 Y114.18 E.0074
G1 X125.378 Y114.123 E.00751
G1 X125.238 Y114.111 E.00447
G1 X124.447 Y113.32 E.03562
G1 X124.447 Y113.862 E.01726
G1 X124.875 Y114.29 E.01927
M204 S1000
; stop printing object Coupler.stl id:0 copy 0
M106 S84.15
;LAYER_CHANGE
;Z:0.4
;HEIGHT:0.2
;BEFORE_LAYER_CHANGE
G92 E0.0
;0.4


;WIPE_START
G1 F8640
G1 X124.447 Y113.862 E-.13976
G1 X124.447 Y113.32 E-.12515
G1 X125.238 Y114.111 E-.2583
G1 X125.378 Y114.123 E-.03244
G1 X125.607 Y114.18 E-.05449
G1 X125.553 Y113.954 E-.05365
G1 X125.553 Y113.884 E-.01616
G1 X125.185 Y113.517 E-.12005
;WIPE_END
G1 Z.6 F720
;AFTER_LAYER_CHANGE
;0.4
M104 S210 ; set temperature
G1 X131.323 Y113.861 F10800
G1 Z.4 F720
G1 E.8 F2100
;TYPE:Skirt/Brim
;WIDTH:0.42
G1 F3000
G1 X131.148 Y116.983 E.09804
G1 X130.951 Y118.325 E.04253
G1 X130.612 Y119.289 E.03204
G1 X129.948 Y120.424 E.04123
G1 X129.324 Y121.145 E.0299
G1 X128.54 Y121.8 E.03203
G1 X127.72 Y122.287 E.0299
G1 X126.77 Y122.661 E.03201
G1 X125.838 Y122.864 E.02991
G1 X124.818 Y122.918 E.03203
G1 X123.87 Y122.816 E.0299
G1 X122.885 Y122.546 E.03202
G1 X122.018 Y122.15 E.02989
G1 X121.176 Y121.587 E.03176
G1 X120.472 Y120.933 E.03013
G1 X119.851 Y120.134 E.03173
G1 X119.391 Y119.295 E.03
G1 X119.053 Y118.338 E.03182
G1 X118.852 Y116.987 E.04283
G1 X117.599 Y94.37 E.71023
G1 X117.797 Y92.776 E.05036
G1 X118.334 Y91.262 E.05037
G1 X119.185 Y89.9 E.05036
G1 X120.082 Y88.948 E.04101
G1 X121.384 Y88.021 E.05011
G1 X122.862 Y87.393 E.05035
M73 Q6 S9
G1 X124.42 Y87.101 E.0497
G1 X125.551 Y87.098 E.03546
G1 X127.131 Y87.391 E.05038
G1 X128.345 Y87.877 E.041
G1 X129.671 Y88.738 E.04957
M73 P6 R9
G1 X130.484 Y89.508 E.03511
G1 X131.278 Y90.558 E.04128
G1 X131.976 Y92.005 E.05037
G1 X132.266 Y93.069 E.03458
G1 X132.4 Y94.659 E.05003
G1 X131.327 Y113.801 E.60113
G1 X130.95 Y113.78 F10800
G1 F3000
G1 X130.772 Y116.962 E.09993
G1 X130.589 Y118.219 E.03983
