; generated by PrusaSlicer 2.6.1+win64 on 2023-11-06 at 03:21:29 UTC


;
;
; 

; external perimeters extrusion width = 0.45mm
; perimeters extrusion width = 0.45mm
; infill extrusion width = 0.45mm
; solid infill extrusion width = 0.45mm
; top infill extrusion width = 0.40mm
; first layer extrusion width = 0.42mm

M73 P0 R11
M73 Q0 S11
M201 X1000 Y1000 Z200 E5000 ; sets maximum accelerations, mm/sec^2
M203 X200 Y200 Z12 E120 ; sets maximum feedrates, mm / sec
M204 S1250 T1250 ; sets acceleration (S) and retract acceleration (R), mm/sec^2
M205 X8.00 Y8.00 Z0.40 E4.50 ; sets the jerk limits, mm/sec
M205 S0 T0 ; sets the minimum extruding and travel feed rate, mm/sec
;TYPE:Custom
M862.3 P "MK3S" ; printer model check
M862.1 P0.4 ; nozzle diameter check
M115 U3.13.0 ; tell printer latest fw version
G90 ; use absolute coordinates
M83 ; extruder relative mode
M104 S215 ; set extruder temp
M140 S60 ; set bed temp
M190 S60 ; wait for bed temp
M109 S215 ; wait for extruder temp
G28 W ; home all without mesh bed level
G80 ; mesh bed leveling

G1 Z0.2 F720
G1 Y-3 F1000 ; go outside print area
G92 E0
G1 X60 E9 F1000 ; intro line
G1 X100 E12.5 F1000 ; intro line

G92 E0
M221 S95

; Don't change E values below. Excessive value can damage the printer.

M907 E538 ; set extruder motor current
G21 ; set units to millimeters
G90 ; use absolute coordinates
M83 ; use relative distances for extrusion
M900 K0.05 ; Filament gcode LA 1.5
M900 K30 ; Filament gcode LA 1.0
M107
;LAYER_CHANGE
;Z:0.2
;HEIGHT:0.2
;BEFORE_LAYER_CHANGE
G92 E0.0
;0.2


G1 E-.8 F2100
G1 Z.4 F720
;AFTER_LAYER_CHANGE
;0.2
G1 X66.91 Y99.642 F10800
G1 Z.2 F720
M73 P1 R10
M73 Q1 S11
G1 E.8 F2100
M204 S800
;TYPE:Skirt/Brim
;WIDTH:0.42
G1 F1200
G1 X67.85 Y99.448 E.03009
G1 X182.15 Y99.448 E3.5838
G1 X183.457 Y99.84 E.04278
G1 X184.333 Y100.885 E.04275
G1 X184.527 Y101.825 E.03009
G1 X184.527 Y108.175 E.1991
G1 X184.135 Y109.482 E.04278
M73 P2 R10
M73 Q2 S11
G1 X183.09 Y110.358 E.04275
G1 X182.15 Y110.552 E.03009
G1 X67.85 Y110.552 E3.5838
G1 X66.543 Y110.16 E.04278
G1 X65.667 Y109.115 E.04275
G1 X65.473 Y108.175 E.03009
M73 Q2 S10
G1 X65.473 Y101.825 E.1991
G1 X65.865 Y100.518 E.04278
G1 X66.864 Y99.68 E.04088
M204 S1000
; printing object Coupler Connector.stl id:0 copy 0
;WIPE_START
G1 F8640
M73 P3 R10
G1 X67.85 Y99.448 E-.23389
G1 X70.302 Y99.448 E-.56611
;WIPE_END
M73 Q3 S10
G1 Z.6 F720
G1 X179.228 Y102.687 F10800
G1 Z.2 F720
G1 E.8 F2100
M204 S800
;TYPE:Perimeter
;WIDTH:0.570328
G1 F1200
G1 X179.123 Y102.741 E.00518
;WIDTH:0.532746
G1 X179.017 Y102.794 E.00483
;WIDTH:0.495164
G1 X178.911 Y102.848 E.00447
;WIDTH:0.457582
G1 X178.806 Y102.901 E.00406
;WIDTH:0.419999
G1 X178.278 Y103.219 E.01933
G1 X177.91 Y103.597 E.01654
G1 X177.559 Y104.23 E.02269
G1 X177.445 Y104.691 E.01489
G1 X177.438 Y105.219 E.01656
G1 X177.618 Y105.92 E.02269
G1 X177.874 Y106.355 E.01583
G1 X178.376 Y106.856 E.02224
G1 X178.806 Y107.099 E.01549
;WIDTH:0.46814
G1 X178.96 Y107.171 E.00601
;WIDTH:0.516281
G1 X179.115 Y107.243 E.00673
;WIDTH:0.564422
G1 X179.27 Y107.316 E.00743
G1 X179.099 Y107.34 E.00749
;WIDTH:0.516281
G1 X178.929 Y107.364 E.00676
;WIDTH:0.46814
G1 X178.758 Y107.388 E.00611
;WIDTH:0.419999
G1 X71.4 Y107.388 E3.36613
;WIDTH:0.457579
G1 X71.243 Y107.369 E.00545
;WIDTH:0.495159
M73 P4 R10
M73 Q4 S10
G1 X71.086 Y107.35 E.00595
;WIDTH:0.532739
G1 X70.929 Y107.332 E.00644
;WIDTH:0.570318
G1 X70.772 Y107.313 E.00694
G1 X70.877 Y107.259 E.00518
;WIDTH:0.532739
G1 X70.983 Y107.206 E.00483
;WIDTH:0.495159
G1 X71.089 Y107.152 E.00447
;WIDTH:0.457579
G1 X71.194 Y107.099 E.00406
;WIDTH:0.419999
G1 X71.722 Y106.781 E.01933
G1 X72.09 Y106.403 E.01654
G1 X72.441 Y105.77 E.02269
G1 X72.555 Y105.309 E.01489
G1 X72.562 Y104.781 E.01656
G1 X72.434 Y104.221 E.01801
G1 X72.215 Y103.767 E.0158
G1 X71.906 Y103.384 E.01543
G1 X71.416 Y103.011 E.01931
;WIDTH:0.469651
G1 X71.298 Y102.936 E.00496
;WIDTH:0.519302
G1 X71.18 Y102.861 E.00554
;WIDTH:0.568953
G1 X71.062 Y102.786 E.00612
;WIDTH:0.618604
G1 X70.944 Y102.711 E.00669
G1 X71.084 Y102.687 E.0068
;WIDTH:0.568953
G1 X71.224 Y102.662 E.00622
;WIDTH:0.519302
G1 X71.364 Y102.637 E.00563
;WIDTH:0.469651
G1 X71.504 Y102.612 E.00505
;WIDTH:0.419999
G1 X178.6 Y102.612 E3.35791
;WIDTH:0.457582
G1 X178.757 Y102.631 E.00545
;WIDTH:0.495164
G1 X178.914 Y102.65 E.00595
;WIDTH:0.532746
G1 X179.071 Y102.668 E.00644
;WIDTH:0.570328
G1 X179.169 Y102.68 E.00433
M204 S1000
;WIPE_START
G1 F8640
G1 X179.123 Y102.741 E-.01764
G1 X179.017 Y102.794 E-.02736
G1 X178.911 Y102.848 E-.02747
G1 X178.806 Y102.901 E-.02716
G1 X178.278 Y103.219 E-.14232
G1 X177.91 Y103.597 E-.12181
G1 X177.559 Y104.23 E-.16713
G1 X177.445 Y104.691 E-.10965
G1 X177.438 Y105.219 E-.12193
G1 X177.478 Y105.376 E-.03753
;WIPE_END
G1 Z.6 F720
G1 X180.946 Y103.052 F10800
G1 Z.2 F720
G1 E.8 F2100
M204 S800
;WIDTH:0.493024
G1 F1200
G1 X180.852 Y102.981 E.00441
;WIDTH:0.534956
G1 X180.689 Y102.891 E.00762
;WIDTH:0.576888
G1 X180.525 Y102.801 E.00831
;WIDTH:0.61882
G1 X180.362 Y102.711 E.00892
G1 X180.458 Y102.696 E.00465
;WIDTH:0.58841
G1 X180.554 Y102.681 E.00441
;WIDTH:0.557999
G1 X180.941 Y102.665 E.01659
;WIDTH:0.525512
G1 X181.328 Y102.649 E.01554
;WIDTH:0.493024
G1 X181.327 Y103.339 E.02582
G1 X180.995 Y103.087 E.0156
M204 S1000
;WIPE_START
G1 F8640
G1 X180.852 Y102.981 E-.0411
G1 X180.689 Y102.891 E-.04299
G1 X180.525 Y102.801 E-.0432
G1 X180.362 Y102.711 E-.04299
M73 Q5 S10
G1 X180.458 Y102.696 E-.02244
G1 X180.554 Y102.681 E-.02244
G1 X180.941 Y102.665 E-.08944
G1 X181.328 Y102.649 E-.08944
G1 X181.327 Y103.339 E-.15932
G1 X180.995 Y103.087 E-.09624
;WIPE_END
G1 E-.1504 F2100
M73 P5 R10
G1 Z.6 F720
G1 X181.311 Y106.677 F10800
G1 Z.2 F720
G1 E.8 F2100
M204 S800
;WIDTH:0.501728
G1 F1200
G1 X181.326 Y106.707 E.00128
G1 X181.324 Y107.347 E.02442
G1 X180.872 Y107.347 E.01724
;WIDTH:0.536062
G1 X180.531 Y107.33 E.014
;WIDTH:0.570396
G1 X180.19 Y107.313 E.01497
G1 X180.282 Y107.28 E.00429
;WIDTH:0.553282
G1 X180.531 Y107.169 E.01157
;WIDTH:0.527505
G1 X180.781 Y107.058 E.01102
;WIDTH:0.501728
G1 X181.262 Y106.712 E.0226
M204 S1000
;WIPE_START
G1 F8640
G1 X181.326 Y106.707 E-.01482
G1 X181.324 Y107.347 E-.14778
G1 X180.872 Y107.347 E-.10437
G1 X180.531 Y107.33 E-.07884
G1 X180.19 Y107.313 E-.07884
G1 X180.282 Y107.28 E-.02257
G1 X180.531 Y107.169 E-.06295
G1 X180.781 Y107.058 E-.06316
G1 X181.262 Y106.712 E-.13681
;WIPE_END
G1 E-.08986 F2100
G1 Z.6 F720
G1 X180.697 Y103.371 F10800
G1 Z.2 F720
G1 E.8 F2100
M204 S800
;TYPE:External perimeter
;WIDTH:0.419999
G1 F1200
G1 X181.037 Y103.643 E.01365
G1 X181.291 Y103.995 E.01361
;WIDTH:0.427925
G1 X181.455 Y104.512 E.01736
G1 X181.488 Y104.931 E.01346
G1 X181.432 Y105.624 E.02226
G1 X181.261 Y106.062 E.01505
;WIDTH:0.419999
G1 X180.996 Y106.396 E.01337
G1 X180.54 Y106.716 E.01747
G1 X180.1 Y106.869 E.01461
G1 X179.689 Y106.909 E.01295
G1 X179.279 Y106.86 E.01295
G1 X178.889 Y106.724 E.01295
G1 X178.531 Y106.501 E.01322
G1 X178.147 Y106.096 E.0175
G1 X177.933 Y105.695 E.01425
G1 X177.806 Y105.135 E.018
G1 X177.828 Y104.672 E.01453
G1 X177.942 Y104.284 E.01268
G1 X178.235 Y103.789 E.01804
G1 X178.57 Y103.468 E.01455
G1 X178.926 Y103.259 E.01294
G1 X179.318 Y103.131 E.01293
G1 X179.721 Y103.093 E.01269
G1 X180.288 Y103.182 E.018
G1 X180.642 Y103.346 E.01223
M204 S1000
G1 X181.047 Y103.178 F10800
;WIPE_START
G1 F8640
G1 X181.037 Y103.643 E-.11411
G1 X181.291 Y103.995 E-.10023
G1 X181.455 Y104.512 E-.12524
G1 X181.488 Y104.931 E-.09705
G1 X181.432 Y105.624 E-.16054
G1 X181.261 Y106.062 E-.10857
G1 X181.007 Y106.382 E-.09426
;WIPE_END
G1 Z.6 F720
G1 X180.19 Y107.313 F10800
G1 Z.2 F720
G1 E.8 F2100
M204 S800
;TYPE:Perimeter
;WIDTH:0.570396
G1 F1200
G1 X179.642 Y107.336 E.02406
;WIDTH:0.564422
G1 X179.27 Y107.316 E.01615
M204 S1000
;WIPE_START
G1 F8640
G1 X179.642 Y107.336 E-.08602
G1 X180.19 Y107.313 E-.12665
;WIPE_END
G1 E-.58733 F2100
G1 Z.6 F720
G1 X179.228 Y102.687 F10800
G1 Z.2 F720
G1 E.8 F2100
M204 S800
;WIDTH:0.570328
G1 F1200
G1 X179.788 Y102.667 E.02457
;WIDTH:0.573893
G1 X180.075 Y102.689 E.01271
;WIDTH:0.61882
G1 X180.362 Y102.711 E.01378
M204 S1000
;WIPE_START
G1 F8640
G1 X180.075 Y102.689 E-.06646
G1 X179.788 Y102.667 E-.06646
G1 X179.228 Y102.687 E-.12939
;WIPE_END
G1 E-.53769 F2100
G1 Z.6 F720
G1 X69.81 Y102.687 F10800
G1 Z.2 F720
G1 E.8 F2100
M204 S800
;WIDTH:0.5704
G1 F1200
G1 X69.718 Y102.72 E.00429
;WIDTH:0.553285
G1 X69.469 Y102.831 E.01157
;WIDTH:0.527507
G1 X69.219 Y102.942 E.01102
;WIDTH:0.501728
G1 X68.689 Y103.323 E.0249
G1 X68.674 Y103.293 E.00128
G1 X68.676 Y102.653 E.02442
G1 X69.128 Y102.653 E.01724
;WIDTH:0.536064
G1 X69.469 Y102.67 E.014
;WIDTH:0.5704
G1 X69.75 Y102.684 E.01234
M204 S1000
;WIPE_START
G1 F8640
G1 X69.718 Y102.72 E-.01112
G1 X69.469 Y102.831 E-.06295
G1 X69.219 Y102.942 E-.06316
G1 X68.689 Y103.323 E-.15072
G1 X68.674 Y103.293 E-.00774
G1 X68.676 Y102.653 E-.14778
G1 X69.128 Y102.653 E-.10437
G1 X69.469 Y102.67 E-.07884
G1 X69.75 Y102.684 E-.06496
;WIPE_END
G1 E-.10836 F2100
G1 Z.6 F720
G1 X69.852 Y107.316 F10800
G1 Z.2 F720
G1 E.8 F2100
M204 S800
;WIDTH:0.56451
G1 F1200
G1 X69.595 Y107.333 E.01117
;WIDTH:0.529867
G1 X69.339 Y107.35 E.01039
;WIDTH:0.495224
G1 X68.673 Y107.35 E.02505
G1 X68.665 Y106.612 E.02776
G1 X68.936 Y106.882 E.01439
G1 X69.374 Y107.133 E.01899
;WIDTH:0.529867
G1 X69.613 Y107.225 E.01037
;WIDTH:0.56451
G1 X69.796 Y107.294 E.00848
M204 S1000
;WIPE_START
G1 F8640
G1 X69.595 Y107.333 E-.04728
G1 X69.339 Y107.35 E-.05924
G1 X68.673 Y107.35 E-.15378
G1 X68.665 Y106.612 E-.17042
G1 X68.936 Y106.882 E-.08833
G1 X69.374 Y107.133 E-.11656
G1 X69.613 Y107.225 E-.05913
G1 X69.796 Y107.294 E-.04516
;WIPE_END
G1 E-.0601 F2100
G1 Z.6 F720
G1 X72.042 Y105.743 F10800
G1 Z.2 F720
G1 E.8 F2100
M204 S800
;TYPE:External perimeter
;WIDTH:0.419999
G1 F1200
G1 X71.765 Y106.211 E.01705
G1 X71.43 Y106.532 E.01455
G1 X71.074 Y106.741 E.01294
G1 X70.681 Y106.869 E.01296
G1 X70.27 Y106.909 E.01295
G1 X69.86 Y106.86 E.01295
G1 X69.469 Y106.723 E.01299
G1 X69.109 Y106.491 E.01343
G1 X68.747 Y106.072 E.01736
;WIDTH:0.425824
G1 X68.546 Y105.488 E.01966
G1 X68.512 Y105.069 E.01338
;WIDTH:0.427879
G1 X68.568 Y104.374 E.02232
;WIDTH:0.427871
G1 X68.739 Y103.938 E.01499
;WIDTH:0.419999
G1 X69.004 Y103.604 E.01337
G1 X69.46 Y103.284 E.01747
G1 X69.9 Y103.131 E.01461
G1 X70.302 Y103.093 E.01266
G1 X70.87 Y103.182 E.01803
G1 X71.293 Y103.374 E.01457
G1 X71.619 Y103.628 E.01296
G1 X71.882 Y103.945 E.01291
G1 X72.067 Y104.305 E.01269
G1 X72.194 Y104.865 E.018
G1 X72.172 Y105.328 E.01453
G1 X72.066 Y105.689 E.0118
M204 S1000
G1 X72.279 Y106.065 F10800
;WIPE_START
G1 F8640
G1 X71.765 Y106.211 E-.13913
G1 X71.43 Y106.532 E-.10713
G1 X71.074 Y106.741 E-.09532
G1 X70.681 Y106.869 E-.09544
G1 X70.27 Y106.909 E-.09535
G1 X69.86 Y106.86 E-.09534
G1 X69.469 Y106.723 E-.09566
G1 X69.19 Y106.543 E-.07663
;WIPE_END
G1 Z.6 F720
G1 X69.81 Y102.687 F10800
G1 Z.2 F720
G1 E.8 F2100
M204 S800
;TYPE:Perimeter
;WIDTH:0.5704
G1 F1200
G1 X70.369 Y102.667 E.02453
;WIDTH:0.573769
G1 X70.656 Y102.689 E.01271
;WIDTH:0.618604
G1 X70.944 Y102.711 E.01383
M204 S1000
;WIPE_START
G1 F8640
G1 X70.656 Y102.689 E-.06669
G1 X70.369 Y102.667 E-.06646
G1 X69.81 Y102.687 E-.12916
;WIPE_END
G1 E-.53769 F2100
G1 Z.6 F720
G1 X70.772 Y107.313 F10800
G1 Z.2 F720
G1 E.8 F2100
M204 S800
;WIDTH:0.570318
M73 Q6 S10
G1 F1200
G1 X70.224 Y107.336 E.02405
;WIDTH:0.56451
G1 X69.852 Y107.316 E.01616
M204 S1000
;WIPE_START
G1 F8640
G1 X70.224 Y107.336 E-.08602
G1 X70.772 Y107.313 E-.12665
;WIPE_END
G1 E-.58733 F2100
G1 Z.6 F720
G1 X68.259 Y102.235 F10800
G1 Z.2 F720
M73 P6 R10
G1 E.8 F2100
M204 S800
;TYPE:External perimeter
;WIDTH:0.419999
G1 F1200
G1 X181.741 Y102.235 E3.55814
G1 X181.745 Y103.306 E.03358
G1 X181.792 Y103.899 E.01865
;WIDTH:0.422418
G1 X181.86 Y104.772 E.02763
G1 X181.862 Y104.947 E.00552
;WIDTH:0.427869
G1 X181.765 Y106.201 E.04026
;WIDTH:0.419999
G1 X181.744 Y106.709 E.01594
G1 X181.741 Y107.765 E.03311
G1 X68.259 Y107.765 E3.55814
G1 X68.255 Y106.694 E.03358
M73 P7 R10
M73 Q7 S10
G1 X68.208 Y106.101 E.01865
;WIDTH:0.425824
G1 X68.138 Y105.053 E.03344
;WIDTH:0.427871
G1 X68.235 Y103.799 E.04026
;WIDTH:0.419999
G1 X68.256 Y103.291 E.01594
G1 X68.259 Y102.295 E.03123
M204 S1000
G1 X68.605 Y102.437 F10800
;WIPE_START
G1 F8640
G1 X71.724 Y102.293 E-.8
;WIPE_END
G1 Z.6 F720
G1 X177.53 Y102.782 F10800
G1 Z.2 F720
M73 Q8 S10
G1 E.8 F2100
M204 S800
;TYPE:Solid infill
;WIDTH:0.420605
G1 F1200
G1 X177.878 Y103.13 E.01546
G1 X177.767 Y103.235 E.0048
G1 X177.626 Y103.412 E.00711
G1 X177.165 Y102.951 E.02047
G1 X176.631 Y102.951 E.01677
G1 X177.427 Y103.747 E.03535
G1 X177.32 Y103.927 E.00658
G1 X177.246 Y104.101 E.00594
M73 P8 R10
G1 X176.097 Y102.951 E.05105
G1 X175.563 Y102.951 E.01677
G1 X177.139 Y104.527 E.06999
G1 X177.107 Y104.659 E.00427
G1 X177.088 Y105.011 E.01107
G1 X175.029 Y102.951 E.09147
G1 X174.495 Y102.951 E.01677
G1 X177.187 Y105.644 E.11958
G1 X177.237 Y105.864 E.00709
G1 X177.314 Y106.071 E.00694
G1 X177.49 Y106.401 E.01175
G1 X177.62 Y106.581 E.00697
G1 X178.077 Y107.049 E.02054
G1 X178.058 Y107.049 E.0006
G1 X173.961 Y102.951 E.18198
G1 X173.426 Y102.951 E.0168
G1 X177.524 Y107.049 E.182
G1 X176.989 Y107.049 E.0168
G1 X172.892 Y102.951 E.18198
G1 X172.358 Y102.951 E.01677
G1 X176.455 Y107.049 E.18198
G1 X175.921 Y107.049 E.01677
G1 X171.824 Y102.951 E.18198
G1 X171.29 Y102.951 E.01677
G1 X175.387 Y107.049 E.18198
G1 X174.853 Y107.049 E.01677
G1 X170.756 Y102.951 E.18198
G1 X170.222 Y102.951 E.01677
G1 X174.319 Y107.049 E.18198
G1 X173.785 Y107.049 E.01677
G1 X169.688 Y102.951 E.18198
G1 X169.153 Y102.951 E.0168
G1 X173.25 Y107.049 E.18198
G1 X172.716 Y107.049 E.01677
G1 X168.619 Y102.951 E.18198
G1 X168.085 Y102.951 E.01677
G1 X172.182 Y107.049 E.18198
G1 X171.648 Y107.049 E.01677
G1 X167.551 Y102.951 E.18198
G1 X167.017 Y102.951 E.01677
G1 X171.114 Y107.049 E.18198
G1 X170.58 Y107.049 E.01677
G1 X166.483 Y102.951 E.18198
G1 X165.949 Y102.951 E.01677
G1 X170.046 Y107.049 E.18198
G1 X169.512 Y107.049 E.01677
G1 X165.414 Y102.951 E.182
G1 X164.88 Y102.951 E.01677
M73 Q9 S10
G1 X168.977 Y107.049 E.18198
G1 X168.443 Y107.049 E.01677
M73 P9 R10
G1 X164.346 Y102.951 E.18198
G1 X163.812 Y102.951 E.01677
G1 X167.909 Y107.049 E.18198
G1 X167.375 Y107.049 E.01677
G1 X163.278 Y102.951 E.18198
G1 X162.744 Y102.951 E.01677
G1 X166.841 Y107.049 E.18198
G1 X166.307 Y107.049 E.01677
G1 X162.21 Y102.951 E.18198
G1 X161.676 Y102.951 E.01677
G1 X165.773 Y107.049 E.18198
G1 X165.239 Y107.049 E.01677
G1 X161.141 Y102.951 E.182
G1 X160.607 Y102.951 E.01677
G1 X164.704 Y107.049 E.18198
G1 X164.17 Y107.049 E.01677
G1 X160.073 Y102.951 E.18198
G1 X159.539 Y102.951 E.01677
G1 X163.636 Y107.049 E.18198
G1 X163.102 Y107.049 E.01677
G1 X159.005 Y102.951 E.18198
G1 X158.471 Y102.951 E.01677
G1 X162.568 Y107.049 E.18198
G1 X162.034 Y107.049 E.01677
G1 X157.937 Y102.951 E.18198
G1 X157.403 Y102.951 E.01677
G1 X161.5 Y107.049 E.18198
G1 X160.966 Y107.049 E.01677
G1 X156.868 Y102.951 E.182
G1 X156.334 Y102.951 E.01677
G1 X160.431 Y107.049 E.18198
G1 X159.897 Y107.049 E.01677
G1 X155.8 Y102.951 E.18198
G1 X155.266 Y102.951 E.01677
G1 X159.363 Y107.049 E.18198
G1 X158.829 Y107.049 E.01677
G1 X154.732 Y102.951 E.18198
G1 X154.198 Y102.951 E.01677
G1 X158.295 Y107.049 E.18198
G1 X157.761 Y107.049 E.01677
M73 P9 R9
M73 Q10 S10
G1 X153.664 Y102.951 E.18198
G1 X153.13 Y102.951 E.01677
M73 P10 R9
G1 X157.227 Y107.049 E.18198
G1 X156.693 Y107.049 E.01677
G1 X152.595 Y102.951 E.182
G1 X152.061 Y102.951 E.01677
G1 X156.158 Y107.049 E.18198
G1 X155.624 Y107.049 E.01677
G1 X151.527 Y102.951 E.18198
G1 X150.993 Y102.951 E.01677
G1 X155.09 Y107.049 E.18198
G1 X154.556 Y107.049 E.01677
G1 X150.459 Y102.951 E.18198
G1 X149.925 Y102.951 E.01677
G1 X154.022 Y107.049 E.18198
G1 X153.488 Y107.049 E.01677
G1 X149.391 Y102.951 E.18198
G1 X148.857 Y102.951 E.01677
G1 X152.954 Y107.049 E.18198
G1 X152.42 Y107.049 E.01677
G1 X148.322 Y102.951 E.182
G1 X147.788 Y102.951 E.01677
G1 X151.885 Y107.049 E.18198
G1 X151.351 Y107.049 E.01677
G1 X147.254 Y102.951 E.18198
G1 X146.72 Y102.951 E.01677
