; generated by PrusaSlicer 2.6.1+win64 on 2023-10-21 at 05:32:47 UTC


;
;
; 

; external perimeters extrusion width = 0.45mm
; perimeters extrusion width = 0.45mm
; infill extrusion width = 0.45mm
; solid infill extrusion width = 0.45mm
; top infill extrusion width = 0.40mm
; first layer extrusion width = 0.42mm

M73 P0 R91
M73 Q0 S93
M201 X1000 Y1000 Z200 E5000 ; sets maximum accelerations, mm/sec^2
M203 X200 Y200 Z12 E120 ; sets maximum feedrates, mm / sec
M204 S1250 T1250 ; sets acceleration (S) and retract acceleration (R), mm/sec^2
M205 X8.00 Y8.00 Z0.40 E4.50 ; sets the jerk limits, mm/sec
M205 S0 T0 ; sets the minimum extruding and travel feed rate, mm/sec
;TYPE:Custom
M862.3 P "MK3S" ; printer model check
M862.1 P0.4 ; nozzle diameter check
M115 U3.13.0 ; tell printer latest fw version
G90 ; use absolute coordinates
M83 ; extruder relative mode
M104 S215 ; set extruder temp
M140 S60 ; set bed temp
M190 S60 ; wait for bed temp
M109 S215 ; wait for extruder temp
G28 W ; home all without mesh bed level
G80 ; mesh bed leveling

G1 Z0.2 F720
G1 Y-3 F1000 ; go outside print area
G92 E0
G1 X60 E9 F1000 ; intro line
G1 X100 E12.5 F1000 ; intro line

G92 E0
M221 S95

; Don't change E values below. Excessive value can damage the printer.

M907 E538 ; set extruder motor current
G21 ; set units to millimeters
G90 ; use absolute coordinates
M83 ; use relative distances for extrusion
M900 K0.05 ; Filament gcode LA 1.5
M900 K30 ; Filament gcode LA 1.0
M107
;LAYER_CHANGE
;Z:0.2
;HEIGHT:0.2
;BEFORE_LAYER_CHANGE
G92 E0.0
;0.2


G1 E-.8 F2100
G1 Z.4 F720
;AFTER_LAYER_CHANGE
;0.2
G1 X100.156 Y84.126 F10800
G1 Z.2 F720
G1 E.8 F2100
M204 S800
;TYPE:Skirt/Brim
;WIDTH:0.42
G1 F1200
G1 X111.93 Y70.109 E.57397
G1 X115.057 Y66.969 E.13894
G1 X116.738 Y66.273 E.05705
G1 X133.262 Y66.273 E.5181
G1 X134.943 Y66.969 E.05705
M73 Q0 S92
G1 X138.07 Y70.109 E.13894
G1 X169.82 Y107.909 E1.5478
G1 X170.377 Y109.438 E.05102
G1 X170.377 Y138.662 E.9163
G1 X169.681 Y140.343 E.05705
G1 X166.693 Y143.331 E.13249
G1 X165.012 Y144.027 E.05705
G1 X84.988 Y144.027 E2.5091
G1 X83.307 Y143.331 E.05705
G1 X80.319 Y140.343 E.13249
G1 X79.623 Y138.662 E.05705
G1 X79.623 Y109.438 E.9163
G1 X80.18 Y107.909 E.05102
G1 X100.118 Y84.172 E.97197
M204 S1000
;WIPE_START
G1 F8640
G1 X102.346 Y81.519 E-.8
;WIPE_END
G1 Z.6 F720
G1 X114.037 Y84.172 F10800
G1 Z.2 F720
G1 E.8 F2100
M204 S800
G1 F1200
G1 X114.037 Y73.389 E.33809
G1 X114.403 Y71.876 E.04881
G1 X115.01 Y70.826 E.03803
G1 X115.897 Y69.935 E.03942
G1 X116.988 Y69.3 E.03958
G1 X118.185 Y68.969 E.03894
G1 X131.695 Y68.956 E.4236
G1 X132.644 Y69.16 E.03043
G1 X133.54 Y69.551 E.03065
G1 X134.662 Y70.446 E.045
G1 X135.555 Y71.784 E.05044
G1 X135.963 Y73.329 E.0501
G1 X135.963 Y106.737 E1.04748
G1 X163.32 Y106.737 E.85776
G1 X164.749 Y107.093 E.04617
G1 X166.067 Y107.913 E.04867
G1 X166.674 Y108.55 E.02759
G1 X167.102 Y109.155 E.02324
G1 X167.713 Y111.104 E.06404
G1 X167.713 Y136.968 E.81095
G1 X167.399 Y138.28 E.0423
G1 X166.941 Y139.2 E.03222
G1 X166.004 Y140.231 E.04368
G1 X165.319 Y140.739 E.02674
G1 X163.347 Y141.363 E.06485
G1 X86.682 Y141.363 E2.40378
G1 X85.37 Y141.049 E.0423
G1 X84.45 Y140.591 E.03222
G1 X83.419 Y139.654 E.04368
G1 X82.911 Y138.969 E.02674
G1 X82.287 Y136.997 E.06485
G1 X82.287 Y111.132 E.81098
G1 X82.601 Y109.82 E.0423
G1 X83.059 Y108.9 E.03222
G1 X83.996 Y107.869 E.04368
G1 X84.681 Y107.361 E.02674
G1 X86.653 Y106.737 E.06485
G1 X114.037 Y106.737 E.85861
G1 X114.037 Y84.232 E.70563
M204 S1000
M73 P0 R90
G1 X114.414 Y84.232 F10800
M204 S800
G1 F1200
G1 X114.414 Y73.411 E.33928
G1 X114.743 Y72.041 E.04418
G1 X115.323 Y71.037 E.03635
G1 X116.144 Y70.22 E.03632
G1 X117.154 Y69.64 E.03652
G1 X118.26 Y69.339 E.03594
G1 X131.635 Y69.329 E.41936
G1 X132.545 Y69.525 E.02919
G1 X133.365 Y69.886 E.02809
G1 X134.403 Y70.721 E.04177
G1 X135.199 Y71.912 E.04492
G1 X135.586 Y73.354 E.04681
G1 X135.586 Y107.114 E1.05852
G1 X163.296 Y107.114 E.86883
G1 X164.627 Y107.451 E.04305
G1 X165.845 Y108.219 E.04515
G1 X166.39 Y108.798 E.02493
G1 X166.777 Y109.348 E.02109
G1 X167.336 Y111.132 E.05862
G1 X167.336 Y136.945 E.80935
G1 X167.038 Y138.169 E.0395
G1 X166.616 Y139.007 E.02942
G1 X165.739 Y139.962 E.04065
G1 X165.121 Y140.416 E.02404
G1 X163.318 Y140.986 E.05929
G1 X86.705 Y140.986 E2.40215
G1 X85.481 Y140.688 E.0395
G1 X84.643 Y140.266 E.02942
G1 X83.688 Y139.389 E.04065
G1 X83.234 Y138.771 E.02404
G1 X82.664 Y136.968 E.05929
G1 X82.664 Y111.155 E.80935
G1 X82.962 Y109.931 E.0395
G1 X83.384 Y109.094 E.02939
G1 X84.261 Y108.138 E.04068
G1 X84.879 Y107.684 E.02404
G1 X86.682 Y107.114 E.05929
G1 X114.414 Y107.114 E.86952
G1 X114.414 Y84.292 E.71557
M204 S1000
G1 X114.791 Y84.292 F10800
M204 S800
G1 F1200
G1 X114.791 Y73.433 E.34048
G1 X115.084 Y72.204 E.03961
G1 X115.608 Y71.286 E.03314
G1 X116.392 Y70.506 E.03468
G1 X117.318 Y69.98 E.03339
G1 X118.332 Y69.71 E.0329
G1 X131.577 Y69.702 E.41529
G1 X132.412 Y69.878 E.02676
G1 X133.19 Y70.22 E.02665
G1 X134.143 Y70.995 E.03851
G1 X134.867 Y72.093 E.04124
G1 X135.209 Y73.378 E.04169
G1 X135.209 Y107.491 E1.06959
G1 X163.272 Y107.491 E.8799
M73 P1 R90
M73 Q1 S92
G1 X164.503 Y107.808 E.03986
G1 X165.62 Y108.523 E.04158
G1 X166.104 Y109.045 E.02232
G1 X166.452 Y109.54 E.01897
G1 X166.959 Y111.161 E.05325
G1 X166.959 Y136.921 E.80769
G1 X166.677 Y138.056 E.03667
G1 X166.293 Y138.811 E.02656
G1 X165.476 Y139.691 E.03765
G1 X164.924 Y140.094 E.02143
G1 X163.289 Y140.609 E.05375
G1 X86.729 Y140.609 E2.40049
G1 X85.594 Y140.327 E.03667
G1 X84.839 Y139.943 E.02656
G1 X83.959 Y139.126 E.03765
G1 X83.556 Y138.574 E.02143
G1 X83.041 Y136.939 E.05375
G1 X83.041 Y111.179 E.80769
G1 X83.323 Y110.044 E.03667
G1 X83.707 Y109.289 E.02656
G1 X84.524 Y108.409 E.03765
G1 X85.076 Y108.006 E.02143
G1 X86.711 Y107.491 E.05375
G1 X114.791 Y107.491 E.88043
G1 X114.791 Y84.352 E.72551
M204 S1000
G1 X115.168 Y84.352 F10800
M204 S800
G1 F1200
G1 X115.168 Y73.454 E.3417
G1 X115.426 Y72.365 E.03509
G1 X115.894 Y71.532 E.02996
G1 X116.603 Y70.819 E.03153
G1 X117.44 Y70.338 E.03027
G1 X118.406 Y70.08 E.03135
G1 X131.52 Y70.075 E.41118
G1 X132.278 Y70.231 E.02426
G1 X133.014 Y70.555 E.02521
G1 X133.88 Y71.267 E.03515
G1 X134.535 Y72.273 E.03764
G1 X134.832 Y73.402 E.0366
M73 Q1 S91
G1 X134.832 Y107.868 E1.08066
G1 X163.247 Y107.868 E.89093
G1 X164.377 Y108.165 E.03663
G1 X165.36 Y108.796 E.03662
G1 X165.818 Y109.291 E.02114
G1 X166.126 Y109.732 E.01687
G1 X166.582 Y111.19 E.0479
G1 X166.582 Y136.898 E.80606
G1 X166.317 Y137.942 E.03377
G1 X165.97 Y138.614 E.02371
G1 X165.214 Y139.419 E.03463
G1 X164.728 Y139.77 E.0188
G1 X163.261 Y140.232 E.04822
G1 X86.752 Y140.232 E2.39889
G1 X85.708 Y139.967 E.03377
G1 X85.036 Y139.62 E.02371
G1 X84.231 Y138.864 E.03463
G1 X83.88 Y138.378 E.0188
G1 X83.418 Y136.911 E.04822
G1 X83.418 Y111.202 E.80609
G1 X83.683 Y110.158 E.03377
G1 X84.03 Y109.486 E.02371
G1 X84.786 Y108.681 E.03463
G1 X85.272 Y108.33 E.0188
G1 X86.739 Y107.868 E.04822
G1 X115.168 Y107.868 E.89137
G1 X115.168 Y84.412 E.73545
M204 S1000
G1 X115.545 Y84.412 F10800
M204 S800
G1 F1200
G1 X115.545 Y73.476 E.34289
G1 X115.767 Y72.526 E.03059
G1 X116.209 Y71.741 E.02825
G1 X116.85 Y71.104 E.02833
G1 X117.561 Y70.696 E.0257
G1 X118.479 Y70.451 E.02979
G1 X131.465 Y70.448 E.40717
G1 X132.146 Y70.585 E.02178
G1 X132.837 Y70.889 E.02367
G1 X133.617 Y71.538 E.03181
G1 X134.179 Y72.4 E.03226
G1 X134.455 Y73.428 E.03337
G1 X134.455 Y108.245 E1.09166
G1 X163.223 Y108.245 E.902
G1 X164.201 Y108.499 E.03168
G1 X165.1 Y109.071 E.03341
G1 X165.532 Y109.537 E.01992
G1 X165.8 Y109.923 E.01473
G1 X166.205 Y111.218 E.04254
G1 X166.205 Y136.873 E.80439
G1 X165.958 Y137.825 E.03084
G1 X165.649 Y138.415 E.02088
G1 X164.954 Y139.146 E.03163
G1 X164.534 Y139.446 E.01618
G1 X163.232 Y139.855 E.04279
G1 X86.777 Y139.855 E2.39719
G1 X85.825 Y139.608 E.03084
G1 X85.235 Y139.299 E.02088
G1 X84.504 Y138.604 E.03163
G1 X84.204 Y138.184 E.01618
G1 X83.795 Y136.882 E.04279
G1 X83.795 Y111.227 E.80439
G1 X84.042 Y110.275 E.03084
G1 X84.351 Y109.685 E.02088
G1 X85.046 Y108.954 E.03163
G1 X85.466 Y108.654 E.01618
G1 X86.768 Y108.245 E.04279
G1 X115.545 Y108.245 E.90228
G1 X115.545 Y84.472 E.74539
M204 S1000
M73 P1 R89
G1 X115.922 Y84.472 F10800
M204 S800
G1 F1200
G1 X115.922 Y73.497 E.34411
G1 X116.109 Y72.688 E.02603
G1 X116.524 Y71.95 E.02655
G1 X117.096 Y71.391 E.02508
G1 X117.682 Y71.054 E.0212
G1 X118.552 Y70.822 E.02823
G1 X131.445 Y70.826 E.40425
G1 X132.049 Y70.95 E.01933
G1 X132.658 Y71.222 E.02091
G1 X133.351 Y71.807 E.02844
G1 X133.845 Y72.578 E.02871
G1 X134.078 Y73.452 E.02836
G1 X134.078 Y108.622 E1.10273
G1 X163.198 Y108.622 E.91304
G1 X164.075 Y108.856 E.02846
G1 X164.84 Y109.345 E.02847
G1 X165.246 Y109.783 E.01873
G1 X165.473 Y110.113 E.01256
G1 X165.828 Y111.247 E.03726
G1 X165.828 Y136.848 E.8027
G1 X165.6 Y137.706 E.02784
G1 X165.329 Y138.213 E.01803
G1 X164.696 Y138.87 E.02861
G1 X164.341 Y139.12 E.01361
G1 X163.203 Y139.478 E.03741
G1 X86.802 Y139.478 E2.3955
G1 X85.944 Y139.25 E.02784
G1 X85.437 Y138.979 E.01803
G1 X84.78 Y138.346 E.02861
G1 X84.53 Y137.991 E.01361
G1 X84.172 Y136.853 E.03741
G1 X84.172 Y111.252 E.8027
G1 X84.4 Y110.394 E.02784
G1 X84.671 Y109.887 E.01803
G1 X85.304 Y109.23 E.02861
G1 X85.659 Y108.98 E.01361
G1 X86.797 Y108.622 E.03741
G1 X115.922 Y108.622 E.91319
G1 X115.922 Y84.532 E.75533
M204 S1000
M73 P2 R89
G1 X116.299 Y84.532 F10800
M204 S800
M73 Q2 S91
G1 F1200
G1 X116.299 Y73.518 E.34534
G1 X116.453 Y72.845 E.02165
G1 X116.81 Y72.197 E.0232
G1 X117.309 Y71.703 E.02202
G1 X117.807 Y71.41 E.01812
G1 X118.578 Y71.199 E.02506
G1 X131.425 Y71.203 E.40281
G1 X131.949 Y71.314 E.01679
G1 X132.477 Y71.554 E.01819
G1 X133.084 Y72.075 E.02508
G1 X133.489 Y72.706 E.02351
G1 X133.701 Y73.478 E.0251
G1 X133.701 Y108.999 E1.11374
G1 X163.172 Y108.999 E.92404
G1 X163.946 Y109.211 E.02516
G1 X164.579 Y109.618 E.0236
G1 X164.96 Y110.029 E.01757
G1 X165.146 Y110.302 E.01036
G1 X165.451 Y111.276 E.032
G1 X165.451 Y136.822 E.80098
G1 X165.242 Y137.584 E.02477
G1 X165.012 Y138.009 E.01515
G1 X164.44 Y138.593 E.02563
G1 X164.15 Y138.794 E.01106
G1 X163.174 Y139.101 E.03208
G1 X86.828 Y139.101 E2.39378
G1 X86.066 Y138.892 E.02477
G1 X85.641 Y138.662 E.01515
G1 X85.057 Y138.09 E.02563
G1 X84.856 Y137.8 E.01106
G1 X84.549 Y136.824 E.03208
G1 X84.549 Y111.278 E.80098
G1 X84.758 Y110.516 E.02477
G1 X84.988 Y110.091 E.01515
G1 X85.56 Y109.507 E.02563
G1 X85.85 Y109.306 E.01106
G1 X86.826 Y108.999 E.03208
G1 X116.299 Y108.999 E.92411
G1 X116.299 Y84.592 E.76526
M204 S1000
G1 X116.676 Y84.592 F10800
M204 S800
G1 F1200
G1 X116.676 Y73.539 E.34656
G1 X116.797 Y73 E.01732
G1 X117.098 Y72.443 E.01985
G1 X117.525 Y72.013 E.019
G1 X117.935 Y71.766 E.01501
G1 X118.605 Y71.576 E.02184
G1 X131.403 Y71.58 E.40127
G1 X131.847 Y71.677 E.01425
G1 X132.293 Y71.884 E.01542
G1 X132.816 Y72.341 E.02178
G1 X133.135 Y72.836 E.01846
G1 X133.324 Y73.505 E.0218
G1 X133.324 Y109.376 E1.12471
G1 X163.145 Y109.376 E.93502
M73 Q2 S90
G1 X163.815 Y109.566 E.02184
G1 X164.318 Y109.891 E.01878
G1 X164.673 Y110.274 E.01637
G1 X164.818 Y110.49 E.00816
G1 X165.074 Y111.305 E.02678
G1 X165.074 Y136.795 E.79922
G1 X164.886 Y137.459 E.02164
G1 X164.696 Y137.801 E.01227
G1 X164.187 Y138.313 E.02264
G1 X163.961 Y138.467 E.00857
G1 X163.145 Y138.724 E.02682
G1 X86.855 Y138.724 E2.39202
G1 X86.191 Y138.536 E.02164
G1 X85.849 Y138.346 E.01227
G1 X85.337 Y137.836 E.02266
G1 X85.183 Y137.611 E.00855
G1 X84.926 Y136.795 E.02682
G1 X84.926 Y111.305 E.79922
G1 X85.114 Y110.641 E.02164
G1 X85.304 Y110.299 E.01227
G1 X85.814 Y109.787 E.02266
G1 X86.039 Y109.633 E.00855
G1 X86.855 Y109.376 E.02682
G1 X116.676 Y109.376 E.93502
G1 X116.676 Y84.652 E.7752
M204 S1000
G1 X117.053 Y84.652 F10800
M204 S800
G1 F1200
G1 X117.053 Y73.559 E.34781
G1 X117.143 Y73.152 E.01307
G1 X117.388 Y72.685 E.01654
G1 X117.744 Y72.32 E.01599
G1 X118.068 Y72.119 E.01195
G1 X118.633 Y71.953 E.01846
G1 X131.381 Y71.957 E.3997
G1 X131.741 Y72.04 E.01158
G1 X132.106 Y72.212 E.01265
G1 X132.546 Y72.604 E.01848
G1 X132.781 Y72.97 E.01364
G1 X132.947 Y73.533 E.0184
G1 X132.947 Y109.753 E1.13565
G1 X163.117 Y109.753 E.94596
G1 X163.681 Y109.919 E.01843
G1 X164.057 Y110.164 E.01407
G1 X164.385 Y110.518 E.01513
G1 X164.488 Y110.675 E.00589
G1 X164.697 Y111.334 E.02168
G1 X164.697 Y136.767 E.79743
G1 X164.531 Y137.33 E.0184
G1 X164.382 Y137.59 E.0094
G1 X163.936 Y138.031 E.01967
G1 X163.775 Y138.138 E.00606
G1 X163.116 Y138.347 E.02168
G1 X86.883 Y138.347 E2.39023
G1 X86.32 Y138.181 E.0184
G1 X86.06 Y138.032 E.0094
G1 X85.619 Y137.586 E.01967
G1 X85.512 Y137.425 E.00606
G1 X85.303 Y136.766 E.02168
G1 X85.303 Y111.333 E.79743
G1 X85.469 Y110.77 E.0184
G1 X85.618 Y110.51 E.0094
G1 X86.064 Y110.069 E.01967
G1 X86.225 Y109.962 E.00606
G1 X86.884 Y109.753 E.02168
G1 X117.053 Y109.753 E.94593
G1 X117.053 Y84.712 E.78514
M204 S1000
G1 X117.43 Y84.712 F10800
M204 S800
M73 P2 R88
G1 F1200
G1 X117.43 Y73.579 E.34907
G1 X117.491 Y73.299 E.00899
G1 X117.68 Y72.924 E.01317
G1 X117.969 Y72.624 E.01306
G1 X118.207 Y72.471 E.00887
G1 X118.662 Y72.33 E.01494
G1 X131.359 Y72.334 E.39811
G1 X131.597 Y72.389 E.00766
G1 X131.918 Y72.541 E.01114
G1 X132.273 Y72.865 E.01507
G1 X132.429 Y73.107 E.00903
G1 X132.57 Y73.562 E.01494
G1 X132.57 Y110.13 E1.14656
G1 X163.088 Y110.13 E.95687
G1 X163.543 Y110.271 E.01494
G1 X163.796 Y110.437 E.00949
G1 X164.096 Y110.762 E.01387
G1 X164.157 Y110.857 E.00354
G1 X164.32 Y111.363 E.01667
G1 X164.32 Y136.738 E.79562
G1 X164.179 Y137.195 E.015
G1 X164.072 Y137.375 E.00657
G1 X163.689 Y137.746 E.01672
G1 X163.593 Y137.807 E.00357
G1 X163.087 Y137.97 E.01667
G1 X86.912 Y137.97 E2.38841
G1 X86.455 Y137.829 E.015
M73 P3 R88
G1 X86.275 Y137.722 E.00657
G1 X85.904 Y137.339 E.01672
G1 X85.843 Y137.243 E.00357
G1 X85.68 Y136.737 E.01667
G1 X85.68 Y111.362 E.79562
G1 X85.821 Y110.905 E.015
G1 X85.928 Y110.725 E.00657
G1 X86.311 Y110.354 E.01672
G1 X86.407 Y110.293 E.00357
G1 X86.913 Y110.13 E.01667
G1 X117.43 Y110.13 E.95684
G1 X117.43 Y84.772 E.79508
M204 S1000
M73 Q3 S90
G1 X117.807 Y84.772 F10800
M204 S800
G1 F1200
G1 X117.807 Y73.597 E.35038
G1 X117.839 Y73.446 E.00484
G1 X118.002 Y73.123 E.01134
G1 X118.221 Y72.905 E.00969
G1 X118.35 Y72.82 E.00484
G1 X118.694 Y72.707 E.01135
G1 X131.337 Y72.711 E.39641
G1 X131.454 Y72.738 E.00376
G1 X131.728 Y72.868 E.00951
G1 X131.997 Y73.123 E.01162
G1 X132.08 Y73.25 E.00476
G1 X132.193 Y73.594 E.01135
G1 X132.193 Y110.507 E1.15738
G1 X163.056 Y110.507 E.96769
G1 X163.399 Y110.62 E.01132
G1 X163.534 Y110.71 E.00509
G1 X163.824 Y111.033 E.01361
G1 X163.943 Y111.394 E.01192
G1 X163.943 Y136.706 E.79364
G1 X163.829 Y137.052 E.01142
G1 X163.766 Y137.153 E.00373
G1 X163.447 Y137.456 E.01379
G1 X163.056 Y137.593 E.01299
G1 X86.944 Y137.593 E2.38644
G1 X86.598 Y137.479 E.01142
G1 X86.497 Y137.416 E.00373
G1 X86.194 Y137.097 E.01379
G1 X86.057 Y136.706 E.01299
G1 X86.057 Y111.394 E.79364
G1 X86.171 Y111.048 E.01142
G1 X86.234 Y110.947 E.00373
G1 X86.553 Y110.644 E.01379
G1 X86.944 Y110.507 E.01299
G1 X117.807 Y110.507 E.96769
G1 X117.807 Y84.832 E.80502
M204 S1000
G1 X118.184 Y84.832 F10800
M204 S800
G1 F1200
G1 X118.184 Y73.615 E.3517
G1 X118.294 Y73.365 E.00856
G1 X118.475 Y73.184 E.00803
G1 X118.729 Y73.084 E.00856
G1 X131.285 Y73.084 E.39368
G1 X131.535 Y73.194 E.00856
G1 X131.716 Y73.375 E.00803
G1 X131.816 Y73.629 E.00856
G1 X131.816 Y110.884 E1.1681
G1 X163.021 Y110.884 E.97841
G1 X163.272 Y110.982 E.00845
G1 X163.489 Y111.216 E.01001
G1 X163.566 Y111.429 E.0071
G1 X163.566 Y136.671 E.79145
G1 X163.468 Y136.922 E.00845
M73 Q3 S89
G1 X163.234 Y137.139 E.01001
G1 X163.021 Y137.216 E.0071
G1 X86.979 Y137.216 E2.38424
G1 X86.728 Y137.118 E.00845
G1 X86.511 Y136.884 E.01001
G1 X86.434 Y136.671 E.0071
G1 X86.434 Y111.429 E.79145
G1 X86.532 Y111.178 E.00845
G1 X86.766 Y110.961 E.01001
G1 X86.979 Y110.884 E.0071
G1 X118.184 Y110.884 E.97841
G1 X118.184 Y84.892 E.81496
M204 S1000
G1 X118.561 Y84.892 F10800
M204 S800
G1 F1200
G1 X118.561 Y73.671 E.35183
G1 X118.59 Y73.602 E.00235
G1 X118.702 Y73.49 E.00497
G1 X118.771 Y73.461 E.00235
