; generated by PrusaSlicer 2.6.1+win64 on 2023-11-06 at 03:24:53 UTC


;
;
; 

; external perimeters extrusion width = 0.60mm
; perimeters extrusion width = 0.50mm
; infill extrusion width = 0.50mm
; solid infill extrusion width = 0.50mm
; top infill extrusion width = 0.45mm
; first layer extrusion width = 0.42mm

M73 P0 R45
M73 Q0 S45
M201 X1000 Y1000 Z200 E5000 ; sets maximum accelerations, mm/sec^2
M203 X200 Y200 Z12 E120 ; sets maximum feedrates, mm / sec
M204 S1250 T1250 ; sets acceleration (S) and retract acceleration (R), mm/sec^2
M205 X8.00 Y8.00 Z0.40 E4.50 ; sets the jerk limits, mm/sec
M205 S0 T0 ; sets the minimum extruding and travel feed rate, mm/sec
;TYPE:Custom
M862.3 P "MK3S" ; printer model check
M862.1 P0.4 ; nozzle diameter check
M115 U3.13.0 ; tell printer latest fw version
G90 ; use absolute coordinates
M83 ; extruder relative mode
M104 S215 ; set extruder temp
M140 S60 ; set bed temp
M190 S60 ; wait for bed temp
M109 S215 ; wait for extruder temp
G28 W ; home all without mesh bed level
G80 ; mesh bed leveling

G1 Z0.2 F720
G1 Y-3 F1000 ; go outside print area
G92 E0
G1 X60 E9 F1000 ; intro line
G1 X100 E12.5 F1000 ; intro line

G92 E0
M221 S95

; Don't change E values below. Excessive value can damage the printer.

M907 E538 ; set extruder motor current
G21 ; set units to millimeters
G90 ; use absolute coordinates
M83 ; use relative distances for extrusion
M900 K0.05 ; Filament gcode LA 1.5
M900 K30 ; Filament gcode LA 1.0
M107
;LAYER_CHANGE
;Z:0.2
;HEIGHT:0.2
;BEFORE_LAYER_CHANGE
G92 E0.0
;0.2


G1 E-.8 F2100
G1 Z.4 F720
;AFTER_LAYER_CHANGE
;0.2
G1 X105.235 Y85.913 F10800
G1 Z.2 F720
G1 E.8 F2100
M204 S800
;TYPE:Skirt/Brim
;WIDTH:0.42
G1 F1200
G1 X106.28 Y85.037 E.04275
G1 X107.22 Y84.843 E.03009
G1 X142.78 Y84.843 E1.11496
G1 X144.087 Y85.235 E.04278
G1 X144.963 Y86.28 E.04275
G1 X145.157 Y87.22 E.03009
G1 X145.157 Y122.78 E1.11496
G1 X144.765 Y124.087 E.04278
G1 X143.72 Y124.963 E.04275
G1 X142.78 Y125.157 E.03009
G1 X107.22 Y125.157 E1.11496
G1 X105.913 Y124.765 E.04278
G1 X105.037 Y123.72 E.04275
G1 X104.843 Y122.78 E.03009
G1 X104.843 Y87.22 E1.11496
G1 X105.217 Y85.97 E.04091
M204 S1000
; printing object Motor Base.stl id:0 copy 0
;WIPE_START
G1 F8640
G1 X106.28 Y85.037 E-.32658
G1 X107.22 Y84.843 E-.22162
G1 X108.311 Y84.843 E-.2518
;WIPE_END
G1 Z.6 F720
G1 X141.993 Y121.993 F10800
G1 Z.2 F720
G1 E.8 F2100
M204 S800
;TYPE:Perimeter
;WIDTH:0.419999
G1 F1200
G1 X108.007 Y121.993 E1.06561
G1 X108.007 Y88.007 E1.06561
G1 X141.993 Y88.007 E1.06561
G1 X141.993 Y121.933 E1.06372
M204 S1000
G1 X142.37 Y122.37 F10800
M204 S800
;TYPE:External perimeter
G1 F1200
G1 X107.63 Y122.37 E1.08925
G1 X107.63 Y87.63 E1.08925
G1 X142.37 Y87.63 E1.08925
G1 X142.37 Y122.31 E1.08737
M204 S1000
M73 P1 R45
M73 Q1 S45
G1 X141.984 Y122.266 F10800
;WIPE_START
G1 F8640
G1 X138.905 Y122.316 E-.8
;WIPE_END
G1 Z.6 F720
G1 X141.059 Y88.177 F10800
G1 Z.2 F720
G1 E.8 F2100
M204 S800
;TYPE:Solid infill
;WIDTH:0.420988
G1 F1200
G1 X141.654 Y88.771 E.02643
G1 X141.654 Y89.306 E.01682
G1 X140.694 Y88.346 E.04268
G1 X140.159 Y88.346 E.01682
G1 X141.654 Y89.841 E.06646
G1 X141.654 Y90.375 E.01679
G1 X139.625 Y88.346 E.09021
G1 X139.09 Y88.346 E.01682
G1 X141.654 Y90.91 E.11399
G1 X141.654 Y91.445 E.01682
G1 X138.555 Y88.346 E.13778
G1 X138.021 Y88.346 E.01679
G1 X141.654 Y91.979 E.16152
G1 X141.654 Y92.514 E.01682
G1 X137.486 Y88.346 E.1853
G1 X136.951 Y88.346 E.01682
G1 X141.654 Y93.049 E.20909
G1 X141.654 Y93.583 E.01679
G1 X136.417 Y88.346 E.23283
G1 X135.882 Y88.346 E.01682
G1 X141.654 Y94.118 E.25661
G1 X141.654 Y94.653 E.01682
G1 X135.347 Y88.346 E.2804
G1 X134.813 Y88.346 E.01679
G1 X141.654 Y95.187 E.30414
G1 X141.654 Y95.722 E.01682
G1 X134.278 Y88.346 E.32792
G1 X133.743 Y88.346 E.01682
M73 P1 R44
G1 X141.654 Y96.257 E.35171
G1 X141.654 Y96.791 E.01679
G1 X133.209 Y88.346 E.37545
G1 X132.674 Y88.346 E.01682
G1 X141.654 Y97.326 E.39923
G1 X141.654 Y97.861 E.01682
G1 X132.139 Y88.346 E.42302
G1 X131.605 Y88.346 E.01679
G1 X141.654 Y98.395 E.44676
G1 X141.654 Y98.93 E.01682
G1 X131.07 Y88.346 E.47054
G1 X130.535 Y88.346 E.01682
G1 X141.654 Y99.465 E.49433
G1 X141.654 Y99.999 E.01679
G1 X130.001 Y88.346 E.51807
G1 X129.466 Y88.346 E.01682
G1 X141.654 Y100.534 E.54185
G1 X141.654 Y101.069 E.01682
G1 X128.931 Y88.346 E.56564
G1 X128.397 Y88.346 E.01679
G1 X141.654 Y101.603 E.58938
G1 X141.654 Y102.138 E.01682
G1 X127.862 Y88.346 E.61316
G1 X127.327 Y88.346 E.01682
G1 X141.654 Y102.673 E.63695
G1 X141.654 Y103.208 E.01682
G1 X126.792 Y88.346 E.66073
M73 Q1 S44
G1 X126.258 Y88.346 E.01679
G1 X141.654 Y103.742 E.68447
G1 X141.654 Y104.277 E.01682
G1 X125.723 Y88.346 E.70826
G1 X125.188 Y88.346 E.01682
G1 X141.654 Y104.812 E.73204
G1 X141.654 Y105.346 E.01679
G1 X124.654 Y88.346 E.75578
G1 X124.119 Y88.346 E.01682
G1 X141.654 Y105.881 E.77957
G1 X141.654 Y106.416 E.01682
G1 X123.584 Y88.346 E.80335
G1 X123.05 Y88.346 E.01679
G1 X141.654 Y106.95 E.82709
G1 X141.654 Y107.485 E.01682
M73 P2 R44
M73 Q2 S44
G1 X122.515 Y88.346 E.85088
G1 X121.98 Y88.346 E.01682
G1 X141.654 Y108.02 E.87466
G1 X141.654 Y108.554 E.01679
G1 X121.446 Y88.346 E.89841
G1 X120.911 Y88.346 E.01682
G1 X141.654 Y109.089 E.92219
G1 X141.654 Y109.624 E.01682
G1 X120.376 Y88.346 E.94598
G1 X119.842 Y88.346 E.01679
G1 X141.654 Y110.158 E.96972
G1 X141.654 Y110.693 E.01682
G1 X119.307 Y88.346 E.9935
G1 X118.772 Y88.346 E.01682
G1 X141.654 Y111.228 E1.01729
G1 X141.654 Y111.762 E.01679
G1 X118.238 Y88.346 E1.04103
G1 X117.703 Y88.346 E.01682
G1 X141.654 Y112.297 E1.06481
G1 X141.654 Y112.832 E.01682
G1 X117.168 Y88.346 E1.0886
G1 X116.634 Y88.346 E.01679
G1 X141.654 Y113.366 E1.11234
G1 X141.654 Y113.901 E.01682
G1 X116.099 Y88.346 E1.13612
G1 X115.564 Y88.346 E.01682
G1 X141.654 Y114.436 E1.15991
G1 X141.654 Y114.97 E.01679
G1 X115.03 Y88.346 E1.18365
G1 X114.495 Y88.346 E.01682
G1 X141.654 Y115.505 E1.20743
G1 X141.654 Y116.04 E.01682
M73 Q3 S44
G1 X113.96 Y88.346 E1.23122
M73 P3 R44
G1 X113.426 Y88.346 E.01679
G1 X141.654 Y116.574 E1.25496
G1 X141.654 Y117.109 E.01682
G1 X112.891 Y88.346 E1.27874
G1 X112.356 Y88.346 E.01682
G1 X141.654 Y117.644 E1.30253
G1 X141.654 Y118.178 E.01679
G1 X111.822 Y88.346 E1.32627
G1 X111.287 Y88.346 E.01682
G1 X141.654 Y118.713 E1.35005
G1 X141.654 Y119.248 E.01682
M73 P3 R43
G1 X110.752 Y88.346 E1.37384
G1 X110.218 Y88.346 E.01679
G1 X141.654 Y119.782 E1.39758
G1 X141.654 Y120.317 E.01682
G1 X109.683 Y88.346 E1.42136
G1 X109.148 Y88.346 E.01682
G1 X141.654 Y120.852 E1.44515
G1 X141.654 Y121.386 E.01679
G1 X108.614 Y88.346 E1.46889
G1 X108.346 Y88.346 E.00842
M73 Q3 S43
G1 X108.346 Y88.614 E.00842
G1 X141.386 Y121.654 E1.46889
G1 X140.852 Y121.654 E.01679
G1 X108.346 Y89.148 E1.44515
G1 X108.346 Y89.683 E.01682
M73 P4 R43
M73 Q4 S43
G1 X140.317 Y121.654 E1.42136
G1 X139.782 Y121.654 E.01682
G1 X108.346 Y90.218 E1.39758
G1 X108.346 Y90.752 E.01679
G1 X139.248 Y121.654 E1.37384
G1 X138.713 Y121.654 E.01682
G1 X108.346 Y91.287 E1.35005
G1 X108.346 Y91.822 E.01682
G1 X138.178 Y121.654 E1.32627
G1 X137.644 Y121.654 E.01679
G1 X108.346 Y92.356 E1.30253
G1 X108.346 Y92.891 E.01682
G1 X137.109 Y121.654 E1.27874
G1 X136.574 Y121.654 E.01682
G1 X108.346 Y93.426 E1.25496
G1 X108.346 Y93.961 E.01682
G1 X136.04 Y121.654 E1.23119
G1 X135.505 Y121.654 E.01682
G1 X108.346 Y94.495 E1.20743
G1 X108.346 Y95.03 E.01682
G1 X134.97 Y121.654 E1.18365
G1 X134.435 Y121.654 E.01682
G1 X108.346 Y95.565 E1.15986
G1 X108.346 Y96.099 E.01679
G1 X133.901 Y121.654 E1.13612
G1 X133.366 Y121.654 E.01682
M73 P5 R43
M73 Q5 S43
G1 X108.346 Y96.634 E1.11234
G1 X108.346 Y97.169 E.01682
G1 X132.831 Y121.654 E1.08855
G1 X132.297 Y121.654 E.01679
G1 X108.346 Y97.703 E1.06481
G1 X108.346 Y98.238 E.01682
G1 X131.762 Y121.654 E1.04103
G1 X131.227 Y121.654 E.01682
G1 X108.346 Y98.773 E1.01724
G1 X108.346 Y99.307 E.01679
G1 X130.693 Y121.654 E.9935
G1 X130.158 Y121.654 E.01682
G1 X108.346 Y99.842 E.96972
G1 X108.346 Y100.377 E.01682
G1 X129.623 Y121.654 E.94593
G1 X129.089 Y121.654 E.01679
G1 X108.346 Y100.911 E.92219
G1 X108.346 Y101.446 E.01682
G1 X128.554 Y121.654 E.89841
G1 X128.019 Y121.654 E.01682
G1 X108.346 Y101.981 E.87462
G1 X108.346 Y102.515 E.01679
M73 P5 R42
G1 X127.485 Y121.654 E.85088
G1 X126.95 Y121.654 E.01682
G1 X108.346 Y103.05 E.82709
G1 X108.346 Y103.585 E.01682
G1 X126.415 Y121.654 E.80331
G1 X125.881 Y121.654 E.01679
G1 X108.346 Y104.119 E.77957
G1 X108.346 Y104.654 E.01682
G1 X125.346 Y121.654 E.75578
G1 X124.811 Y121.654 E.01682
G1 X108.346 Y105.189 E.732
G1 X108.346 Y105.723 E.01679
G1 X124.277 Y121.654 E.70826
G1 X123.742 Y121.654 E.01682
M73 P6 R42
M73 Q6 S43
G1 X108.346 Y106.258 E.68447
G1 X108.346 Y106.793 E.01682
M73 Q6 S42
G1 X123.207 Y121.654 E.66069
G1 X122.673 Y121.654 E.01679
G1 X108.346 Y107.327 E.63695
G1 X108.346 Y107.862 E.01682
G1 X122.138 Y121.654 E.61316
G1 X121.603 Y121.654 E.01682
G1 X108.346 Y108.397 E.58938
G1 X108.346 Y108.931 E.01679
G1 X121.069 Y121.654 E.56564
G1 X120.534 Y121.654 E.01682
G1 X108.346 Y109.466 E.54185
G1 X108.346 Y110.001 E.01682
G1 X119.999 Y121.654 E.51807
G1 X119.465 Y121.654 E.01679
G1 X108.346 Y110.535 E.49433
G1 X108.346 Y111.07 E.01682
G1 X118.93 Y121.654 E.47054
G1 X118.395 Y121.654 E.01682
G1 X108.346 Y111.605 E.44676
G1 X108.346 Y112.139 E.01679
G1 X117.861 Y121.654 E.42302
G1 X117.326 Y121.654 E.01682
G1 X108.346 Y112.674 E.39923
G1 X108.346 Y113.209 E.01682
G1 X116.791 Y121.654 E.37545
G1 X116.257 Y121.654 E.01679
G1 X108.346 Y113.743 E.35171
G1 X108.346 Y114.278 E.01682
G1 X115.722 Y121.654 E.32792
G1 X115.187 Y121.654 E.01682
G1 X108.346 Y114.813 E.30414
G1 X108.346 Y115.347 E.01679
G1 X114.653 Y121.654 E.2804
G1 X114.118 Y121.654 E.01682
G1 X108.346 Y115.882 E.25661
G1 X108.346 Y116.417 E.01682
G1 X113.583 Y121.654 E.23283
G1 X113.049 Y121.654 E.01679
G1 X108.346 Y116.951 E.20909
G1 X108.346 Y117.486 E.01682
G1 X112.514 Y121.654 E.1853
G1 X111.979 Y121.654 E.01682
G1 X108.346 Y118.021 E.16152
G1 X108.346 Y118.555 E.01679
G1 X111.445 Y121.654 E.13778
G1 X110.91 Y121.654 E.01682
G1 X108.346 Y119.09 E.11399
G1 X108.346 Y119.625 E.01682
G1 X110.375 Y121.654 E.09021
G1 X109.841 Y121.654 E.01679
G1 X108.346 Y120.159 E.06646
G1 X108.346 Y120.694 E.01682
G1 X109.306 Y121.654 E.04268
G1 X108.771 Y121.654 E.01682
G1 X108.177 Y121.059 E.02643
M204 S1000
; stop printing object Motor Base.stl id:0 copy 0
M106 S84.15
;LAYER_CHANGE
;Z:0.5
;HEIGHT:0.3
;BEFORE_LAYER_CHANGE
G92 E0.0
;0.5


;WIPE_START
G1 F8640
G1 X108.771 Y121.654 E-.19413
G1 X109.306 Y121.654 E-.12353
G1 X108.346 Y120.694 E-.31348
G1 X108.346 Y120.159 E-.12353
G1 X108.485 Y120.298 E-.04533
;WIPE_END
G1 Z.6 F720
;AFTER_LAYER_CHANGE
;0.5
M104 S210 ; set temperature
G1 X104.843 Y120.298 F10800
G1 Z.5 F720
G1 E.8 F2100
;TYPE:Skirt/Brim
;WIDTH:0.42
G1 F2700
G1 X104.843 Y87.22 E1.46717
G1 X105.235 Y85.913 E.06052
G1 X106.28 Y85.037 E.06048
G1 X107.22 Y84.843 E.04257
G1 X142.78 Y84.843 E1.57726
G1 X144.087 Y85.235 E.06052
G1 X144.963 Y86.28 E.06048
G1 X145.157 Y87.22 E.04257
G1 X145.157 Y122.78 E1.57726
G1 X144.765 Y124.087 E.06052
G1 X143.72 Y124.963 E.06048
G1 X142.78 Y125.157 E.04257
G1 X107.22 Y125.157 E1.57726
G1 X105.913 Y124.765 E.06052
G1 X105.037 Y123.72 E.06048
G1 X104.843 Y122.78 E.04257
G1 X104.843 Y120.358 E.10743
; printing object Motor Base.stl id:0 copy 0
;WIPE_START
G1 F8640
G1 X104.843 Y116.893 E-.8
;WIPE_END
G1 Z.9 F720
G1 X141.994 Y121.994 F10800
G1 Z.5 F720
G1 E.8 F2100
M204 S800
;TYPE:Perimeter
;WIDTH:0.5
G1 F3000
G1 X108.006 Y121.994 E1.84666
G1 X108.006 Y88.006 E1.84666
G1 X141.994 Y88.006 E1.84666
G1 X141.994 Y121.934 E1.8434
M204 S1000
G1 X142.48 Y122.48 F10800
M204 S800
;TYPE:External perimeter
;WIDTH:0.6
G1 F2099.997

G1 X141.88 Y122.48 E.04008
G1 X108.12 Y122.48 E2.25535
G1 X107.52 Y122.48 E.04008
G1 X107.52 Y121.88 E.04008
G1 X107.52 Y88.12 E2.25535
G1 X107.52 Y87.52 E.04008
M73 P7 R42
M73 Q7 S42
G1 X108.12 Y87.52 E.04008
G1 X141.88 Y87.52 E2.25535
G1 X142.48 Y87.52 E.04008
G1 X142.48 Y88.12 E.04008
G1 X142.48 Y121.82 E2.25134
G1 X142.48 Y122.42 E.04008

M204 S1000
G1 X142.094 Y122.376 F10800
;WIPE_START
G1 F8640
G1 X139.015 Y122.426 E-.8
;WIPE_END
G1 Z.9 F720
G1 X108.516 Y88.433 F10800
G1 Z.5 F720
G1 E.8 F2100
;TYPE:Solid infill
;WIDTH:0.605691
G1 F4800
G1 X108.468 Y88.385 E.00458
G1 X108.403 Y88.403 E.00455
G1 X108.385 Y88.468 E.00455
G1 X108.433 Y88.516 E.00458
G1 X108.498 Y88.498 E.00455
;WIDTH:0.5
G1 X108.398 Y89.194 E.0382
G1 X109.194 Y88.398 E.06116
G1 X109.81 Y88.398 E.03347
G1 X108.398 Y89.81 E.1085
G1 X108.398 Y90.426 E.03347
G1 X110.426 Y88.398 E.15583
G1 X111.042 Y88.398 E.03347
G1 X108.398 Y91.042 E.20316
G1 X108.398 Y91.658 E.03347
G1 X111.658 Y88.398 E.25049
G1 X112.274 Y88.398 E.03347
G1 X108.398 Y92.274 E.29782
G1 X108.398 Y92.891 E.03352
G1 X112.891 Y88.398 E.34523
G1 X113.507 Y88.398 E.03347
G1 X108.398 Y93.507 E.39257
G1 X108.398 Y94.123 E.03347
G1 X114.123 Y88.398 E.4399
G1 X114.739 Y88.398 E.03347
G1 X108.398 Y94.739 E.48723
G1 X108.398 Y95.355 E.03347
G1 X115.355 Y88.398 E.53456
G1 X115.971 Y88.398 E.03347
G1 X108.398 Y95.971 E.5819
G1 X108.398 Y96.587 E.03347
G1 X116.587 Y88.398 E.62923
G1 X117.203 Y88.398 E.03347
G1 X108.398 Y97.203 E.67656
G1 X108.398 Y97.819 E.03347
G1 X117.819 Y88.398 E.72389
G1 X118.435 Y88.398 E.03347
G1 X108.398 Y98.435 E.77122
G1 X108.398 Y99.051 E.03347
G1 X119.051 Y88.398 E.81856
G1 X119.667 Y88.398 E.03347
G1 X108.398 Y99.667 E.86589
G1 X108.398 Y100.283 E.03347
G1 X120.283 Y88.398 E.91322
G1 X120.899 Y88.398 E.03347
G1 X108.398 Y100.899 E.96055
G1 X108.398 Y101.515 E.03347
G1 X121.515 Y88.398 E1.00789
G1 X122.131 Y88.398 E.03347
G1 X108.398 Y102.131 E1.05522
G1 X108.398 Y102.747 E.03347
G1 X122.747 Y88.398 E1.10255
G1 X123.364 Y88.398 E.03352
G1 X108.398 Y103.364 E1.14996
G1 X108.398 Y103.98 E.03347
G1 X123.98 Y88.398 E1.19729
G1 X124.596 Y88.398 E.03347
G1 X108.398 Y104.596 E1.24462
G1 X108.398 Y105.212 E.03347
G1 X125.212 Y88.398 E1.29196
G1 X125.828 Y88.398 E.03347
G1 X108.398 Y105.828 E1.33929
G1 X108.398 Y106.444 E.03347
G1 X126.444 Y88.398 E1.38662
G1 X127.06 Y88.398 E.03347
G1 X108.398 Y107.06 E1.43395
G1 X108.398 Y107.676 E.03347
G1 X127.676 Y88.398 E1.48129
G1 X128.292 Y88.398 E.03347
G1 X108.398 Y108.292 E1.52862
G1 X108.398 Y108.908 E.03347
G1 X128.908 Y88.398 E1.57595
G1 X129.524 Y88.398 E.03347
G1 X108.398 Y109.524 E1.62328
G1 X108.398 Y110.14 E.03347
G1 X130.14 Y88.398 E1.67062
G1 X130.756 Y88.398 E.03347
G1 X108.398 Y110.756 E1.71795
G1 X108.398 Y111.372 E.03347
G1 X131.372 Y88.398 E1.76528
G1 X131.988 Y88.398 E.03347
G1 X108.398 Y111.988 E1.81261
G1 X108.398 Y112.604 E.03347
G1 X132.604 Y88.398 E1.85995
G1 X133.22 Y88.398 E.03347
G1 X108.398 Y113.22 E1.90728
G1 X108.398 Y113.836 E.03347
G1 X133.837 Y88.398 E1.95465
G1 X134.453 Y88.398 E.03347
G1 X108.398 Y114.453 E2.00202
G1 X108.398 Y115.069 E.03347
G1 X135.069 Y88.398 E2.04935
G1 X135.685 Y88.398 E.03347
G1 X108.398 Y115.685 E2.09668
G1 X108.398 Y116.301 E.03347
G1 X136.301 Y88.398 E2.14402
G1 X136.917 Y88.398 E.03347
G1 X108.398 Y116.917 E2.19135
G1 X108.398 Y117.533 E.03347
G1 X137.533 Y88.398 E2.23868
G1 X138.149 Y88.398 E.03347
G1 X108.398 Y118.149 E2.28601
G1 X108.398 Y118.765 E.03347
G1 X138.765 Y88.398 E2.33335
G1 X139.381 Y88.398 E.03347
G1 X108.398 Y119.381 E2.38068
G1 X108.398 Y119.997 E.03347
G1 X139.997 Y88.398 E2.42801
G1 X140.613 Y88.398 E.03347
G1 X108.398 Y120.613 E2.47534
G1 X108.398 Y121.229 E.03347
M73 P7 R41
G1 X141.229 Y88.398 E2.52267
G1 X141.739 Y88.291 E.02831
;WIDTH:0.404381
G1 X141.668 Y88.272 E.00312
G1 X141.687 Y88.343 E.00312
G1 X141.728 Y88.332 E.0018
;WIDTH:0.45219
G1 X141.665 Y88.486 E.00805
;WIDTH:0.5
G1 X141.602 Y88.641 E.00909
G1 X108.641 Y121.602 E2.53266
G1 X108.486 Y121.665 E.00909
;WIDTH:0.45219
G1 X108.332 Y121.728 E.00805
;WIDTH:0.404381
G1 X108.291 Y121.739 E.0018
G1 X108.272 Y121.668 E.00312
G1 X108.343 Y121.687 E.00312
G1 X109.257 Y121.602 F10800
;WIDTH:0.5
G1 F4800
G1 X141.602 Y89.257 E2.48533
G1 X141.602 Y89.873 E.03347
G1 X109.873 Y121.602 E2.438
G1 X110.489 Y121.602 E.03347
G1 X141.602 Y90.489 E2.39067
G1 X141.602 Y91.105 E.03347
