; generated by PrusaSlicer 2.6.1+win64 on 2023-11-06 at 03:27:37 UTC


;
;
; 

; external perimeters extrusion width = 0.45mm
; perimeters extrusion width = 0.45mm
; infill extrusion width = 0.45mm
; solid infill extrusion width = 0.45mm
; top infill extrusion width = 0.40mm
; support material extrusion width = 0.35mm
; first layer extrusion width = 0.42mm

M73 P0 R86
M73 Q0 S87
M201 X1000 Y1000 Z200 E5000 ; sets maximum accelerations, mm/sec^2
M203 X200 Y200 Z12 E120 ; sets maximum feedrates, mm / sec
M204 S1250 T1250 ; sets acceleration (S) and retract acceleration (R), mm/sec^2
M205 X8.00 Y8.00 Z0.40 E4.50 ; sets the jerk limits, mm/sec
M205 S0 T0 ; sets the minimum extruding and travel feed rate, mm/sec
;TYPE:Custom
M862.3 P "MK3S" ; printer model check
M862.1 P0.4 ; nozzle diameter check
M115 U3.13.0 ; tell printer latest fw version
G90 ; use absolute coordinates
M83 ; extruder relative mode
M104 S215 ; set extruder temp
M140 S60 ; set bed temp
M190 S60 ; wait for bed temp
M109 S215 ; wait for extruder temp
G28 W ; home all without mesh bed level
G80 ; mesh bed leveling

G1 Z0.2 F720
G1 Y-3 F1000 ; go outside print area
G92 E0
G1 X60 E9 F1000 ; intro line
G1 X100 E12.5 F1000 ; intro line

G92 E0
M221 S95

; Don't change E values below. Excessive value can damage the printer.

M907 E538 ; set extruder motor current
G21 ; set units to millimeters
G90 ; use absolute coordinates
M83 ; use relative distances for extrusion
M900 K0.05 ; Filament gcode LA 1.5
M900 K30 ; Filament gcode LA 1.0
M107
;LAYER_CHANGE
;Z:0.2
;HEIGHT:0.2
;BEFORE_LAYER_CHANGE
G92 E0.0
;0.2


G1 E-.8 F2100
G1 Z.4 F720
;AFTER_LAYER_CHANGE
;0.2
G1 X97.819 Y83.319 F10800
G1 Z.2 F720
G1 E.8 F2100
M204 S800
;TYPE:Skirt/Brim
;WIDTH:0.42
G1 F1200
G1 X102.819 Y78.319 E.22171
G1 X104.282 Y77.633 E.05066
G1 X140.295 Y74.312 E1.13395
G1 X153.321 Y74.302 E.40842
M73 Q0 S86
G1 X154.628 Y74.693 E.04277
G1 X155.576 Y75.927 E.04879
G1 X157.883 Y82.848 E.22874
G1 X158.005 Y83.6 E.02389
G1 X158.005 Y126.4 E1.34196
G1 X157.883 Y127.152 E.02389
G1 X155.576 Y134.073 E.22874
G1 X154.792 Y135.189 E.04276
M73 P0 R85
G1 X153.321 Y135.698 E.04881
G1 X140.295 Y135.688 E.40842
G1 X104.282 Y132.367 E1.13395
G1 X102.819 Y131.681 E.05066
G1 X97.819 Y126.681 E.22171
G1 X97.123 Y125 E.05705
G1 X97.123 Y85 E1.25417
G1 X97.796 Y83.375 E.05515
M204 S1000
; printing object Nema_17_Stepper_Motor_Mount.stl id:0 copy 0
;WIPE_START
G1 F8640
G1 X100.238 Y80.917 E-.8
;WIPE_END
G1 Z.6 F720
G1 X146.431 Y79.975 F10800
G1 Z.2 F720
G1 E.8 F2100
M204 S800
;TYPE:Support material
G1 F1200
G1 X146.431 Y130.025 E1.56928
G1 X146.395 Y130.06 E.00157
G1 X146.031 Y130.06 E.01141
G1 X146.031 Y79.94 E1.57148
G1 X146.388 Y79.94 E.01119
M204 S1000
;WIPE_START
G1 F8640
G1 X146.031 Y79.94 E-.08243
G1 X146.031 Y83.048 E-.71757
;WIPE_END
G1 Z.6 F720
G1 X153.321 Y83.6 F10800
G1 Z.2 F720
G1 E.8 F2100
M204 S800
G1 F1200
G1 X155.628 Y83.6 E.07233
G1 X155.628 Y96.408 E.40159
G1 X153.321 Y96.408 E.07233
G1 X153.321 Y113.592 E.53879
G1 X155.628 Y113.592 E.07233
G1 X155.628 Y126.4 E.40159
G1 X153.321 Y126.4 E.07233
G1 X153.321 Y133.321 E.217
G1 X140.513 Y133.321 E.40159
G1 X140.513 Y130.48 E.08908
G1 X145.4 Y130.48 E.15323
G1 X145.4 Y130.742 E.00821
G1 X148.434 Y130.742 E.09513
G1 X148.434 Y79.258 E1.61424
G1 X145.4 Y79.258 E.09513
G1 X145.4 Y79.52 E.00821
G1 X140.513 Y79.52 E.15323
G1 X140.513 Y76.679 E.08908
G1 X153.321 Y76.679 E.40159
G1 X153.321 Y83.543 E.21522
M204 S1000
;WIPE_START
G1 F8640
G1 X153.321 Y80.078 E-.8
;WIPE_END
G1 Z.6 F720
G1 X155.166 Y126.23 F10800
G1 Z.2 F720
G1 E.8 F2100
M204 S800
G1 F1200
G1 X155.166 Y113.931 E.38563
G1 X154.747 Y113.931 E.01314
G1 X154.747 Y126.061 E.38033
G1 X154.328 Y126.061 E.01314
G1 X154.328 Y113.931 E.38033
G1 X153.909 Y113.931 E.01314
G1 X153.909 Y126.061 E.38033
G1 X153.49 Y126.061 E.01314
G1 X153.49 Y113.762 E.38563
M204 S1000
;WIPE_START
G1 F8640
G1 X153.49 Y117.227 E-.8
;WIPE_END
G1 Z.6 F720
G1 X155.166 Y96.238 F10800
G1 Z.2 F720
G1 E.8 F2100
M204 S800
G1 F1200
G1 X155.166 Y83.939 E.38563
G1 X154.747 Y83.939 E.01314
G1 X154.747 Y96.069 E.38033
G1 X154.328 Y96.069 E.01314
G1 X154.328 Y83.939 E.38033
G1 X153.909 Y83.939 E.01314
G1 X153.909 Y96.069 E.38033
G1 X153.49 Y96.069 E.01314
G1 X153.49 Y83.939 E.38033
G1 X153.071 Y83.939 E.01314
G1 X153.071 Y126.061 E1.32071
G1 X152.982 Y126.061 E.00279
G1 X152.982 Y132.982 E.217
G1 X152.652 Y132.982 E.01035
G1 X152.652 Y77.018 E1.75471
G1 X152.234 Y77.018 E.01311
G1 X152.234 Y132.982 E1.75471
G1 X151.815 Y132.982 E.01314
G1 X151.815 Y77.018 E1.75471
G1 X151.396 Y77.018 E.01314
M73 P1 R85
M73 Q1 S86
G1 X151.396 Y132.982 E1.75471
G1 X150.977 Y132.982 E.01314
G1 X150.977 Y77.018 E1.75471
G1 X150.558 Y77.018 E.01314
G1 X150.558 Y132.982 E1.75471
G1 X150.139 Y132.982 E.01314
G1 X150.139 Y77.018 E1.75471
G1 X149.72 Y77.018 E.01314
G1 X149.72 Y132.982 E1.75471
G1 X149.301 Y132.982 E.01314
G1 X149.301 Y77.018 E1.75471
G1 X148.882 Y77.018 E.01314
G1 X148.882 Y132.982 E1.75471
M73 Q1 S85
G1 X148.463 Y132.982 E.01314
G1 X148.463 Y131.081 E.0596
G1 X148.044 Y131.081 E.01314
G1 X148.044 Y132.982 E.0596
G1 X147.625 Y132.982 E.01314
G1 X147.625 Y131.081 E.0596
G1 X147.206 Y131.081 E.01314
G1 X147.206 Y132.982 E.0596
G1 X146.787 Y132.982 E.01314
G1 X146.787 Y131.081 E.0596
G1 X146.368 Y131.081 E.01314
G1 X146.368 Y132.982 E.0596
G1 X145.949 Y132.982 E.01314
G1 X145.949 Y131.081 E.0596
G1 X145.53 Y131.081 E.01314
G1 X145.53 Y132.982 E.0596
G1 X145.111 Y132.982 E.01314
G1 X145.111 Y131.081 E.0596
G1 X145.061 Y131.081 E.00157
M73 P1 R84
G1 X145.061 Y130.819 E.00821
G1 X144.692 Y130.819 E.01157
G1 X144.692 Y132.982 E.06782
G1 X144.273 Y132.982 E.01314
G1 X144.273 Y130.819 E.06782
G1 X143.854 Y130.819 E.01314
G1 X143.854 Y132.982 E.06782
G1 X143.435 Y132.982 E.01314
G1 X143.435 Y130.819 E.06782
G1 X143.016 Y130.819 E.01314
G1 X143.016 Y132.982 E.06782
G1 X142.597 Y132.982 E.01314
G1 X142.597 Y130.819 E.06782
G1 X142.178 Y130.819 E.01314
G1 X142.178 Y132.982 E.06782
G1 X141.759 Y132.982 E.01314
G1 X141.759 Y130.819 E.06782
G1 X141.34 Y130.819 E.01314
G1 X141.34 Y132.982 E.06782
G1 X140.921 Y132.982 E.01314
G1 X140.921 Y130.65 E.07312
M204 S1000
;WIPE_START
G1 F8640
G1 X140.921 Y132.982 E-.53847
G1 X141.34 Y132.982 E-.09675
G1 X141.34 Y132.268 E-.16478
;WIPE_END
G1 Z.6 F720
G1 X148.463 Y79.089 F10800
G1 Z.2 F720
G1 E.8 F2100
M204 S800
G1 F1200
G1 X148.463 Y77.018 E.06493
G1 X148.044 Y77.018 E.01314
G1 X148.044 Y78.919 E.0596
G1 X147.625 Y78.919 E.01314
G1 X147.625 Y77.018 E.0596
G1 X147.206 Y77.018 E.01314
G1 X147.206 Y78.919 E.0596
G1 X146.787 Y78.919 E.01314
G1 X146.787 Y77.018 E.0596
G1 X146.368 Y77.018 E.01314
G1 X146.368 Y78.919 E.0596
G1 X145.949 Y78.919 E.01314
G1 X145.949 Y77.018 E.0596
G1 X145.53 Y77.018 E.01314
G1 X145.53 Y78.919 E.0596
G1 X145.111 Y78.919 E.01314
G1 X145.111 Y77.018 E.0596
G1 X144.692 Y77.018 E.01314
G1 X144.692 Y79.181 E.06782
G1 X144.273 Y79.181 E.01314
G1 X144.273 Y77.018 E.06782
G1 X143.854 Y77.018 E.01314
G1 X143.854 Y79.181 E.06782
G1 X143.435 Y79.181 E.01314
G1 X143.435 Y77.018 E.06782
G1 X143.016 Y77.018 E.01314
G1 X143.016 Y79.181 E.06782
G1 X142.597 Y79.181 E.01314
G1 X142.597 Y77.018 E.06782
G1 X142.178 Y77.018 E.01314
G1 X142.178 Y79.181 E.06782
G1 X141.759 Y79.181 E.01314
G1 X141.759 Y77.018 E.06782
G1 X141.34 Y77.018 E.01314
G1 X141.34 Y79.181 E.06782
G1 X140.921 Y79.181 E.01314
G1 X140.921 Y76.848 E.07315
M204 S1000
;WIPE_START
G1 F8640
G1 X140.921 Y79.181 E-.5387
G1 X141.34 Y79.181 E-.09675
G1 X141.34 Y78.468 E-.16455
;WIPE_END
G1 Z.6 F720
G1 X146.794 Y130.101 F10800
G1 Z.2 F720
G1 E.8 F2100
M204 S800
;TYPE:Support material interface
;WIDTH:0.35
G1 F1200
G1 X146.794 Y130.175 E.00189
G1 X146.592 Y130.378 E.00731
G1 X146.804 Y130.378 E.00541
G1 X146.804 Y79.622 E1.29599
G1 X147.311 Y79.622 E.01295
G1 X147.311 Y130.378 E1.29599
G1 X147.819 Y130.378 E.01297
G1 X147.819 Y79.622 E1.29599
G1 X148.071 Y79.622 E.00643
G1 X148.071 Y130.378 E1.29599
G1 X147.972 Y130.378 E.00253
M204 S1000
;WIPE_START
G1 F8640
G1 X148.071 Y130.378 E-.02286
G1 X148.071 Y127.012 E-.77714
;WIPE_END
G1 Z.6 F720
G1 X104.826 Y129.213 F10800
G1 Z.2 F720
G1 E.8 F2100
M204 S800
;TYPE:Perimeter
;WIDTH:0.419999
G1 F1200
G1 X100.287 Y124.674 E.20127
G1 X100.287 Y85.326 E1.23373
G1 X104.826 Y80.787 E.20127
G1 X144.764 Y80.787 E1.25223
G1 X144.764 Y129.213 E1.51836
G1 X104.886 Y129.213 E1.25034
M204 S1000
G1 X104.67 Y129.59 F10800
M204 S800
;TYPE:External perimeter
G1 F1200
G1 X99.91 Y124.83 E.21107
G1 X99.91 Y85.17 E1.24351
G1 X104.67 Y80.41 E.21107
G1 X145.141 Y80.41 E1.26894
G1 X145.141 Y129.59 E1.542
G1 X104.73 Y129.59 E1.26706
M204 S1000
M73 P2 R84
M73 Q2 S85
G1 X104.554 Y129.207 F10800
;WIPE_START
G1 F8640
G1 X102.265 Y127.156 E-.8
;WIPE_END
G1 Z.6 F720
G1 X135.982 Y86.97 F10800
G1 Z.2 F720
G1 E.8 F2100
M204 S800
;TYPE:Perimeter
G1 F1200
G1 X136.471 Y87.009 E.01538
G1 X136.995 Y87.168 E.01717
G1 X137.473 Y87.437 E.0172
G1 X137.899 Y87.826 E.01809
G1 X138.258 Y88.355 E.02005
G1 X138.462 Y88.896 E.01813
G1 X138.534 Y89.439 E.01717
G1 X138.488 Y89.985 E.01718
G1 X138.326 Y90.509 E.0172
G1 X138.055 Y90.984 E.01715
G1 X137.496 Y91.543 E.02479
G1 X136.995 Y91.831 E.01812
G1 X136.49 Y91.964 E.01637
G1 X136.076 Y92.034 E.01316
G1 X135.561 Y91.999 E.01618
G1 X135.033 Y91.845 E.01724
G1 X134.532 Y91.567 E.01796
G1 X134.101 Y91.174 E.01829
G1 X133.742 Y90.646 E.02002
G1 X133.538 Y90.104 E.01816
G1 X133.463 Y89.528 E.01821
G1 X133.512 Y89.015 E.01616
G1 X133.785 Y88.274 E.02476
G1 X134.118 Y87.802 E.01811
G1 X134.527 Y87.437 E.01719
G1 X135.005 Y87.168 E.0172
G1 X135.529 Y87.009 E.01717
G1 X135.922 Y86.975 E.01237
M204 S1000
G1 X136.201 Y87.358 F10800
M204 S800
;TYPE:External perimeter
G1 F1200
G1 X136.37 Y87.373 E.00532
G1 X136.818 Y87.502 E.01462
G1 X137.229 Y87.724 E.01465
G1 X137.587 Y88.038 E.01493
G1 X137.946 Y88.566 E.02002
G1 X138.113 Y89.056 E.01623
G1 X138.159 Y89.52 E.01462
G1 X138.104 Y89.984 E.01465
G1 X137.951 Y90.425 E.01464
G1 X137.7 Y90.83 E.01494
G1 X137.236 Y91.269 E.02003
G1 X136.794 Y91.509 E.01577
G1 X136.147 Y91.653 E.02078
G1 X135.641 Y91.63 E.01588
G1 X135.182 Y91.498 E.01497
G1 X134.72 Y91.232 E.01672
G1 X134.413 Y90.962 E.01282
G1 X134.054 Y90.434 E.02002
G1 X133.887 Y89.944 E.01623
G1 X133.84 Y89.509 E.01372
G1 X133.899 Y89.006 E.01588
G1 X134.136 Y88.413 E.02002
G1 X134.446 Y88 E.01619
G1 X134.805 Y87.701 E.01465
G1 X135.22 Y87.487 E.01464
G1 X135.665 Y87.366 E.01446
G1 X136.009 Y87.341 E.01081
G1 X136.141 Y87.352 E.00415
M204 S1000
G1 X136.293 Y87.215 F10800
;WIPE_START
G1 F8640
G1 X136.37 Y87.373 E-.0531
G1 X136.818 Y87.502 E-.10765
G1 X137.229 Y87.724 E-.10786
G1 X137.587 Y88.038 E-.10995
G1 X137.946 Y88.566 E-.14743
G1 X138.113 Y89.056 E-.11953
G1 X138.159 Y89.52 E-.10766
G1 X138.135 Y89.721 E-.04682
;WIPE_END
G1 Z.6 F720
G1 X104.982 Y86.97 F10800
G1 Z.2 F720
G1 E.8 F2100
M204 S800
;TYPE:Perimeter
G1 F1200
G1 X105.471 Y87.009 E.01538
G1 X105.995 Y87.168 E.01717
G1 X106.473 Y87.437 E.0172
G1 X106.882 Y87.802 E.01719
G1 X107.203 Y88.246 E.01718
G1 X107.421 Y88.749 E.01719
G1 X107.525 Y89.317 E.01811
G1 X107.491 Y89.954 E.02
G1 X107.372 Y90.331 E.0124
G1 X107.171 Y90.813 E.01637
G1 X106.821 Y91.267 E.01797
G1 X106.372 Y91.632 E.01814
G1 X105.881 Y91.877 E.01721
G1 X105.334 Y92.011 E.01766
G1 X104.681 Y92.012 E.02047
G1 X104.119 Y91.877 E.01812
G1 X103.628 Y91.632 E.01721
G1 X103.202 Y91.287 E.01719
G1 X102.86 Y90.859 E.01718
G1 X102.549 Y90.133 E.02476
G1 X102.466 Y89.561 E.01812
G1 X102.512 Y89.016 E.01715
G1 X102.785 Y88.274 E.02479
G1 X103.118 Y87.802 E.01811
G1 X103.527 Y87.437 E.01719
G1 X104.005 Y87.168 E.0172
G1 X104.529 Y87.009 E.01717
G1 X104.922 Y86.975 E.01237
M204 S1000
G1 X105.201 Y87.358 F10800
M204 S800
;TYPE:External perimeter
G1 F1200
G1 X105.37 Y87.373 E.00532
G1 X105.818 Y87.502 E.01462
G1 X106.229 Y87.724 E.01465
G1 X106.582 Y88.03 E.01465
G1 X106.861 Y88.404 E.01463
G1 X107.053 Y88.83 E.01465
G1 X107.148 Y89.296 E.01491
G1 X107.114 Y89.933 E.02
G1 X106.865 Y90.586 E.02191
G1 X106.561 Y90.993 E.01593
G1 X106.195 Y91.299 E.01496
G1 X105.78 Y91.514 E.01465
G1 X105.32 Y91.634 E.01491
G1 X104.681 Y91.634 E.02004
G1 X104.182 Y91.498 E.01622
G1 X103.805 Y91.299 E.01337
G1 X103.418 Y90.97 E.01593
G1 X103.135 Y90.586 E.01496
G1 X102.899 Y89.993 E.02001
G1 X102.841 Y89.48 E.01619
G1 X102.899 Y89.007 E.01494
G1 X103.135 Y88.414 E.02001
G1 X103.446 Y88 E.01624
G1 X103.805 Y87.701 E.01465
G1 X104.22 Y87.487 E.01464
G1 X104.665 Y87.366 E.01446
G1 X105.009 Y87.341 E.01081
G1 X105.141 Y87.352 E.00415
M204 S1000
G1 X105.293 Y87.215 F10800
;WIPE_START
G1 F8640
G1 X105.37 Y87.373 E-.0531
G1 X105.818 Y87.502 E-.10765
G1 X106.229 Y87.724 E-.10786
G1 X106.582 Y88.03 E-.10787
G1 X106.861 Y88.404 E-.10774
G1 X107.053 Y88.83 E-.10789
G1 X107.148 Y89.296 E-.10981
G1 X107.125 Y89.72 E-.09808
;WIPE_END
G1 Z.6 F720
G1 X108.991 Y107.544 F10800
G1 Z.2 F720
G1 E.8 F2100
M204 S800
;TYPE:Perimeter
G1 F1200
G1 X108.786 Y106.305 E.03938
G1 X108.713 Y105.031 E.04001
G1 X108.786 Y103.695 E.04195
G1 X108.982 Y102.496 E.03809
G1 X109.321 Y101.266 E.04
G1 X109.771 Y100.126 E.03843
G1 X110.384 Y98.952 E.04153
G1 X111.098 Y97.891 E.0401
G1 X111.846 Y97.006 E.03633
G1 X112.893 Y95.997 E.04559
G1 X113.86 Y95.262 E.03808
G1 X114.952 Y94.601 E.04002
G1 X116.109 Y94.062 E.04002
G1 X117.376 Y93.635 E.04192
G1 X118.563 Y93.374 E.03811
G1 X119.828 Y93.233 E.03991
G1 X120.462 Y93.214 E.01989
G1 X121.125 Y93.23 E.02079
G1 X122.377 Y93.364 E.03948
G1 X123.624 Y93.635 E.04001
G1 X124.834 Y94.039 E.04
G1 X125.994 Y94.572 E.04003
G1 X126.173 Y94.676 E.00649
G1 X127.094 Y95.23 E.0337
G1 X128.107 Y95.997 E.03984
G1 X128.949 Y96.79 E.03627
G1 X129.747 Y97.704 E.03804
G1 X130.615 Y98.95 E.04761
G1 X131.184 Y100.023 E.03808
G1 X131.679 Y101.266 E.04195
G1 X132.004 Y102.436 E.03807
G1 X132.221 Y103.756 E.04194
G1 X132.287 Y105.031 E.04003
G1 X132.214 Y106.305 E.04001
G1 X132.018 Y107.504 E.03809
G1 X131.679 Y108.734 E.04
G1 X131.21 Y109.921 E.04002
G1 X130.615 Y111.05 E.04001
G1 X129.902 Y112.109 E.04003
G1 X129.078 Y113.083 E.04
G1 X128.24 Y113.882 E.0363
G1 X127.14 Y114.738 E.0437
G1 X126.048 Y115.399 E.04002
G1 X125.11 Y115.837 E.03246
G1 X124.715 Y116.001 E.01341
G1 X123.624 Y116.365 E.03606
G1 X122.437 Y116.626 E.03811
G1 X121.169 Y116.768 E.04001
G1 X119.892 Y116.771 E.04004
G1 X118.623 Y116.636 E.04001
G1 X117.376 Y116.365 E.04001
G1 X116.166 Y115.961 E.04
G1 X115.006 Y115.428 E.04003
G1 X114.827 Y115.324 E.00649
G1 X113.911 Y114.773 E.03352
G1 X112.893 Y114.003 E.04002
G1 X112.052 Y113.211 E.03622
G1 X111.253 Y112.296 E.03809
G1 X110.385 Y111.05 E.04761
G1 X109.816 Y109.977 E.03808
G1 X109.34 Y108.792 E.04004
G1 X109.006 Y107.602 E.03875
M204 S1000
G1 X109.362 Y107.475 F10800
M204 S800
;TYPE:External perimeter
G1 F1200
G1 X109.156 Y106.223 E.03978
G1 X109.09 Y104.99 E.03872
G1 X109.158 Y103.756 E.03875
G1 X109.355 Y102.557 E.0381
G1 X109.684 Y101.366 E.03874
G1 X110.122 Y100.265 E.03715
G1 X110.718 Y99.127 E.04028
G1 X111.41 Y98.103 E.03875
G1 X112.134 Y97.25 E.03508
G1 X113.121 Y96.297 E.04302
G1 X114.088 Y95.562 E.03808
G1 X115.146 Y94.924 E.03874
G1 X116.267 Y94.404 E.03875
G1 X117.457 Y94.003 E.03937
G1 X118.644 Y93.742 E.03811
G1 X119.869 Y93.608 E.03864
G1 X120.472 Y93.591 E.01891
G1 X121.115 Y93.607 E.02017
G1 X122.336 Y93.739 E.03851
G1 X123.543 Y94.003 E.03874
G1 X124.714 Y94.397 E.03874
G1 X125.836 Y94.914 E.03873
G1 X125.979 Y94.999 E.00522
G1 X126.896 Y95.551 E.03356
G1 X127.879 Y96.297 E.03869
G1 X128.689 Y97.063 E.03495
G1 X129.46 Y97.949 E.03683
G1 X130.282 Y99.126 E.04501
G1 X130.851 Y100.2 E.03811
G1 X131.316 Y101.366 E.03936
G1 X131.641 Y102.537 E.0381
G1 X131.844 Y103.777 E.0394
G1 X131.91 Y105.01 E.03872
G1 X131.842 Y106.244 E.03875
G1 X131.645 Y107.445 E.03816
G1 X131.316 Y108.634 E.03868
G1 X130.86 Y109.782 E.03873
G1 X130.482 Y110.497 E.02536
G1 X130.025 Y111.255 E.02775
G1 X129.59 Y111.897 E.02431
G1 X128.791 Y112.839 E.03873
G1 X127.981 Y113.608 E.03502
G1 X126.912 Y114.438 E.04243
G1 X125.854 Y115.076 E.03874
G1 X124.595 Y115.644 E.04331
G1 X123.543 Y115.997 E.03479
G1 X122.356 Y116.258 E.03811
