; generated by PrusaSlicer 2.6.1+win64 on 2023-10-22 at 23:03:53 UTC


;
;
; 

; external perimeters extrusion width = 0.45mm
; perimeters extrusion width = 0.45mm
; infill extrusion width = 0.45mm
; solid infill extrusion width = 0.45mm
; top infill extrusion width = 0.40mm
; support material extrusion width = 0.35mm
; first layer extrusion width = 0.42mm

M73 P0 R75
M73 Q0 S75
M201 X1000 Y1000 Z200 E5000 ; sets maximum accelerations, mm/sec^2
M203 X200 Y200 Z12 E120 ; sets maximum feedrates, mm / sec
M204 S1250 T1250 ; sets acceleration (S) and retract acceleration (R), mm/sec^2
M205 X8.00 Y8.00 Z0.40 E4.50 ; sets the jerk limits, mm/sec
M205 S0 T0 ; sets the minimum extruding and travel feed rate, mm/sec
;TYPE:Custom
M862.3 P "MK3S" ; printer model check
M862.1 P0.4 ; nozzle diameter check
M115 U3.13.0 ; tell printer latest fw version
G90 ; use absolute coordinates
M83 ; extruder relative mode
M104 S215 ; set extruder temp
M140 S60 ; set bed temp
M190 S60 ; wait for bed temp
M109 S215 ; wait for extruder temp
G28 W ; home all without mesh bed level
G80 ; mesh bed leveling

G1 Z0.2 F720
G1 Y-3 F1000 ; go outside print area
G92 E0
G1 X60 E9 F1000 ; intro line
G1 X100 E12.5 F1000 ; intro line

G92 E0
M221 S95

; Don't change E values below. Excessive value can damage the printer.

M907 E538 ; set extruder motor current
G21 ; set units to millimeters
G90 ; use absolute coordinates
M83 ; use relative distances for extrusion
M900 K0.05 ; Filament gcode LA 1.5
M900 K30 ; Filament gcode LA 1.0
M107
;LAYER_CHANGE
;Z:0.2
;HEIGHT:0.2
;BEFORE_LAYER_CHANGE
G92 E0.0
;0.2


G1 E-.8 F2100
G1 Z.4 F720
;AFTER_LAYER_CHANGE
;0.2
G1 X99.369 Y76.8 F10800
G1 Z.2 F720
G1 E.8 F2100
M204 S800
;TYPE:Skirt/Brim
;WIDTH:0.42
G1 F1200
G1 X102.357 Y73.813 E.13247
G1 X104.036 Y73.117 E.05699
G1 X138.627 Y73.106 E1.08458
G1 X145.966 Y73.117 E.23011
G1 X147.643 Y73.813 E.05693
G1 X150.631 Y76.8 E.13247
G1 X151.327 Y78.481 E.05705
G1 X151.327 Y131.519 E1.66297
G1 X150.631 Y133.2 E.05705
G1 X147.643 Y136.187 E.13247
G1 X145.962 Y136.883 E.05705
G1 X104.038 Y136.883 E1.3145
G1 X102.357 Y136.187 E.05705
G1 X99.369 Y133.2 E.13247
G1 X98.673 Y131.519 E.05705
G1 X98.673 Y78.481 E1.66297
G1 X99.346 Y76.856 E.05515
M204 S1000
;WIPE_START
G1 F8640
G1 X101.783 Y74.393 E-.8
;WIPE_END
G1 Z.6 F720
G1 X101.984 Y78.219 F10800
G1 Z.2 F720
G1 E.8 F2100
M204 S800
G1 F1200
G1 X102.174 Y77.851 E.01299
G1 X103.05 Y76.909 E.04033
G1 X103.731 Y76.405 E.02656
G1 X105.703 Y75.78 E.06486
G1 X144.298 Y75.78 E1.21012
G1 X146.247 Y76.392 E.06405
M73 P0 R74
G1 X146.85 Y76.82 E.02319
G1 X147.425 Y77.353 E.02458
G1 X148.283 Y78.689 E.04978
G1 X148.663 Y80.174 E.04806
G1 X148.663 Y129.824 E1.55674
G1 X148.348 Y131.138 E.04237
G1 X147.826 Y132.149 E.03568
G1 X146.95 Y133.091 E.04033
G1 X146.269 Y133.595 E.02656
G1 X144.297 Y134.22 E.06486
G1 X105.732 Y134.22 E1.20918
G1 X104.418 Y133.905 E.04237
G1 X103.407 Y133.382 E.03569
G1 X102.465 Y132.506 E.04033
G1 X101.961 Y131.825 E.02656
G1 X101.337 Y129.853 E.06485
G1 X101.337 Y110.956 E.5925
G1 X101.717 Y109.471 E.04806
G1 X102.575 Y108.134 E.04981
G1 X103.151 Y107.601 E.02461
G1 X103.742 Y107.182 E.02271
G1 X105.194 Y106.645 E.04854
G1 X118.891 Y106.561 E.42947
G1 X120.855 Y107.178 E.06455
G1 X121.487 Y107.634 E.02444
G1 X122.252 Y108.408 E.03412
G1 X122.917 Y109.554 E.04154
G1 X123.246 Y110.816 E.04089
G1 X123.263 Y123.469 E.39673
G1 X133.975 Y123.469 E.33587
G1 X133.975 Y86.193 E1.16876
G1 X123.271 Y86.193 E.33562
G1 X123.245 Y98.837 E.39644
G1 X122.916 Y100.098 E.04086
G1 X122.251 Y101.243 E.04152
G1 X121.487 Y102.017 E.0341
G1 X120.855 Y102.472 E.02442
G1 X118.894 Y103.089 E.06446
G1 X105.331 Y103.032 E.42526
G1 X104.045 Y102.617 E.04237
G1 X102.905 Y101.845 E.04317
G1 X102.376 Y101.275 E.02438
G1 X101.948 Y100.671 E.02321
G1 X101.337 Y98.722 E.06404
G1 X101.337 Y80.176 E.5815
G1 X101.652 Y78.862 E.04237
G1 X101.956 Y78.273 E.02078
M204 S1000
G1 X102.288 Y78.446 F10800
M204 S800
G1 F1200
G1 X102.496 Y78.049 E.01405
G1 X103.312 Y77.181 E.03735
G1 X103.929 Y76.727 E.02402
G1 X105.732 Y76.157 E.05929
G1 X144.269 Y76.158 E1.2083
G1 X146.054 Y76.717 E.05865
G1 X146.603 Y77.105 E.02108
G1 X147.152 Y77.614 E.02347
G1 X147.926 Y78.814 E.04477
G1 X148.286 Y80.198 E.04484
G1 X148.286 Y129.801 E1.55527
G1 X147.988 Y131.026 E.03953
G1 X147.504 Y131.951 E.03273
G1 X146.688 Y132.82 E.03738
G1 X146.071 Y133.273 E.024
G1 X144.268 Y133.843 E.05929
G1 X105.755 Y133.843 E1.20755
G1 X104.531 Y133.544 E.03951
G1 X103.606 Y133.06 E.03273
G1 X102.737 Y132.244 E.03738
G1 X102.284 Y131.627 E.024
G1 X101.714 Y129.824 E.05929
G1 X101.714 Y110.98 E.59084
G1 X102.074 Y109.595 E.04487
G1 X102.849 Y108.395 E.04479
G1 X103.398 Y107.886 E.02347
G1 X103.938 Y107.504 E.02074
G1 X105.292 Y107.01 E.04519
G1 X118.864 Y106.939 E.42555
G1 X120.66 Y107.502 E.05901
G1 X121.232 Y107.912 E.02207
G1 X121.939 Y108.621 E.03139
G1 X122.559 Y109.675 E.03834
G1 X122.875 Y110.888 E.0393
G1 X122.886 Y123.846 E.40629
G1 X134.353 Y123.846 E.35954
M73 P1 R74
M73 Q1 S75
G1 X134.352 Y85.816 E1.1924
G1 X122.894 Y85.816 E.35926
G1 X122.875 Y98.765 E.40601
G1 X122.558 Y99.977 E.03928
G1 X121.939 Y101.031 E.03833
G1 X121.232 Y101.739 E.03137
G1 X120.66 Y102.148 E.02205
G1 X118.866 Y102.712 E.05896
G1 X105.419 Y102.664 E.42162
G1 X104.186 Y102.267 E.04061
G1 X103.167 Y101.574 E.03864
G1 X102.661 Y101.028 E.02334
G1 X102.273 Y100.478 E.0211
G1 X101.714 Y98.693 E.05865
G1 X101.714 Y80.199 E.57987
G1 X102.012 Y78.974 E.03953
G1 X102.261 Y78.5 E.01679
M204 S1000
G1 X102.59 Y78.671 F10800
M204 S800
G1 F1200
G1 X102.789 Y78.289 E.01351
G1 X103.575 Y77.452 E.036
G1 X104.126 Y77.05 E.02139
G1 X105.76 Y76.534 E.05373
G1 X144.24 Y76.535 E1.20651
G1 X145.861 Y77.043 E.05326
G1 X146.356 Y77.391 E.01897
G1 X146.877 Y77.874 E.02228
G1 X147.592 Y78.991 E.04158
G1 X147.909 Y80.222 E.03986
G1 X147.909 Y129.778 E1.55379
G1 X147.627 Y130.913 E.03667
M73 Q1 S74
G1 X147.211 Y131.711 E.02822
G1 X146.425 Y132.548 E.036
G1 X145.874 Y132.95 E.02139
G1 X144.239 Y133.466 E.05376
G1 X105.779 Y133.466 E1.20589
G1 X104.644 Y133.183 E.03668
G1 X103.845 Y132.768 E.02823
G1 X103.008 Y131.981 E.03602
G1 X102.606 Y131.43 E.02139
G1 X102.091 Y129.796 E.05372
G1 X102.091 Y111.004 E.58921
G1 X102.408 Y109.773 E.03986
G1 X103.123 Y108.655 E.04161
G1 X103.645 Y108.172 E.0223
G1 X104.134 Y107.828 E.01875
G1 X105.389 Y107.376 E.04182
G1 X118.837 Y107.316 E.42166
G1 X120.466 Y107.827 E.05353
G1 X120.978 Y108.191 E.0197
G1 X121.627 Y108.833 E.02862
G1 X122.22 Y109.842 E.0367
G1 X122.504 Y110.958 E.03611
G1 X122.509 Y124.223 E.41591
G1 X134.73 Y124.223 E.38318
G1 X134.729 Y85.439 E1.21605
G1 X122.517 Y85.439 E.3829
G1 X122.503 Y98.695 E.41563
G1 X122.219 Y99.81 E.03608
G1 X121.627 Y100.818 E.03665
G1 X120.978 Y101.46 E.02862
G1 X120.466 Y101.824 E.0197
G1 X118.838 Y102.335 E.0535
G1 X105.505 Y102.296 E.41805
G1 X104.374 Y101.938 E.0372
G1 X103.428 Y101.301 E.03576
G1 X102.946 Y100.781 E.02223
G1 X102.598 Y100.285 E.019
G1 X102.091 Y98.664 E.05325
G1 X102.091 Y80.222 E.57824
G1 X102.373 Y79.087 E.03667
G1 X102.562 Y78.724 E.01283
M204 S1000
G1 X102.893 Y78.899 F10800
M204 S800
G1 F1200
G1 X103.109 Y78.488 E.01456
G1 X103.835 Y77.725 E.03302
G1 X104.321 Y77.374 E.0188
G1 X105.789 Y76.912 E.04825
G1 X144.211 Y76.912 E1.20469
G1 X145.669 Y77.368 E.0479
G1 X146.11 Y77.676 E.01687
G1 X146.604 Y78.134 E.02112
G1 X147.235 Y79.116 E.0366
G1 X147.532 Y80.247 E.03666
G1 X147.532 Y129.754 E1.55226
G1 X147.268 Y130.797 E.03373
G1 X146.891 Y131.512 E.02534
G1 X146.165 Y132.275 E.03302
G1 X145.678 Y132.626 E.01882
G1 X144.211 Y133.089 E.04823
G1 X105.802 Y133.089 E1.20429
G1 X104.759 Y132.824 E.03374
G1 X104.045 Y132.447 E.02532
G1 X103.281 Y131.721 E.03305
G1 X102.93 Y131.235 E.0188
G1 X102.468 Y129.767 E.04825
G1 X102.468 Y111.028 E.58755
G1 X102.765 Y109.898 E.03663
G1 X103.396 Y108.916 E.0366
G1 X103.891 Y108.457 E.02117
G1 X104.328 Y108.152 E.01671
G1 X105.485 Y107.742 E.03849
G1 X118.809 Y107.693 E.41777
G1 X120.273 Y108.152 E.04811
G1 X120.726 Y108.472 E.01739
G1 X121.316 Y109.048 E.02585
G1 X121.861 Y109.962 E.03337
G1 X122.132 Y111.028 E.03449
G1 X122.132 Y124.6 E.42554
G1 X135.107 Y124.6 E.40682
G1 X135.106 Y85.062 E1.23969
G1 X122.14 Y85.062 E.40654
M73 P1 R73
G1 X122.132 Y98.625 E.42526
G1 X121.861 Y99.69 E.03446
G1 X121.316 Y100.603 E.03334
G1 X120.726 Y101.179 E.02585
G1 X120.273 Y101.499 E.01739
G1 X118.81 Y101.958 E.04808
G1 X105.589 Y101.928 E.41454
G1 X104.56 Y101.609 E.03378
G1 X103.69 Y101.028 E.0328
G1 X103.232 Y100.534 E.02112
G1 X102.924 Y100.093 E.01687
G1 X102.468 Y98.636 E.04787
G1 X102.468 Y80.246 E.57661
G1 X102.732 Y79.203 E.03373
G1 X102.865 Y78.952 E.00891
M204 S1000
G1 X103.194 Y79.124 F10800
M204 S800
G1 F1200
G1 X103.401 Y78.729 E.01398
G1 X104.096 Y77.998 E.03163
G1 X104.516 Y77.698 E.01618
G1 X105.818 Y77.289 E.04279
G1 X144.183 Y77.289 E1.20291
G1 X145.478 Y77.695 E.04255
G1 X145.863 Y77.962 E.01469
G1 X146.329 Y78.394 E.01992
G1 X146.901 Y79.293 E.03341
G1 X147.155 Y80.271 E.03168
G1 X147.155 Y129.729 E1.55072
G1 X146.908 Y130.682 E.03087
G1 X146.599 Y131.271 E.02085
G1 X145.904 Y132.002 E.03163
G1 X145.484 Y132.302 E.01618
G1 X144.182 Y132.711 E.04279
G1 X105.827 Y132.711 E1.20259
G1 X104.875 Y132.464 E.03084
M73 P2 R73
G1 X104.285 Y132.155 E.02088
M73 Q2 S74
G1 X103.554 Y131.46 E.03163
G1 X103.254 Y131.04 E.01618
G1 X102.845 Y129.738 E.04279
G1 X102.845 Y111.052 E.58589
G1 X103.099 Y110.075 E.03165
G1 X103.671 Y109.175 E.03344
G1 X104.137 Y108.743 E.01992
G1 X104.522 Y108.477 E.01467
G1 X105.578 Y108.108 E.03507
G1 X118.781 Y108.07 E.41397
G1 X120.081 Y108.478 E.04272
G1 X120.476 Y108.755 E.01513
G1 X121.007 Y109.266 E.02311
G1 X121.504 Y110.085 E.03004
G1 X121.755 Y111.052 E.03132
G1 X121.755 Y124.977 E.43661
G1 X135.484 Y124.977 E.43046
G1 X135.483 Y84.685 E1.26333
G1 X121.763 Y84.685 E.43018
G1 X121.755 Y98.6 E.4363
G1 X121.503 Y99.567 E.03133
G1 X121.007 Y100.385 E.02999
G1 X120.476 Y100.896 E.02311
G1 X120.081 Y101.173 E.01513
G1 X118.782 Y101.581 E.04269
G1 X105.671 Y101.559 E.41109
G1 X104.743 Y101.279 E.03039
G1 X103.951 Y100.755 E.02978
G1 X103.518 Y100.288 E.01997
G1 X103.25 Y99.902 E.01473
G1 X102.845 Y98.607 E.04254
G1 X102.845 Y80.271 E.57491
G1 X103.092 Y79.318 E.03087
G1 X103.166 Y79.177 E.00499
M204 S1000
G1 X103.495 Y79.353 F10800
M204 S800
G1 F1200
G1 X103.721 Y78.931 E.01501
G1 X104.354 Y78.274 E.02861
G1 X104.709 Y78.024 E.01361
G1 X105.847 Y77.666 E.03741
G1 X144.154 Y77.666 E1.20109
G1 X145.288 Y78.021 E.03726
G1 X145.617 Y78.248 E.01253
G1 X146.056 Y78.654 E.01875
G1 X146.544 Y79.419 E.02845
G1 X146.778 Y80.296 E.02846
G1 X146.778 Y129.704 E1.54915
G1 X146.55 Y130.562 E.02784
G1 X146.279 Y131.069 E.01803
G1 X145.646 Y131.726 E.02861
G1 X145.291 Y131.977 E.01363
G1 X144.153 Y132.334 E.0374
G1 X105.852 Y132.334 E1.2009
G1 X104.994 Y132.106 E.02784
G1 X104.487 Y131.836 E.01801
G1 X103.83 Y131.202 E.02863
G1 X103.58 Y130.847 E.01361
G1 X103.222 Y129.709 E.03741
G1 X103.222 Y111.077 E.58419
G1 X103.456 Y110.201 E.02843
G1 X103.945 Y109.436 E.02847
G1 X104.383 Y109.029 E.01875
G1 X104.713 Y108.802 E.01256
G1 X105.67 Y108.475 E.03171
G1 X118.753 Y108.447 E.41021
G1 X119.889 Y108.804 E.03734
G1 X120.228 Y109.039 E.01293
G1 X120.7 Y109.486 E.02038
G1 X121.147 Y110.21 E.02668
G1 X121.378 Y111.077 E.02813
G1 X121.378 Y125.354 E.44765
G1 X135.861 Y125.354 E.4541
G1 X135.86 Y84.308 E1.28697
G1 X121.386 Y84.308 E.45382
G1 X121.378 Y98.575 E.44733
G1 X121.147 Y99.442 E.02813
G1 X120.7 Y100.165 E.02665
G1 X120.228 Y100.612 E.02038
G1 X119.889 Y100.847 E.01293
G1 X118.753 Y101.203 E.03733
G1 X105.75 Y101.189 E.4077
G1 X104.925 Y100.947 E.02696
M73 Q2 S73
G1 X104.211 Y100.481 E.02673
G1 X103.804 Y100.042 E.01877
G1 X103.577 Y99.712 E.01256
G1 X103.222 Y98.578 E.03726
G1 X103.222 Y80.296 E.57322
G1 X103.467 Y79.406 E.02894
M204 S1000
G1 X103.808 Y79.559 F10800
M204 S800
G1 F1200
G1 X104.038 Y79.135 E.01512
G1 X104.61 Y78.551 E.02563
G1 X104.9 Y78.35 E.01106
G1 X105.876 Y78.043 E.03208
G1 X144.125 Y78.043 E1.19927
G1 X145.099 Y78.349 E.03201
G1 X145.372 Y78.535 E.01036
G1 X145.782 Y78.915 E.01753
G1 X146.189 Y79.547 E.02357
G1 X146.401 Y80.322 E.02519
G1 X146.401 Y129.678 E1.54752
G1 X146.192 Y130.441 E.0248
G1 X145.962 Y130.865 E.01512
G1 X145.39 Y131.449 E.02563
G1 X145.1 Y131.65 E.01106
G1 X144.124 Y131.957 E.03208
G1 X105.878 Y131.957 E1.19918
G1 X105.116 Y131.749 E.02477
G1 X104.691 Y131.518 E.01517
G1 X104.107 Y130.946 E.02563
G1 X103.906 Y130.656 E.01106
G1 X103.599 Y129.681 E.03205
G1 X103.599 Y111.103 E.5825
G1 X103.811 Y110.329 E.02516
G1 X104.218 Y109.696 E.0236
G1 X104.629 Y109.316 E.01755
G1 X104.903 Y109.129 E.0104
G1 X105.761 Y108.843 E.02836
G1 X118.724 Y108.824 E.40645
G1 X119.7 Y109.131 E.03208
G1 X119.98 Y109.323 E.01064
G1 X120.424 Y109.743 E.01916
G1 X120.791 Y110.336 E.02187
G1 X121.001 Y111.103 E.02493
G1 X121.001 Y125.731 E.45865
G1 X136.238 Y125.731 E.47775
G1 X136.237 Y83.931 E1.31061
G1 X121.01 Y83.931 E.47743
G1 X121.001 Y98.549 E.45834
G1 X120.791 Y99.315 E.0249
G1 X120.423 Y99.908 E.02188
G1 X119.98 Y100.328 E.01914
G1 X119.699 Y100.52 E.01067
G1 X118.724 Y100.826 E.03204
G1 X105.827 Y100.819 E.40438
G1 X105.104 Y100.614 E.02356
G1 X104.471 Y100.207 E.0236
G1 X104.09 Y99.796 E.01757
G1 X103.904 Y99.523 E.01036
G1 X103.599 Y98.55 E.03197
G1 X103.599 Y80.322 E.57153
G1 X103.792 Y79.617 E.02292
M204 S1000
G1 X104.154 Y79.72 F10800
M204 S800
G1 F1200
G1 X104.354 Y79.342 E.01341
G1 X104.863 Y78.831 E.02261
G1 X105.089 Y78.677 E.00857
G1 X105.904 Y78.42 E.02679
G1 X144.096 Y78.42 E1.19748
G1 X144.911 Y78.677 E.02679
G1 X145.127 Y78.822 E.00816
G1 X145.509 Y79.176 E.01633
G1 X145.834 Y79.678 E.01875
G1 X146.024 Y80.349 E.02187
G1 X146.024 Y129.651 E1.54583
G1 X145.836 Y130.315 E.02164
M73 P3 R73
M73 Q3 S73
G1 X145.646 Y130.658 E.01229
G1 X145.136 Y131.169 E.02264
G1 X144.911 Y131.323 E.00855
G1 X144.095 Y131.58 E.02682
G1 X105.905 Y131.58 E1.19742
G1 X105.241 Y131.392 E.02164
G1 X104.899 Y131.202 E.01227
G1 X104.387 Y130.693 E.02264
G1 X104.233 Y130.468 E.00855
G1 X103.976 Y129.652 E.02682
G1 X103.976 Y111.13 E.58074
G1 X104.166 Y110.46 E.02184
M73 P3 R72
G1 X104.491 Y109.957 E.01878
G1 X104.874 Y109.603 E.01635
G1 X105.091 Y109.457 E.0082
G1 X105.848 Y109.21 E.02497
G1 X118.695 Y109.201 E.40281
G1 X119.511 Y109.458 E.02682
G1 X119.732 Y109.608 E.00837
G1 X120.147 Y110.001 E.01792
G1 X120.436 Y110.465 E.01714
G1 X120.624 Y111.13 E.02167
G1 X120.624 Y126.108 E.46962
G1 X136.615 Y126.108 E.50139
G1 X136.614 Y83.554 E1.33425
G1 X120.633 Y83.554 E.50107
G1 X120.624 Y98.522 E.46931
G1 X120.435 Y99.186 E.02165
G1 X120.147 Y99.65 E.01712
G1 X119.732 Y100.043 E.01792
G1 X119.511 Y100.192 E.00836
G1 X118.695 Y100.449 E.02682
G1 X105.905 Y100.449 E.40102
G1 X105.235 Y100.259 E.02184
G1 X104.732 Y99.934 E.01878
G1 X104.377 Y99.551 E.01637
G1 X104.232 Y99.336 E.00813
G1 X103.976 Y98.521 E.02678
G1 X103.976 Y80.349 E.56977
G1 X104.138 Y79.778 E.01861
M204 S1000
G1 X104.498 Y79.884 F10800
M204 S800
G1 F1200
G1 X104.519 Y79.814 E.00229
G1 X104.668 Y79.553 E.00942
G1 X105.114 Y79.113 E.01964
G1 X105.275 Y79.006 E.00606
G1 X105.934 Y78.797 E.02168
G1 X144.067 Y78.797 E1.19563
G1 X144.726 Y79.006 E.02168
G1 X144.882 Y79.109 E.00586
G1 X145.236 Y79.437 E.01513
G1 X145.481 Y79.812 E.01404
G1 X145.647 Y80.377 E.01846
G1 X145.647 Y129.623 E1.54407
G1 X145.481 Y130.186 E.0184
G1 X145.332 Y130.447 E.00942
G1 X144.886 Y130.887 E.01964
G1 X144.725 Y130.994 E.00606
G1 X144.066 Y131.203 E.02168
G1 X105.933 Y131.203 E1.19563
G1 X105.37 Y131.038 E.01839
G1 X105.11 Y130.889 E.0094
G1 X104.669 Y130.442 E.01969
G1 X104.562 Y130.281 E.00606
G1 X104.353 Y129.623 E.02165
G1 X104.353 Y111.158 E.57896
G1 X104.519 Y110.594 E.01843
G1 X104.764 Y110.218 E.01407
G1 X105.118 Y109.89 E.01513
G1 X105.275 Y109.787 E.00589
G1 X105.934 Y109.579 E.02167
G1 X118.666 Y109.579 E.3992
G1 X119.325 Y109.787 E.02167
G1 X119.485 Y109.894 E.00604
G1 X119.87 Y110.258 E.01661
G1 X120.082 Y110.597 E.01254
G1 X120.247 Y111.158 E.01833
G1 X120.247 Y126.485 E.48057
G1 X136.992 Y126.485 E.52503
G1 X136.992 Y83.177 E1.35789
