; generated by PrusaSlicer 2.6.1+win64 on 2023-10-18 at 03:28:19 UTC


;
;
; 

; external perimeters extrusion width = 0.45mm
; perimeters extrusion width = 0.45mm
; infill extrusion width = 0.45mm
; solid infill extrusion width = 0.45mm
; top infill extrusion width = 0.40mm
; support material extrusion width = 0.35mm
; first layer extrusion width = 0.42mm

M73 P0 R94
M73 Q0 S96
M201 X1000 Y1000 Z200 E5000 ; sets maximum accelerations, mm/sec^2
M203 X200 Y200 Z12 E120 ; sets maximum feedrates, mm / sec
M204 S1250 T1250 ; sets acceleration (S) and retract acceleration (R), mm/sec^2
M205 X8.00 Y8.00 Z0.40 E4.50 ; sets the jerk limits, mm/sec
M205 S0 T0 ; sets the minimum extruding and travel feed rate, mm/sec
;TYPE:Custom
M862.3 P "MK3S" ; printer model check
M862.1 P0.4 ; nozzle diameter check
M115 U3.13.0 ; tell printer latest fw version
G90 ; use absolute coordinates
M83 ; extruder relative mode
M104 S215 ; set extruder temp
M140 S60 ; set bed temp
M190 S60 ; wait for bed temp
M109 S215 ; wait for extruder temp
G28 W ; home all without mesh bed level
G80 ; mesh bed leveling

G1 Z0.2 F720
G1 Y-3 F1000 ; go outside print area
G92 E0
G1 X60 E9 F1000 ; intro line
G1 X100 E12.5 F1000 ; intro line

G92 E0
M221 S95

; Don't change E values below. Excessive value can damage the printer.

M907 E538 ; set extruder motor current
G21 ; set units to millimeters
G90 ; use absolute coordinates
M83 ; use relative distances for extrusion
M900 K0.05 ; Filament gcode LA 1.5
M900 K30 ; Filament gcode LA 1.0
M107
;LAYER_CHANGE
;Z:0.2
;HEIGHT:0.2
;BEFORE_LAYER_CHANGE
G92 E0.0
;0.2


G1 E-.8 F2100
G1 Z.4 F720
;AFTER_LAYER_CHANGE
;0.2
G1 X41.857 Y67.888 F10800
G1 Z.2 F720
G1 E.8 F2100
M204 S800
;TYPE:Skirt/Brim
;WIDTH:0.42
G1 F1200
G1 X43.358 Y67.199 E.05178
G1 X59.588 Y65.973 E.51033
G1 X190.592 Y65.98 E4.10754
G1 X206.642 Y67.199 E.50469
G1 X208.254 Y67.998 E.05641
G1 X208.95 Y69.679 E.05705
G1 X208.95 Y140.186 E2.2107
G1 X208.457 Y141.635 E.04799
G1 X208.268 Y141.881 E.00973
G1 X206.565 Y142.801 E.06069
G1 X190.412 Y144.027 E.50792
G1 X59.588 Y144.027 E4.10189
G1 X43.358 Y142.801 E.51033
M73 P0 R93
G1 X41.746 Y142.002 E.05641
G1 X41.05 Y140.321 E.05705
G1 X41.05 Y69.679 E2.21493
G1 X41.746 Y67.998 E.05705
G1 X41.814 Y67.93 E.00302
M204 S1000
;WIPE_START
G1 F8640
G1 X43.358 Y67.199 E-.39445
G1 X45.109 Y67.067 E-.40555
;WIPE_END
G1 Z.6 F720
G1 X57.201 Y71.72 F10800
G1 Z.2 F720
G1 E.8 F2100
M204 S800
G1 F1200
G1 X57.659 Y70.8 E.03222
G1 X58.596 Y69.769 E.04368
G1 X59.281 Y69.261 E.02674
G1 X61.253 Y68.637 E.06485
G1 X188.689 Y68.64 E3.99567
G1 X189.709 Y68.834 E.03255
G1 X190.688 Y69.25 E.03335
G1 X191.812 Y70.146 E.04507
G1 X192.705 Y71.484 E.05044
G1 X193.113 Y73.029 E.0501
G1 X193.113 Y136.968 E2.00476
G1 X192.799 Y138.28 E.0423
G1 X192.341 Y139.2 E.03222
G1 X191.404 Y140.231 E.04368
G1 X190.719 Y140.739 E.02674
G1 X188.747 Y141.363 E.06485
G1 X61.282 Y141.363 E3.99658
G1 X59.97 Y141.049 E.0423
M73 Q0 S95
G1 X59.05 Y140.591 E.03222
G1 X58.019 Y139.654 E.04368
G1 X57.511 Y138.969 E.02674
G1 X56.887 Y136.997 E.06485
G1 X56.887 Y73.032 E2.00558
G1 X57.187 Y71.778 E.04043
M204 S1000
G1 X57.553 Y71.868 F10800
M204 S800
G1 F1200
G1 X57.984 Y70.993 E.03058
G1 X58.861 Y70.038 E.04065
G1 X59.479 Y69.584 E.02404
G1 X61.282 Y69.014 E.05929
G1 X188.671 Y69.017 E3.99419
G1 X189.617 Y69.2 E.03021
M73 P1 R93
M73 Q1 S95
G1 X190.515 Y69.586 E.03065
G1 X191.553 Y70.421 E.04177
G1 X192.349 Y71.612 E.04492
G1 X192.736 Y73.054 E.04681
G1 X192.736 Y136.945 E2.00326
G1 X192.438 Y138.169 E.0395
G1 X192.016 Y139.007 E.02942
G1 X191.139 Y139.962 E.04065
G1 X190.521 Y140.416 E.02404
G1 X188.718 Y140.986 E.05929
G1 X61.305 Y140.986 E3.99495
G1 X60.081 Y140.688 E.0395
G1 X59.244 Y140.266 E.02939
G1 X58.289 Y139.389 E.04065
G1 X57.834 Y138.771 E.02406
G1 X57.264 Y136.968 E.05929
G1 X57.264 Y73.055 E2.00395
G1 X57.539 Y71.926 E.03643
M204 S1000
G1 X57.905 Y72.017 F10800
M204 S800
G1 F1200
G1 X57.923 Y71.944 E.00236
G1 X58.307 Y71.189 E.02656
G1 X59.124 Y70.309 E.03765
G1 X59.676 Y69.906 E.02143
G1 X61.311 Y69.391 E.05375
G1 X188.652 Y69.394 E3.99269
G1 X189.524 Y69.566 E.02787
G1 X190.34 Y69.921 E.0279
G1 X191.293 Y70.695 E.03849
G1 X192.017 Y71.793 E.04124
G1 X192.359 Y73.078 E.04169
G1 X192.359 Y136.921 E2.00175
G1 X192.077 Y138.056 E.03667
M73 P1 R92
G1 X191.693 Y138.811 E.02656
G1 X190.876 Y139.691 E.03765
G1 X190.324 Y140.094 E.02143
G1 X188.689 Y140.609 E.05375
G1 X61.329 Y140.609 E3.99328
G1 X60.194 Y140.327 E.03667
G1 X59.439 Y139.943 E.02656
G1 X58.559 Y139.126 E.03765
G1 X58.156 Y138.574 E.02143
G1 X57.641 Y136.939 E.05375
G1 X57.641 Y73.079 E2.00229
G1 X57.89 Y72.075 E.03243
M204 S1000
G1 X58.255 Y72.167 F10800
M204 S800
G1 F1200
G1 X58.283 Y72.058 E.00353
G1 X58.63 Y71.386 E.02371
G1 X59.386 Y70.581 E.03463
G1 X59.872 Y70.23 E.0188
G1 X61.339 Y69.768 E.04822
G1 X188.633 Y69.771 E3.99121
G1 X189.429 Y69.931 E.02546
G1 X190.164 Y70.255 E.02519
G1 X191.03 Y70.967 E.03515
G1 X191.685 Y71.973 E.03764
G1 X191.982 Y73.102 E.0366
G1 X191.982 Y136.898 E2.00028
G1 X191.717 Y137.942 E.03377
G1 X191.37 Y138.614 E.02371
G1 X190.614 Y139.419 E.03463
G1 X190.128 Y139.77 E.0188
G1 X188.661 Y140.232 E.04822
G1 X61.352 Y140.232 E3.99168
G1 X60.308 Y139.967 E.03377
M73 Q1 S94
G1 X59.636 Y139.62 E.02371
G1 X58.831 Y138.864 E.03463
G1 X58.48 Y138.378 E.0188
G1 X58.018 Y136.911 E.04822
G1 X58.018 Y73.102 E2.00069
G1 X58.24 Y72.226 E.02833
M204 S1000
G1 X58.604 Y72.32 F10800
M204 S800
G1 F1200
G1 X58.642 Y72.175 E.0047
G1 X58.951 Y71.585 E.02088
G1 X59.646 Y70.854 E.03163
G1 X60.066 Y70.554 E.01618
G1 X61.368 Y70.145 E.04279
G1 X188.614 Y70.148 E3.98971
M73 P2 R92
G1 X189.296 Y70.285 E.02181
M73 Q2 S94
G1 X189.987 Y70.589 E.02367
G1 X190.767 Y71.238 E.03181
G1 X191.329 Y72.1 E.03226
G1 X191.605 Y73.128 E.03337
G1 X191.605 Y136.873 E1.99868
G1 X191.358 Y137.825 E.03084
G1 X191.049 Y138.415 E.02088
G1 X190.354 Y139.146 E.03163
G1 X189.934 Y139.446 E.01618
G1 X188.632 Y139.855 E.04279
G1 X61.377 Y139.855 E3.98999
G1 X60.425 Y139.608 E.03084
G1 X59.835 Y139.299 E.02088
G1 X59.104 Y138.604 E.03163
G1 X58.804 Y138.184 E.01618
G1 X58.395 Y136.882 E.04279
G1 X58.395 Y73.127 E1.99899
G1 X58.589 Y72.378 E.02426
M204 S1000
G1 X58.952 Y72.475 F10800
M204 S800
G1 F1200
G1 X59 Y72.294 E.00587
G1 X59.271 Y71.787 E.01803
G1 X59.904 Y71.13 E.02861
G1 X60.259 Y70.88 E.01361
G1 X61.397 Y70.522 E.03741
G1 X188.595 Y70.526 E3.9882
G1 X189.199 Y70.65 E.01933
G1 X189.808 Y70.922 E.02091
G1 X190.501 Y71.507 E.02844
G1 X190.995 Y72.278 E.02871
G1 X191.228 Y73.152 E.02836
G1 X191.228 Y136.848 E1.99714
G1 X191 Y137.706 E.02784
M73 P2 R91
G1 X190.729 Y138.213 E.01803
G1 X190.096 Y138.87 E.02861
G1 X189.741 Y139.12 E.01361
G1 X188.603 Y139.478 E.03741
G1 X61.402 Y139.478 E3.9883
G1 X60.544 Y139.25 E.02784
G1 X60.037 Y138.979 E.01803
G1 X59.38 Y138.346 E.02861
G1 X59.13 Y137.991 E.01361
G1 X58.772 Y136.853 E.03741
G1 X58.772 Y73.152 E1.9973
G1 X58.937 Y72.533 E.02009
M204 S1000
G1 X59.299 Y72.632 F10800
M204 S800
G1 F1200
G1 X59.358 Y72.416 E.00702
G1 X59.588 Y71.991 E.01515
G1 X60.16 Y71.407 E.02563
G1 X60.45 Y71.206 E.01106
G1 X61.426 Y70.899 E.03208
G1 X188.574 Y70.903 E3.98664
G1 X189.099 Y71.014 E.01682
G1 X189.627 Y71.254 E.01819
G1 X190.234 Y71.775 E.02508
G1 X190.639 Y72.406 E.02351
G1 X190.851 Y73.178 E.0251
G1 X190.851 Y136.822 E1.99551
G1 X190.642 Y137.584 E.02477
G1 X190.412 Y138.009 E.01515
G1 X189.84 Y138.593 E.02563
G1 X189.55 Y138.794 E.01106
G1 X188.574 Y139.101 E.03208
G1 X61.428 Y139.101 E3.98657
G1 X60.666 Y138.892 E.02477
M73 Q2 S93
G1 X60.241 Y138.662 E.01515
G1 X59.657 Y138.09 E.02563
G1 X59.456 Y137.8 E.01106
G1 X59.149 Y136.824 E.03208
G1 X59.149 Y73.178 E1.99558
G1 X59.283 Y72.69 E.01587
M204 S1000
M73 P3 R91
G1 X59.643 Y72.791 F10800
M204 S800
G1 F1200
G1 X59.714 Y72.541 E.00815
G1 X59.904 Y72.199 E.01227
G1 X60.414 Y71.687 E.02266
G1 X60.639 Y71.533 E.00855
G1 X61.455 Y71.276 E.02682
G1 X188.553 Y71.28 E3.98507
G1 X188.997 Y71.377 E.01425
M73 Q3 S93
G1 X189.443 Y71.584 E.01542
G1 X189.966 Y72.041 E.02178
G1 X190.285 Y72.536 E.01846
G1 X190.474 Y73.205 E.0218
G1 X190.474 Y136.795 E1.99382
G1 X190.286 Y137.459 E.02164
G1 X190.096 Y137.801 E.01227
G1 X189.587 Y138.313 E.02264
G1 X189.361 Y138.467 E.00857
G1 X188.545 Y138.724 E.02682
G1 X61.455 Y138.724 E3.98482
G1 X60.791 Y138.536 E.02164
G1 X60.449 Y138.346 E.01227
G1 X59.937 Y137.836 E.02266
G1 X59.783 Y137.611 E.00855
G1 X59.526 Y136.795 E.02682
G1 X59.526 Y73.205 E1.99382
G1 X59.627 Y72.849 E.0116
M204 S1000
G1 X59.985 Y72.955 F10800
M204 S800
G1 F1200
G1 X60.069 Y72.67 E.00932
G1 X60.218 Y72.41 E.0094
G1 X60.664 Y71.969 E.01967
G1 X60.825 Y71.862 E.00606
G1 X61.484 Y71.653 E.02168
G1 X188.531 Y71.657 E3.98347
G1 X188.891 Y71.74 E.01158
G1 X189.256 Y71.912 E.01265
G1 X189.696 Y72.304 E.01848
G1 X189.931 Y72.67 E.01364
G1 X190.097 Y73.233 E.0184
G1 X190.097 Y136.767 E1.99206
G1 X189.931 Y137.33 E.0184
M73 P3 R90
G1 X189.782 Y137.59 E.0094
G1 X189.336 Y138.031 E.01967
G1 X189.175 Y138.138 E.00606
G1 X188.516 Y138.347 E.02168
G1 X61.483 Y138.347 E3.98303
G1 X60.92 Y138.181 E.0184
G1 X60.66 Y138.032 E.0094
G1 X60.219 Y137.586 E.01967
G1 X60.112 Y137.425 E.00606
G1 X59.903 Y136.766 E.02168
G1 X59.903 Y73.233 E1.99203
G1 X59.968 Y73.012 E.00722
M204 S1000
G1 X60.324 Y73.122 F10800
M204 S800
G1 F1200
G1 X60.421 Y72.805 E.01039
G1 X60.528 Y72.625 E.00657
G1 X60.911 Y72.254 E.01672
G1 X61.007 Y72.193 E.00357
G1 X61.513 Y72.03 E.01667
G1 X188.509 Y72.034 E3.98187
G1 X188.747 Y72.089 E.00766
G1 X189.068 Y72.241 E.01114
G1 X189.423 Y72.565 E.01507
G1 X189.579 Y72.807 E.00903
G1 X189.72 Y73.262 E.01494
G1 X189.72 Y136.738 E1.99025
G1 X189.579 Y137.195 E.015
G1 X189.472 Y137.375 E.00657
G1 X189.089 Y137.746 E.01672
G1 X188.993 Y137.807 E.00357
G1 X188.487 Y137.97 E.01667
G1 X61.512 Y137.97 E3.98121
G1 X61.055 Y137.829 E.015
M73 P4 R90
M73 Q3 S92
G1 X60.875 Y137.722 E.00657
G1 X60.504 Y137.339 E.01672
G1 X60.443 Y137.243 E.00357
G1 X60.28 Y136.737 E.01667
G1 X60.28 Y73.262 E1.99021
G1 X60.306 Y73.179 E.00273
M204 S1000
G1 X60.657 Y73.294 F10800
M204 S800
G1 F1200
G1 X60.771 Y72.948 E.01142
G1 X60.834 Y72.847 E.00373
G1 X61.153 Y72.544 E.01379
G1 X61.544 Y72.407 E.01299
G1 X188.487 Y72.411 E3.98021
G1 X188.604 Y72.438 E.00376
M73 Q4 S92
G1 X188.878 Y72.568 E.00951
G1 X189.147 Y72.823 E.01162
G1 X189.23 Y72.95 E.00476
G1 X189.343 Y73.294 E.01135
G1 X189.343 Y136.706 E1.98824
G1 X189.229 Y137.052 E.01142
G1 X189.166 Y137.153 E.00373
G1 X188.847 Y137.456 E.01379
G1 X188.456 Y137.593 E.01299
G1 X61.544 Y137.593 E3.97924
G1 X61.198 Y137.479 E.01142
G1 X61.097 Y137.416 E.00373
G1 X60.794 Y137.097 E.01379
G1 X60.657 Y136.706 E.01299
G1 X60.657 Y73.354 E1.98636
M204 S1000
G1 X61.034 Y73.354 F10800
M204 S800
G1 F1200
G1 X61.132 Y73.078 E.00918
G1 X61.366 Y72.861 E.01001
G1 X61.579 Y72.784 E.0071
G1 X188.435 Y72.784 E3.97748
G1 X188.685 Y72.894 E.00856
G1 X188.884 Y73.102 E.00903
G1 X188.966 Y73.329 E.00757
G1 X188.966 Y136.671 E1.98604
G1 X188.884 Y136.898 E.00757
G1 X188.634 Y137.139 E.01089
G1 X188.421 Y137.216 E.0071
G1 X61.579 Y137.216 E3.97704
G1 X61.352 Y137.134 E.00757
M73 P4 R89
G1 X61.111 Y136.884 E.01089
G1 X61.034 Y136.671 E.0071
G1 X61.034 Y73.414 E1.98338
M204 S1000
G1 X61.411 Y73.414 F10800
M204 S800
G1 F1200
G1 X61.44 Y73.302 E.00363
G1 X61.552 Y73.19 E.00497
G1 X61.621 Y73.161 E.00235
G1 X188.379 Y73.161 E3.97441
G1 X188.448 Y73.19 E.00235
G1 X188.56 Y73.302 E.00497
G1 X188.589 Y73.371 E.00235
G1 X188.589 Y136.629 E1.98341
G1 X188.56 Y136.698 E.00235
G1 X188.448 Y136.81 E.00497
G1 X188.379 Y136.839 E.00235
G1 X61.621 Y136.839 E3.97441
G1 X61.552 Y136.81 E.00235
M73 P5 R89
G1 X61.44 Y136.698 E.00497
G1 X61.411 Y136.629 E.00235
G1 X61.411 Y73.474 E1.98018
M204 S1000
; printing object Track Center.stl id:0 copy 0
;WIPE_START
G1 F8640
M73 Q4 S91
G1 X61.44 Y73.302 E-.04028
G1 X61.552 Y73.19 E-.03657
G1 X61.621 Y73.161 E-.01728
G1 X64.678 Y73.161 E-.70587
;WIPE_END
G1 Z.6 F720
G1 X57.573 Y69.758 F10800
G1 Z.2 F720
G1 E.8 F2100
M204 S800
;TYPE:Support material
G1 F1200
G1 X56.599 Y71.197 E.05448
G1 X56.19 Y73.229 E.06499
G1 X56.19 Y136.77 E1.99228
G1 X56.567 Y138.725 E.06243
M73 Q5 S91
G1 X57.559 Y140.242 E.05683
G1 X43.616 Y140.243 E.43717
G1 X43.616 Y69.757 E2.21004
G1 X57.516 Y69.758 E.43582
M204 S1000
;WIPE_START
G1 F8640
G1 X54.051 Y69.758 E-.8
;WIPE_END
G1 Z.6 F720
G1 X56.707 Y140.073 F10800
G1 Z.2 F720
G1 E.8 F2100
M204 S800
G1 F1200
G1 X56.707 Y139.56 E.01608
G1 X56.288 Y138.919 E.02401
G1 X56.288 Y139.903 E.03085
G1 X55.869 Y139.903 E.01314
G1 X55.869 Y70.097 E2.18872
G1 X56.288 Y70.097 E.01314
G1 X56.288 Y71.05 E.02988
G1 X56.707 Y70.431 E.02344
G1 X56.707 Y69.927 E.0158
M204 S1000
;WIPE_START
G1 F8640
G1 X56.707 Y70.431 E-.11637
G1 X56.288 Y71.05 E-.17259
G1 X56.288 Y70.097 E-.22005
G1 X55.869 Y70.097 E-.09675
G1 X55.869 Y70.938 E-.19424
;WIPE_END
G1 Z.6 F720
G1 X55.45 Y140.073 F10800
G1 Z.2 F720
G1 E.8 F2100
M204 S800
G1 F1200
G1 X55.45 Y70.097 E2.19405
G1 X55.031 Y70.097 E.01314
G1 X55.031 Y139.903 E2.18872
G1 X54.612 Y139.903 E.01314
G1 X54.612 Y70.097 E2.18872
G1 X54.193 Y70.097 E.01314
G1 X54.193 Y139.903 E2.18872
G1 X53.774 Y139.903 E.01314
G1 X53.774 Y70.097 E2.18872
G1 X53.355 Y70.097 E.01314
G1 X53.355 Y139.903 E2.18872
G1 X52.936 Y139.903 E.01314
M73 P5 R88
G1 X52.936 Y70.097 E2.18872
G1 X52.517 Y70.097 E.01314
G1 X52.517 Y139.903 E2.18872
G1 X52.098 Y139.903 E.01314
G1 X52.098 Y70.097 E2.18872
G1 X51.679 Y70.097 E.01314
G1 X51.679 Y139.903 E2.18872
G1 X51.26 Y139.903 E.01314
G1 X51.26 Y70.097 E2.18872
G1 X50.841 Y70.097 E.01314
M73 P6 R88
G1 X50.841 Y139.903 E2.18872
G1 X50.422 Y139.903 E.01314
G1 X50.422 Y70.097 E2.18872
G1 X50.003 Y70.097 E.01314
M73 Q6 S90
G1 X50.003 Y139.903 E2.18872
G1 X49.584 Y139.903 E.01314
G1 X49.584 Y70.097 E2.18872
G1 X49.165 Y70.097 E.01314
G1 X49.165 Y139.903 E2.18872
G1 X48.746 Y139.903 E.01314
G1 X48.746 Y70.097 E2.18872
G1 X48.327 Y70.097 E.01314
G1 X48.327 Y139.903 E2.18872
G1 X47.908 Y139.903 E.01314
G1 X47.908 Y70.097 E2.18872
G1 X47.489 Y70.097 E.01314
G1 X47.489 Y139.903 E2.18872
G1 X47.07 Y139.903 E.01314
G1 X47.07 Y70.097 E2.18872
G1 X46.651 Y70.097 E.01314
G1 X46.651 Y139.903 E2.18872
G1 X46.232 Y139.903 E.01314
G1 X46.232 Y70.097 E2.18872
G1 X45.813 Y70.097 E.01314
M73 P6 R87
G1 X45.813 Y139.903 E2.18872
G1 X45.394 Y139.903 E.01314
G1 X45.394 Y70.097 E2.18872
G1 X44.975 Y70.097 E.01314
G1 X44.975 Y139.903 E2.18872
G1 X44.556 Y139.903 E.01314
G1 X44.556 Y70.097 E2.18872
G1 X44.137 Y70.097 E.01314
M73 P7 R87
G1 X44.137 Y140.073 E2.19405
M204 S1000
;WIPE_START
G1 F8640
G1 X44.137 Y136.608 E-.8
;WIPE_END
G1 Z.6 F720
G1 X206.384 Y140.243 F10800
G1 Z.2 F720
G1 E.8 F2100
M204 S800
G1 F1200
G1 X192.427 Y140.243 E.43761
G1 X193.401 Y138.803 E.05451
G1 X193.81 Y136.771 E.06499
G1 X193.81 Y73.23 E1.99228
G1 X193.433 Y71.275 E.06243
M73 Q7 S89
G1 X192.441 Y69.758 E.05683
G1 X206.384 Y69.757 E.43717
G1 X206.384 Y140.186 E2.20825
M204 S1000
G1 X205.863 Y140.073 F10800
M204 S800
G1 F1200
G1 X205.863 Y70.097 E2.19405
G1 X205.444 Y70.097 E.01314
G1 X205.444 Y139.903 E2.18872
G1 X205.025 Y139.903 E.01314
G1 X205.025 Y70.097 E2.18872
G1 X204.606 Y70.097 E.01314
G1 X204.606 Y139.903 E2.18872
G1 X204.187 Y139.903 E.01314
G1 X204.187 Y70.097 E2.18872
G1 X203.768 Y70.097 E.01314
G1 X203.768 Y139.903 E2.18872
G1 X203.349 Y139.903 E.01314
G1 X203.349 Y70.097 E2.18872
G1 X202.93 Y70.097 E.01314
G1 X202.93 Y139.903 E2.18872
G1 X202.511 Y139.903 E.01314
G1 X202.511 Y70.097 E2.18872
G1 X202.092 Y70.097 E.01314
M73 P7 R86
G1 X202.092 Y139.903 E2.18872
G1 X201.673 Y139.903 E.01314
G1 X201.673 Y70.097 E2.18872
G1 X201.254 Y70.097 E.01314
G1 X201.254 Y139.903 E2.18872
G1 X200.835 Y139.903 E.01314
M73 P8 R86
G1 X200.835 Y70.097 E2.18872
G1 X200.416 Y70.097 E.01314
G1 X200.416 Y139.903 E2.18872
G1 X199.997 Y139.903 E.01314
G1 X199.997 Y70.097 E2.18872
G1 X199.578 Y70.097 E.01314
M73 Q8 S89
G1 X199.578 Y139.903 E2.18872
G1 X199.159 Y139.903 E.01314
M73 Q8 S88
G1 X199.159 Y70.097 E2.18872
G1 X198.74 Y70.097 E.01314
G1 X198.74 Y139.903 E2.18872
G1 X198.321 Y139.903 E.01314
