; generated by PrusaSlicer 2.6.1+win64 on 2023-10-18 at 03:26:35 UTC


;
;
; 

; external perimeters extrusion width = 0.45mm
; perimeters extrusion width = 0.45mm
; infill extrusion width = 0.45mm
; solid infill extrusion width = 0.45mm
; top infill extrusion width = 0.40mm
; first layer extrusion width = 0.42mm

M73 P0 R92
M73 Q0 S95
M201 X1000 Y1000 Z200 E5000 ; sets maximum accelerations, mm/sec^2
M203 X200 Y200 Z12 E120 ; sets maximum feedrates, mm / sec
M204 S1250 T1250 ; sets acceleration (S) and retract acceleration (R), mm/sec^2
M205 X8.00 Y8.00 Z0.40 E4.50 ; sets the jerk limits, mm/sec
M205 S0 T0 ; sets the minimum extruding and travel feed rate, mm/sec
;TYPE:Custom
M862.3 P "MK3S" ; printer model check
M862.1 P0.4 ; nozzle diameter check
M115 U3.13.0 ; tell printer latest fw version
G90 ; use absolute coordinates
M83 ; extruder relative mode
M104 S215 ; set extruder temp
M140 S60 ; set bed temp
M190 S60 ; wait for bed temp
M109 S215 ; wait for extruder temp
G28 W ; home all without mesh bed level
G80 ; mesh bed leveling

G1 Z0.2 F720
G1 Y-3 F1000 ; go outside print area
G92 E0
G1 X60 E9 F1000 ; intro line
G1 X100 E12.5 F1000 ; intro line

G92 E0
M221 S95

; Don't change E values below. Excessive value can damage the printer.

M907 E538 ; set extruder motor current
G21 ; set units to millimeters
G90 ; use absolute coordinates
M83 ; use relative distances for extrusion
M900 K0.05 ; Filament gcode LA 1.5
M900 K30 ; Filament gcode LA 1.0
M107
;LAYER_CHANGE
;Z:0.2
;HEIGHT:0.2
;BEFORE_LAYER_CHANGE
G92 E0.0
;0.2


G1 E-.8 F2100
G1 Z.4 F720
;AFTER_LAYER_CHANGE
;0.2
G1 X38.857 Y66.669 F10800
G1 Z.2 F720
G1 E.8 F2100
M204 S800
;TYPE:Skirt/Brim
;WIDTH:0.42
G1 F1200
G1 X40.538 Y65.973 E.05705
G1 X209.462 Y65.973 E5.29649
G1 X211.143 Y66.669 E.05705
M73 Q0 S94
G1 X214.131 Y69.657 E.13249
G1 X214.827 Y71.338 E.05705
G1 X214.827 Y138.662 E2.1109
G1 X214.131 Y140.343 E.05705
G1 X211.143 Y143.331 E.13249
G1 X209.462 Y144.027 E.05705
G1 X40.538 Y144.027 E5.29649
G1 X38.857 Y143.331 E.05705
G1 X35.869 Y140.343 E.13249
G1 X35.173 Y138.662 E.05705
G1 X35.173 Y71.338 E2.1109
G1 X35.869 Y69.657 E.05705
G1 X38.814 Y66.712 E.13059
M204 S1000
;WIPE_START
G1 F8640
G1 X40.538 Y65.973 E-.43311
G1 X42.127 Y65.973 E-.36689
;WIPE_END
G1 Z.6 F720
G1 X40.334 Y69.265 F10800
G1 Z.2 F720
G1 E.8 F2100
M204 S800
G1 F1200
G1 X40.769 Y69.006 E.01587
G1 X42.289 Y68.637 E.04904
G1 X207.739 Y68.64 E5.18757
G1 X208.759 Y68.834 E.03255
G1 X209.738 Y69.25 E.03335
G1 X210.862 Y70.146 E.04507
G1 X211.755 Y71.484 E.05044
G1 X212.163 Y73.029 E.0501
G1 X212.163 Y136.968 E2.00476
G1 X211.841 Y138.309 E.04324
M73 P0 R91
G1 X211.262 Y139.375 E.03804
G1 X210.367 Y140.318 E.04076
G1 X209.231 Y140.994 E.04145
G1 X207.711 Y141.363 E.04904
G1 X42.232 Y141.363 E5.18848
G1 X40.891 Y141.041 E.04324
G1 X39.825 Y140.462 E.03804
G1 X38.882 Y139.567 E.04076
G1 X38.206 Y138.431 E.04145
G1 X37.837 Y136.911 E.04904
G1 X37.837 Y73.032 E2.00288
G1 X38.159 Y71.691 E.04324
M73 P1 R91
G1 X38.738 Y70.625 E.03804
G1 X39.633 Y69.682 E.04076
G1 X40.283 Y69.295 E.02372
M204 S1000
G1 X40.472 Y69.618 F10800
M204 S800
G1 F1200
M73 Q1 S94
G1 X40.936 Y69.345 E.01688
G1 X42.311 Y69.014 E.04434
G1 X207.721 Y69.017 E5.18631
G1 X208.667 Y69.2 E.03021
G1 X209.565 Y69.586 E.03065
G1 X210.603 Y70.421 E.04177
G1 X211.399 Y71.612 E.04492
G1 X211.786 Y73.054 E.04681
G1 X211.786 Y136.945 E2.00326
G1 X211.481 Y138.194 E.04031
G1 X210.944 Y139.171 E.03496
G1 X210.114 Y140.037 E.03761
G1 X209.064 Y140.655 E.0382
G1 X207.689 Y140.986 E.04434
G1 X42.255 Y140.986 E5.18707
G1 X41.006 Y140.681 E.04031
M73 Q1 S93
G1 X40.029 Y140.144 E.03496
G1 X39.163 Y139.314 E.03761
G1 X38.545 Y138.264 E.0382
G1 X38.214 Y136.889 E.04434
G1 X38.214 Y73.055 E2.00147
G1 X38.519 Y71.806 E.04031
G1 X39.056 Y70.829 E.03496
G1 X39.886 Y69.963 E.03761
G1 X40.421 Y69.648 E.01947
M204 S1000
G1 X40.608 Y69.971 F10800
M204 S800
G1 F1200
G1 X41.101 Y69.685 E.01787
G1 X42.333 Y69.391 E.03971
G1 X207.702 Y69.394 E5.18503
G1 X208.574 Y69.566 E.02787
G1 X209.39 Y69.921 E.0279
G1 X210.343 Y70.695 E.03849
G1 X211.067 Y71.793 E.04124
G1 X211.409 Y73.078 E.04169
G1 X211.409 Y136.922 E2.00178
G1 X211.121 Y138.078 E.03735
G1 X210.627 Y138.965 E.03183
G1 X209.862 Y139.756 E.0345
G1 X208.9 Y140.315 E.03489
G1 X207.667 Y140.609 E.03974
G1 X42.278 Y140.609 E5.18566
G1 X41.122 Y140.321 E.03735
G1 X40.235 Y139.827 E.03183
G1 X39.444 Y139.062 E.0345
G1 X38.885 Y138.1 E.03489
G1 X38.591 Y136.867 E.03974
G1 X38.591 Y73.078 E2.00006
G1 X38.879 Y71.922 E.03735
M73 P1 R90
G1 X39.373 Y71.035 E.03183
G1 X40.138 Y70.244 E.0345
G1 X40.556 Y70.001 E.01516
M204 S1000
G1 X40.742 Y70.325 F10800
M204 S800
G1 F1200
G1 X41.264 Y70.026 E.01886
G1 X42.355 Y69.768 E.03515
G1 X207.683 Y69.771 E5.18374
G1 X208.479 Y69.931 E.02546
M73 P2 R90
G1 X209.214 Y70.255 E.02519
G1 X210.08 Y70.967 E.03515
G1 X210.735 Y71.973 E.03764
G1 X211.032 Y73.102 E.0366
G1 X211.032 Y136.898 E2.00028
G1 X210.762 Y137.96 E.03436
M73 Q2 S93
G1 X210.311 Y138.758 E.02874
G1 X209.611 Y139.473 E.03137
G1 X208.736 Y139.974 E.03161
G1 X207.646 Y140.232 E.03512
G1 X42.302 Y140.232 E5.18425
G1 X41.24 Y139.962 E.03436
G1 X40.442 Y139.511 E.02874
G1 X39.727 Y138.811 E.03137
G1 X39.226 Y137.936 E.03161
G1 X38.968 Y136.846 E.03512
G1 X38.968 Y73.102 E1.99865
G1 X39.238 Y72.04 E.03436
G1 X39.689 Y71.242 E.02874
G1 X40.389 Y70.527 E.03137
G1 X40.69 Y70.355 E.01087
M204 S1000
G1 X40.877 Y70.682 F10800
M204 S800
G1 F1200
G1 X41.427 Y70.367 E.01987
G1 X42.376 Y70.145 E.03056
G1 X207.664 Y70.148 E5.18249
G1 X208.346 Y70.285 E.02181
M73 Q2 S92
G1 X209.037 Y70.589 E.02367
G1 X209.817 Y71.238 E.03181
G1 X210.379 Y72.1 E.03226
G1 X210.655 Y73.128 E.03337
G1 X210.655 Y136.873 E1.99868
G1 X210.404 Y137.841 E.03135
G1 X210.023 Y138.514 E.02425
G1 X209.4 Y139.159 E.02812
G1 X208.573 Y139.633 E.02989
G1 X207.624 Y139.855 E.03056
G1 X42.327 Y139.855 E5.18277
G1 X41.359 Y139.604 E.03135
G1 X40.686 Y139.223 E.02425
G1 X40.041 Y138.6 E.02812
G1 X39.567 Y137.773 E.02989
G1 X39.345 Y136.824 E.03056
G1 X39.345 Y73.127 E1.99717
G1 X39.596 Y72.159 E.03135
G1 X39.977 Y71.486 E.02425
G1 X40.6 Y70.841 E.02812
G1 X40.825 Y70.712 E.00813
M204 S1000
G1 X41.007 Y71.036 F10800
M204 S800
G1 F1200
G1 X41.588 Y70.709 E.0209
G1 X42.397 Y70.522 E.02603
G1 X207.645 Y70.526 E5.18124
G1 X208.249 Y70.65 E.01933
G1 X208.858 Y70.922 E.02091
G1 X209.551 Y71.507 E.02844
G1 X210.045 Y72.278 E.02871
G1 X210.278 Y73.152 E.02836
G1 X210.278 Y136.848 E1.99714
G1 X210.046 Y137.718 E.02823
M73 P2 R89
G1 X209.709 Y138.304 E.0212
G1 X209.15 Y138.876 E.02508
G1 X208.412 Y139.291 E.02655
G1 X207.603 Y139.478 E.02603
G1 X42.352 Y139.478 E5.18133
G1 X41.482 Y139.246 E.02823
M73 P3 R89
M73 Q3 S92
G1 X40.896 Y138.909 E.0212
G1 X40.324 Y138.35 E.02508
G1 X39.909 Y137.612 E.02655
G1 X39.722 Y136.803 E.02603
G1 X39.722 Y73.152 E1.99573
G1 X39.954 Y72.282 E.02823
G1 X40.291 Y71.696 E.0212
G1 X40.85 Y71.124 E.02508
G1 X40.955 Y71.065 E.00378
M204 S1000
G1 X41.134 Y71.39 F10800
M204 S800
G1 F1200
G1 X41.745 Y71.053 E.02188
G1 X42.418 Y70.899 E.02165
G1 X207.624 Y70.903 E5.17992
G1 X208.149 Y71.014 E.01682
G1 X208.677 Y71.254 E.01819
G1 X209.284 Y71.775 E.02508
G1 X209.689 Y72.406 E.02351
G1 X209.901 Y73.178 E.0251
G1 X209.901 Y136.822 E1.99551
G1 X209.69 Y137.593 E.02506
G1 X209.397 Y138.091 E.01812
G1 X208.903 Y138.59 E.02202
G1 X208.255 Y138.947 E.0232
G1 X207.582 Y139.101 E.02165
G1 X42.378 Y139.101 E5.17986
G1 X41.607 Y138.89 E.02506
M73 Q3 S91
G1 X41.109 Y138.597 E.01812
G1 X40.61 Y138.103 E.02202
G1 X40.253 Y137.455 E.0232
G1 X40.099 Y136.782 E.02165
G1 X40.099 Y73.178 E1.99426
G1 X40.31 Y72.407 E.02506
G1 X40.603 Y71.909 E.01812
G1 X41.085 Y71.423 E.02146
M204 S1000
G1 X41.343 Y71.698 F10800
M204 S800
G1 F1200
G1 X41.9 Y71.397 E.01985
G1 X42.439 Y71.276 E.01732
G1 X207.603 Y71.28 E5.1786
G1 X208.047 Y71.377 E.01425
G1 X208.493 Y71.584 E.01542
G1 X209.016 Y72.041 E.02178
G1 X209.335 Y72.536 E.01846
G1 X209.524 Y73.205 E.0218
G1 X209.524 Y136.795 E1.99382
G1 X209.334 Y137.465 E.02184
G1 X209.087 Y137.875 E.01501
G1 X208.657 Y138.302 E.019
G1 X208.1 Y138.603 E.01985
G1 X207.561 Y138.724 E.01732
G1 X42.405 Y138.724 E5.17835
G1 X41.735 Y138.534 E.02184
G1 X41.325 Y138.287 E.01501
G1 X40.898 Y137.857 E.019
G1 X40.597 Y137.3 E.01985
G1 X40.476 Y136.761 E.01732
G1 X40.476 Y73.205 E1.99275
G1 X40.666 Y72.535 E.02184
M73 P4 R89
G1 X40.913 Y72.125 E.01501
G1 X41.3 Y71.74 E.01712
M204 S1000
M73 P4 R88
G1 X41.563 Y72.009 F10800
M204 S800
G1 F1200
G1 X42.052 Y71.743 E.01745
G1 X42.459 Y71.653 E.01307
G1 X207.581 Y71.657 E5.17728
G1 X207.941 Y71.74 E.01158
M73 Q4 S91
G1 X208.306 Y71.912 E.01265
G1 X208.746 Y72.304 E.01848
G1 X208.981 Y72.67 E.01364
G1 X209.147 Y73.233 E.0184
G1 X209.147 Y136.767 E1.99206
G1 X208.981 Y137.332 E.01846
G1 X208.78 Y137.656 E.01195
G1 X208.415 Y138.012 E.01599
G1 X207.948 Y138.257 E.01654
G1 X207.541 Y138.347 E.01307
G1 X42.433 Y138.347 E5.17685
G1 X41.868 Y138.181 E.01846
G1 X41.544 Y137.98 E.01195
G1 X41.188 Y137.615 E.01599
G1 X40.943 Y137.148 E.01654
G1 X40.853 Y136.741 E.01307
G1 X40.853 Y73.233 E1.99125
G1 X41.019 Y72.668 E.01846
G1 X41.22 Y72.344 E.01195
G1 X41.52 Y72.051 E.01315
M204 S1000
G1 X41.781 Y72.322 F10800
M204 S800
G1 F1200
G1 X41.824 Y72.28 E.00188
G1 X42.199 Y72.091 E.01317
G1 X42.479 Y72.03 E.00899
G1 X207.559 Y72.034 E5.17597
G1 X207.797 Y72.089 E.00766
M73 Q4 S90
G1 X208.118 Y72.241 E.01114
G1 X208.473 Y72.565 E.01507
G1 X208.629 Y72.807 E.00903
G1 X208.77 Y73.262 E.01494
G1 X208.77 Y136.738 E1.99025
G1 X208.629 Y137.193 E.01494
G1 X208.476 Y137.431 E.00887
G1 X208.176 Y137.72 E.01306
G1 X207.801 Y137.909 E.01317
G1 X207.521 Y137.97 E.00899
G1 X42.462 Y137.97 E5.17531
G1 X42.007 Y137.829 E.01494
G1 X41.769 Y137.676 E.00887
G1 X41.48 Y137.376 E.01306
G1 X41.291 Y137.001 E.01317
G1 X41.23 Y136.721 E.00899
G1 X41.23 Y73.262 E1.98971
G1 X41.371 Y72.807 E.01494
G1 X41.524 Y72.569 E.00887
G1 X41.738 Y72.364 E.00929
M204 S1000
G1 X42 Y72.626 F10800
M204 S800
G1 F1200
G1 X42.346 Y72.439 E.01233
G1 X42.497 Y72.407 E.00484
G1 X207.537 Y72.411 E5.17471
G1 X207.654 Y72.438 E.00376
M73 P5 R88
G1 X207.928 Y72.568 E.00951
G1 X208.197 Y72.823 E.01162
G1 X208.28 Y72.95 E.00476
G1 X208.393 Y73.294 E.01135
G1 X208.393 Y136.706 E1.98824
G1 X208.28 Y137.05 E.01135
G1 X208.195 Y137.179 E.00484
G1 X207.977 Y137.398 E.00969
G1 X207.654 Y137.561 E.01134
G1 X207.503 Y137.593 E.00484
G1 X42.494 Y137.593 E5.17374
G1 X42.15 Y137.48 E.01135
M73 P5 R87
M73 Q5 S90
G1 X42.021 Y137.395 E.00484
G1 X41.802 Y137.177 E.00969
G1 X41.639 Y136.854 E.01134
G1 X41.607 Y136.703 E.00484
G1 X41.607 Y73.294 E1.98814
G1 X41.72 Y72.95 E.01135
G1 X41.805 Y72.821 E.00484
G1 X41.957 Y72.668 E.00676
M204 S1000
G1 X42.224 Y72.935 F10800
M204 S800
G1 F1200
G1 X42.265 Y72.894 E.00182
G1 X42.515 Y72.784 E.00856
G1 X207.517 Y72.791 E5.17352
G1 X207.735 Y72.894 E.00756
G1 X207.916 Y73.075 E.00803
G1 X208.016 Y73.329 E.00856
G1 X208.016 Y136.671 E1.98604
G1 X207.934 Y136.898 E.00757
G1 X207.735 Y137.106 E.00903
G1 X207.485 Y137.216 E.00856
G1 X42.529 Y137.216 E5.17208
G1 X42.302 Y137.134 E.00757
G1 X42.094 Y136.935 E.00903
G1 X41.984 Y136.685 E.00856
G1 X41.984 Y73.329 E1.98648
G1 X42.066 Y73.102 E.00757
M73 Q5 S89
G1 X42.181 Y72.977 E.00533
M204 S1000
G1 X42.448 Y73.244 F10800
M204 S800
G1 F1200
G1 X42.502 Y73.19 E.00239
G1 X42.571 Y73.161 E.00235
G1 X207.429 Y73.161 E5.16901
G1 X207.498 Y73.19 E.00235
G1 X207.61 Y73.302 E.00497
G1 X207.639 Y73.371 E.00235
G1 X207.639 Y136.629 E1.98341
G1 X207.61 Y136.698 E.00235
G1 X207.498 Y136.81 E.00497
G1 X207.429 Y136.839 E.00235
G1 X42.571 Y136.839 E5.16901
G1 X42.502 Y136.81 E.00235
M73 P6 R87
G1 X42.39 Y136.698 E.00497
G1 X42.361 Y136.629 E.00235
G1 X42.361 Y73.371 E1.98341
G1 X42.406 Y73.286 E.00302
M204 S1000
; printing object Track End.stl id:0 copy 0
;WIPE_START
G1 F8640
G1 X42.502 Y73.19 E-.03135
G1 X42.571 Y73.161 E-.01728
G1 X45.825 Y73.161 E-.75137
;WIPE_END
G1 Z.6 F720
G1 X206.763 Y74.037 F10800
G1 Z.2 F720
G1 E.8 F2100
M204 S800
;TYPE:Perimeter
;WIDTH:0.419999
G1 F1200
G1 X206.763 Y135.963 E1.94164
G1 X43.237 Y135.963 E5.12723
M73 P6 R86
M73 Q6 S89
G1 X43.237 Y74.037 E1.94164
G1 X206.703 Y74.037 E5.12535
M204 S1000
G1 X207.14 Y73.66 F10800
M204 S800
;TYPE:External perimeter
G1 F1200
G1 X207.14 Y136.34 E1.96528
G1 X42.86 Y136.34 E5.15088
G1 X42.86 Y73.66 E1.96528
M73 Q6 S88
G1 X207.08 Y73.66 E5.14899
M204 S1000
G1 X206.983 Y74.028 F10800
;WIPE_START
G1 F8640
G1 X207.083 Y77.125 E-.8
;WIPE_END
G1 Z.6 F720
G1 X199.693 Y106.705 F10800
G1 Z.2 F720
G1 E.8 F2100
M204 S800
;TYPE:Perimeter
G1 F1200
G1 X199.402 Y106.412 E.01295
G1 X199.071 Y105.819 E.02129
G1 X198.936 Y105.308 E.01657
G1 X198.923 Y104.799 E.01596
G1 X199.092 Y104.126 E.02176
G1 X199.345 Y103.666 E.01646
G1 X199.691 Y103.282 E.01621
G1 X200.124 Y102.982 E.01652
G1 X200.622 Y102.788 E.01676
G1 X201.233 Y102.718 E.01928
G1 X201.752 Y102.783 E.0164
G1 X202.324 Y103.011 E.01931
G1 X202.725 Y103.299 E.01548
G1 X203.055 Y103.666 E.01547
G1 X203.299 Y104.096 E.0155
G1 X203.444 Y104.569 E.01551
G1 X203.484 Y105.061 E.01548
G1 X203.407 Y105.579 E.01642
G1 X203.201 Y106.097 E.01748
G1 X202.9 Y106.526 E.01643
G1 X202.431 Y106.925 E.01931
G1 X201.989 Y107.145 E.01548
G1 X201.479 Y107.265 E.01643
G1 X200.922 Y107.265 E.01746
G1 X200.213 Y107.057 E.02317
G1 X199.735 Y106.748 E.01785
M204 S1000
G1 X199.896 Y106.386 F10800
M204 S800
;TYPE:External perimeter
G1 F1200
G1 X199.679 Y106.15 E.01005
G1 X199.403 Y105.64 E.01818
G1 X199.304 Y105.227 E.01332
G1 X199.307 Y104.764 E.01452
G1 X199.456 Y104.227 E.01747
G1 X199.692 Y103.828 E.01453
G1 X199.979 Y103.532 E.01293
G1 X200.324 Y103.304 E.01297
G1 X200.719 Y103.153 E.01326
G1 X201.273 Y103.093 E.01747
G1 X201.73 Y103.166 E.01451
G1 X202.112 Y103.323 E.01295
G1 X202.452 Y103.558 E.01296
G1 X202.732 Y103.861 E.01294
G1 X202.941 Y104.217 E.01294
G1 X203.069 Y104.609 E.01293
G1 X203.109 Y105.02 E.01295
G1 X203.057 Y105.439 E.01324
G1 X202.851 Y105.957 E.01748
G1 X202.572 Y106.328 E.01455
G1 X202.255 Y106.592 E.01293
G1 X201.888 Y106.781 E.01294
G1 X201.479 Y106.888 E.01326
G1 X200.922 Y106.888 E.01746
G1 X200.333 Y106.7 E.01939
G1 X199.937 Y106.43 E.01503
M204 S1000
G1 X199.595 Y106.494 F10800
;WIPE_START
G1 F8640
G1 X199.679 Y106.15 E-.08791
G1 X199.403 Y105.64 E-.1339
G1 X199.304 Y105.227 E-.09806
G1 X199.307 Y104.764 E-.10691
G1 X199.456 Y104.227 E-.12868
G1 X199.692 Y103.828 E-.10704
G1 X199.979 Y103.532 E-.0952
G1 X200.132 Y103.431 E-.0423
;WIPE_END
G1 Z.6 F720
G1 X205.83 Y74.207 F10800
G1 Z.2 F720
G1 E.8 F2100
M204 S800
;TYPE:Solid infill
;WIDTH:0.420572
G1 F1200
G1 X206.424 Y74.801 E.02638
G1 X206.424 Y75.335 E.01677
G1 X205.465 Y74.376 E.04259
G1 X204.931 Y74.376 E.01677
G1 X206.424 Y75.869 E.0663
G1 X206.424 Y76.403 E.01677
G1 X204.397 Y74.376 E.09002
G1 X203.863 Y74.376 E.01677
M73 P7 R86
G1 X206.424 Y76.937 E.11373
G1 X206.424 Y77.471 E.01677
G1 X203.329 Y74.376 E.13745
G1 X202.795 Y74.376 E.01677
G1 X206.424 Y78.005 E.16116
G1 X206.424 Y78.539 E.01677
G1 X202.261 Y74.376 E.18487
G1 X201.727 Y74.376 E.01677
G1 X206.424 Y79.073 E.20859
G1 X206.424 Y79.607 E.01677
G1 X201.193 Y74.376 E.2323
G1 X200.659 Y74.376 E.01677
G1 X206.424 Y80.141 E.25602
G1 X206.424 Y80.675 E.01677
G1 X200.125 Y74.376 E.27973
G1 X199.59 Y74.376 E.0168
G1 X206.424 Y81.21 E.30349
G1 X206.424 Y81.744 E.01677
G1 X199.056 Y74.376 E.32721
G1 X198.522 Y74.376 E.01677
G1 X206.424 Y82.278 E.35092
G1 X206.424 Y82.812 E.01677
G1 X197.988 Y74.376 E.37463
G1 X197.454 Y74.376 E.01677
G1 X206.424 Y83.346 E.39835
G1 X206.424 Y83.88 E.01677
G1 X196.92 Y74.376 E.42206
G1 X196.386 Y74.376 E.01677
G1 X206.424 Y84.414 E.44578
G1 X206.424 Y84.948 E.01677
G1 X195.852 Y74.376 E.46949
G1 X195.318 Y74.376 E.01677
G1 X206.424 Y85.482 E.49321
G1 X206.424 Y86.016 E.01677
G1 X194.784 Y74.376 E.51692
G1 X194.25 Y74.376 E.01677
M73 Q7 S88
G1 X206.424 Y86.55 E.54063
G1 X206.424 Y87.084 E.01677
G1 X193.716 Y74.376 E.56435
G1 X193.182 Y74.376 E.01677
G1 X206.424 Y87.618 E.58806
G1 X206.424 Y88.153 E.0168
G1 X192.647 Y74.376 E.61182
G1 X192.113 Y74.376 E.01677
