; generated by PrusaSlicer 2.6.1+win64 on 2023-10-28 at 22:38:32 UTC


;
;
; 

; external perimeters extrusion width = 0.45mm
; perimeters extrusion width = 0.45mm
; infill extrusion width = 0.45mm
; solid infill extrusion width = 0.45mm
; top infill extrusion width = 0.40mm
; support material extrusion width = 0.35mm
; first layer extrusion width = 0.42mm

M73 P0 R89
M73 Q0 S91
M201 X1000 Y1000 Z200 E5000 ; sets maximum accelerations, mm/sec^2
M203 X200 Y200 Z12 E120 ; sets maximum feedrates, mm / sec
M204 S1250 T1250 ; sets acceleration (S) and retract acceleration (R), mm/sec^2
M205 X8.00 Y8.00 Z0.40 E4.50 ; sets the jerk limits, mm/sec
M205 S0 T0 ; sets the minimum extruding and travel feed rate, mm/sec
;TYPE:Custom
M862.3 P "MK3S" ; printer model check
M862.1 P0.4 ; nozzle diameter check
M115 U3.13.0 ; tell printer latest fw version
G90 ; use absolute coordinates
M83 ; extruder relative mode
M104 S215 ; set extruder temp
M140 S60 ; set bed temp
M190 S60 ; wait for bed temp
M109 S215 ; wait for extruder temp
G28 W ; home all without mesh bed level
G80 ; mesh bed leveling

G1 Z0.2 F720
G1 Y-3 F1000 ; go outside print area
G92 E0
G1 X60 E9 F1000 ; intro line
G1 X100 E12.5 F1000 ; intro line

G92 E0
M221 S95

; Don't change E values below. Excessive value can damage the printer.

M907 E538 ; set extruder motor current
G21 ; set units to millimeters
G90 ; use absolute coordinates
M83 ; use relative distances for extrusion
M900 K0.05 ; Filament gcode LA 1.5
M900 K30 ; Filament gcode LA 1.0
M107
;LAYER_CHANGE
;Z:0.2
;HEIGHT:0.2
;BEFORE_LAYER_CHANGE
G92 E0.0
;0.2


G1 E-.8 F2100
G1 Z.4 F720
;AFTER_LAYER_CHANGE
;0.2
G1 X45.207 Y66.669 F10800
G1 Z.2 F720
M73 P0 R88
G1 E.8 F2100
M204 S800
;TYPE:Skirt/Brim
;WIDTH:0.42
G1 F1200
G1 X46.887 Y65.973 E.05702
G1 X190.592 Y65.98 E4.50577
G1 X206.642 Y67.199 E.50469
G1 X208.254 Y67.998 E.05641
G1 X208.95 Y69.679 E.05705
G1 X208.95 Y140.186 E2.2107
G1 X208.457 Y141.635 E.04799
G1 X208.268 Y141.881 E.00973
G1 X206.565 Y142.801 E.06069
G1 X190.412 Y144.027 E.50792
G1 X46.887 Y144.027 E4.50013
G1 X45.207 Y143.331 E.05702
G1 X42.219 Y140.343 E.13249
G1 X41.523 Y138.662 E.05705
G1 X41.523 Y71.338 E2.1109
G1 X42.219 Y69.657 E.05705
G1 X45.164 Y66.712 E.13059
M204 S1000
;WIPE_START
G1 F8640
G1 X46.887 Y65.973 E-.43289
G1 X48.477 Y65.973 E-.36711
;WIPE_END
G1 Z.6 F720
G1 X46.727 Y69.187 F10800
G1 Z.2 F720
G1 E.8 F2100
M204 S800
G1 F1200
G1 X48.559 Y68.637 E.05997
G1 X188.689 Y68.64 E4.39368
G1 X189.709 Y68.834 E.03255
M73 Q0 S90
G1 X190.688 Y69.25 E.03335
G1 X191.812 Y70.146 E.04507
G1 X192.705 Y71.484 E.05044
G1 X193.113 Y73.029 E.0501
G1 X193.113 Y136.968 E2.00476
G1 X192.799 Y138.28 E.0423
G1 X192.341 Y139.2 E.03222
G1 X191.394 Y140.241 E.04412
G1 X190.573 Y140.813 E.03137
G1 X188.741 Y141.363 E.05997
G1 X48.582 Y141.363 E4.39459
G1 X47.27 Y141.049 E.0423
G1 X46.35 Y140.591 E.03222
G1 X45.309 Y139.644 E.04412
G1 X44.737 Y138.823 E.03137
G1 X44.186 Y136.991 E.05998
G1 X44.186 Y73.032 E2.00539
G1 X44.501 Y71.72 E.04231
G1 X44.959 Y70.8 E.03222
G1 X45.906 Y69.759 E.04412
G1 X46.677 Y69.221 E.02948
M204 S1000
G1 X46.866 Y69.538 F10800
M204 S800
G1 F1200
G1 X48.588 Y69.014 E.05644
G1 X188.671 Y69.017 E4.3922
G1 X189.617 Y69.2 E.03021
M73 P1 R88
M73 Q1 S90
G1 X190.515 Y69.586 E.03065
G1 X191.553 Y70.421 E.04177
G1 X192.349 Y71.612 E.04492
G1 X192.736 Y73.054 E.04681
G1 X192.736 Y136.945 E2.00326
G1 X192.438 Y138.169 E.0395
G1 X192.016 Y139.007 E.02942
G1 X191.13 Y139.971 E.04105
G1 X190.434 Y140.462 E.02671
G1 X188.712 Y140.986 E.05644
G1 X48.605 Y140.986 E4.39296
G1 X47.381 Y140.688 E.0395
M73 P1 R87
G1 X46.543 Y140.266 E.02942
G1 X45.579 Y139.38 E.04105
G1 X45.088 Y138.684 E.02671
G1 X44.564 Y136.962 E.05644
G1 X44.564 Y73.055 E2.00376
G1 X44.862 Y71.831 E.0395
G1 X45.284 Y70.993 E.02942
G1 X46.17 Y70.029 E.04105
G1 X46.817 Y69.573 E.02482
M204 S1000
G1 X47.033 Y69.882 F10800
M204 S800
G1 F1200
G1 X48.615 Y69.391 E.05194
G1 X188.652 Y69.394 E4.39076
G1 X189.524 Y69.566 E.02787
G1 X190.34 Y69.921 E.0279
G1 X191.293 Y70.695 E.03849
G1 X192.017 Y71.793 E.04124
G1 X192.359 Y73.078 E.04169
G1 X192.359 Y136.921 E2.00175
G1 X192.077 Y138.056 E.03667
G1 X191.692 Y138.811 E.02657
G1 X190.868 Y139.699 E.03798
G1 X190.243 Y140.135 E.02389
G1 X188.685 Y140.609 E.05106
G1 X48.629 Y140.609 E4.39136
G1 X47.494 Y140.327 E.03667
M73 Q1 S89
G1 X46.739 Y139.943 E.02656
G1 X45.851 Y139.118 E.038
G1 X45.415 Y138.493 E.02389
G1 X44.941 Y136.935 E.05106
G1 X44.941 Y73.079 E2.00216
G1 X45.223 Y71.944 E.03667
G1 X45.607 Y71.189 E.02656
G1 X46.432 Y70.301 E.038
G1 X46.983 Y69.916 E.02108
M204 S1000
G1 X47.197 Y70.226 F10800
M204 S800
G1 F1200
G1 X47.247 Y70.192 E.0019
G1 X48.643 Y69.768 E.04574
G1 X188.633 Y69.771 E4.38929
G1 X189.429 Y69.931 E.02546
G1 X190.164 Y70.255 E.02519
G1 X191.03 Y70.967 E.03515
G1 X191.685 Y71.973 E.03764
G1 X191.982 Y73.102 E.0366
G1 X191.982 Y136.898 E2.00028
G1 X191.717 Y137.942 E.03377
M73 P2 R87
G1 X191.37 Y138.614 E.02371
G1 X190.608 Y139.426 E.03491
G1 X190.053 Y139.808 E.02113
G1 X188.657 Y140.232 E.04574
G1 X48.652 Y140.232 E4.38976
G1 X47.608 Y139.967 E.03377
M73 Q2 S89
G1 X46.936 Y139.62 E.02371
G1 X46.124 Y138.858 E.03491
G1 X45.742 Y138.303 E.02113
G1 X45.318 Y136.907 E.04574
G1 X45.318 Y73.102 E2.00056
G1 X45.583 Y72.058 E.03377
G1 X45.93 Y71.386 E.02371
G1 X46.692 Y70.574 E.03491
G1 X47.148 Y70.26 E.01736
M204 S1000
G1 X47.36 Y70.571 F10800
M204 S800
G1 F1200
G1 X47.435 Y70.52 E.00284
G1 X48.671 Y70.145 E.0405
G1 X188.614 Y70.148 E4.38781
G1 X189.296 Y70.285 E.02181
G1 X189.987 Y70.589 E.02367
G1 X190.767 Y71.238 E.03181
G1 X191.329 Y72.1 E.03226
G1 X191.605 Y73.128 E.03337
G1 X191.605 Y136.873 E1.99868
G1 X191.358 Y137.825 E.03084
M73 P2 R86
G1 X191.049 Y138.415 E.02088
G1 X190.349 Y139.151 E.03185
G1 X189.865 Y139.48 E.01835
G1 X188.629 Y139.855 E.0405
G1 X48.677 Y139.855 E4.3881
G1 X47.725 Y139.608 E.03084
G1 X47.135 Y139.299 E.02088
G1 X46.399 Y138.599 E.03185
G1 X46.07 Y138.115 E.01835
G1 X45.695 Y136.879 E.0405
G1 X45.695 Y73.127 E1.9989
G1 X45.942 Y72.175 E.03084
G1 X46.251 Y71.585 E.02088
G1 X46.951 Y70.849 E.03185
G1 X47.31 Y70.605 E.01361
M204 S1000
G1 X47.52 Y70.917 F10800
M204 S800
G1 F1200
G1 X47.621 Y70.848 E.00384
G1 X48.699 Y70.522 E.03531
G1 X188.595 Y70.526 E4.38634
G1 X189.198 Y70.65 E.0193
G1 X189.808 Y70.922 E.02094
G1 X190.501 Y71.507 E.02844
G1 X190.995 Y72.278 E.02871
G1 X191.228 Y73.152 E.02836
G1 X191.228 Y136.848 E1.99714
G1 X191 Y137.706 E.02784
G1 X190.729 Y138.213 E.01803
G1 X190.093 Y138.874 E.02876
G1 X189.679 Y139.152 E.01564
G1 X188.601 Y139.478 E.03531
G1 X48.702 Y139.478 E4.38643
G1 X47.844 Y139.25 E.02784
M73 Q2 S88
G1 X47.337 Y138.979 E.01803
G1 X46.676 Y138.343 E.02876
G1 X46.398 Y137.929 E.01564
G1 X46.072 Y136.851 E.03531
G1 X46.072 Y73.152 E1.99724
G1 X46.3 Y72.294 E.02784
G1 X46.571 Y71.787 E.01803
G1 X47.207 Y71.126 E.02876
G1 X47.47 Y70.95 E.00992
M204 S1000
G1 X47.677 Y71.263 F10800
M204 S800
M73 P3 R86
G1 F1200
G1 X47.806 Y71.178 E.00484
G1 X48.727 Y70.899 E.03017
G1 X188.574 Y70.903 E4.3848
G1 X189.099 Y71.014 E.01682
M73 Q3 S88
G1 X189.627 Y71.254 E.01819
G1 X190.234 Y71.775 E.02508
G1 X190.639 Y72.406 E.02351
G1 X190.851 Y73.178 E.0251
G1 X190.851 Y136.822 E1.99551
G1 X190.642 Y137.584 E.02477
G1 X190.412 Y138.009 E.01515
G1 X189.838 Y138.595 E.02572
G1 X189.494 Y138.822 E.01292
G1 X188.573 Y139.101 E.03017
G1 X48.728 Y139.101 E4.38474
G1 X47.966 Y138.892 E.02477
G1 X47.541 Y138.662 E.01515
G1 X46.955 Y138.088 E.02572
G1 X46.728 Y137.744 E.01292
G1 X46.449 Y136.823 E.03017
G1 X46.449 Y73.178 E1.99554
G1 X46.658 Y72.416 E.02477
G1 X46.888 Y71.991 E.01515
G1 X47.462 Y71.405 E.02572
G1 X47.627 Y71.296 E.0062
M204 S1000
G1 X47.831 Y71.611 F10800
M204 S800
G1 F1200
G1 X47.987 Y71.509 E.00584
G1 X48.755 Y71.276 E.02516
G1 X188.553 Y71.28 E4.38327
G1 X188.997 Y71.377 E.01425
M73 P3 R85
G1 X189.443 Y71.584 E.01542
G1 X189.966 Y72.041 E.02178
G1 X190.284 Y72.536 E.01845
G1 X190.474 Y73.205 E.02181
G1 X190.474 Y136.795 E1.99382
G1 X190.286 Y137.459 E.02164
G1 X190.096 Y137.801 E.01227
G1 X189.586 Y138.313 E.02266
G1 X189.312 Y138.491 E.01024
G1 X188.545 Y138.724 E.02513
G1 X48.755 Y138.724 E4.38302
G1 X48.091 Y138.536 E.02164
G1 X47.749 Y138.346 E.01227
G1 X47.237 Y137.836 E.02266
G1 X47.059 Y137.563 E.01022
G1 X46.826 Y136.795 E.02516
G1 X46.826 Y73.205 E1.99382
G1 X47.014 Y72.541 E.02164
G1 X47.204 Y72.199 E.01227
G1 X47.714 Y71.687 E.02266
G1 X47.78 Y71.644 E.00247
M204 S1000
G1 X47.98 Y71.96 F10800
M204 S800
G1 F1200
G1 X48.167 Y71.842 E.00693
G1 X48.783 Y71.653 E.0202
G1 X188.531 Y71.657 E4.3817
G1 X188.89 Y71.74 E.01155
G1 X189.256 Y71.912 E.01268
G1 X189.696 Y72.304 E.01848
G1 X189.931 Y72.67 E.01364
G1 X190.097 Y73.233 E.0184
G1 X190.097 Y136.767 E1.99206
G1 X189.931 Y137.33 E.0184
M73 Q3 S87
G1 X189.782 Y137.59 E.0094
G1 X189.338 Y138.029 E.01958
G1 X189.133 Y138.158 E.00759
G1 X188.517 Y138.347 E.0202
G1 X48.783 Y138.347 E4.38126
G1 X48.22 Y138.181 E.0184
M73 P4 R85
M73 Q4 S87
G1 X47.96 Y138.032 E.0094
G1 X47.521 Y137.588 E.01958
G1 X47.392 Y137.383 E.00759
G1 X47.203 Y136.767 E.0202
G1 X47.203 Y73.233 E1.99206
G1 X47.369 Y72.67 E.0184
G1 X47.518 Y72.41 E.0094
G1 X47.934 Y71.999 E.01834
M204 S1000
G1 X48.196 Y72.269 F10800
M204 S800
G1 F1200
G1 X48.307 Y72.193 E.00422
G1 X48.813 Y72.03 E.01667
G1 X188.509 Y72.034 E4.38007
G1 X188.747 Y72.089 E.00766
G1 X189.068 Y72.241 E.01114
G1 X189.423 Y72.565 E.01507
G1 X189.579 Y72.807 E.00903
G1 X189.72 Y73.262 E.01494
G1 X189.72 Y136.738 E1.99025
G1 X189.579 Y137.195 E.015
G1 X189.472 Y137.375 E.00657
G1 X189.089 Y137.746 E.01672
G1 X188.993 Y137.807 E.00357
G1 X188.487 Y137.97 E.01667
G1 X48.812 Y137.97 E4.37941
G1 X48.355 Y137.829 E.015
G1 X48.175 Y137.722 E.00657
G1 X47.804 Y137.339 E.01672
G1 X47.743 Y137.243 E.00357
G1 X47.58 Y136.737 E.01667
G1 X47.58 Y73.262 E1.99021
G1 X47.721 Y72.805 E.015
G1 X47.828 Y72.625 E.00657
G1 X48.153 Y72.311 E.01417
M204 S1000
G1 X48.411 Y72.584 F10800
M204 S800
G1 F1200
G1 X48.483 Y72.526 E.0029
G1 X48.844 Y72.407 E.01192
G1 X188.487 Y72.411 E4.37841
G1 X188.604 Y72.438 E.00376
M73 P4 R84
G1 X188.878 Y72.568 E.00951
G1 X189.147 Y72.823 E.01162
G1 X189.23 Y72.95 E.00476
G1 X189.343 Y73.294 E.01135
G1 X189.343 Y136.706 E1.98824
G1 X189.229 Y137.052 E.01142
G1 X189.166 Y137.153 E.00373
G1 X188.847 Y137.456 E.01379
G1 X188.456 Y137.593 E.01299
G1 X48.844 Y137.593 E4.37744
G1 X48.498 Y137.479 E.01142
G1 X48.397 Y137.416 E.00373
G1 X48.094 Y137.097 E.01379
G1 X47.957 Y136.706 E.01299
G1 X47.957 Y73.294 E1.98824
G1 X48.071 Y72.948 E.01142
G1 X48.134 Y72.847 E.00373
G1 X48.368 Y72.625 E.01011
M204 S1000
G1 X48.623 Y72.901 F10800
M204 S800
G1 F1200
G1 X48.666 Y72.861 E.00184
G1 X48.879 Y72.784 E.0071
G1 X188.467 Y72.791 E4.37668
G1 X188.685 Y72.894 E.00756
M73 P5 R84
G1 X188.866 Y73.075 E.00803
G1 X188.966 Y73.329 E.00856
G1 X188.966 Y136.671 E1.98604
G1 X188.884 Y136.898 E.00757
M73 Q5 S86
G1 X188.634 Y137.139 E.01089
G1 X188.421 Y137.216 E.0071
G1 X48.879 Y137.216 E4.37524
G1 X48.652 Y137.134 E.00757
G1 X48.411 Y136.884 E.01089
G1 X48.334 Y136.671 E.0071
G1 X48.334 Y73.329 E1.98604
G1 X48.416 Y73.102 E.00757
G1 X48.579 Y72.941 E.00718
M204 S1000
G1 X48.84 Y73.202 F10800
M204 S800
G1 F1200
G1 X48.921 Y73.161 E.00285
G1 X188.379 Y73.161 E4.37261
G1 X188.448 Y73.19 E.00235
G1 X188.56 Y73.302 E.00497
G1 X188.589 Y73.371 E.00235
G1 X188.589 Y136.629 E1.98341
G1 X188.56 Y136.698 E.00235
G1 X188.448 Y136.81 E.00497
G1 X188.379 Y136.839 E.00235
G1 X48.921 Y136.839 E4.37261
G1 X48.852 Y136.81 E.00235
G1 X48.74 Y136.698 E.00497
G1 X48.711 Y136.629 E.00235
G1 X48.711 Y73.371 E1.98341
G1 X48.74 Y73.302 E.00235
G1 X48.797 Y73.245 E.00253
M204 S1000
; printing object Track Hybrid Connector.stl id:0 copy 0
;WIPE_START
G1 F8640
G1 X48.921 Y73.161 E-.03458
G1 X52.236 Y73.161 E-.76542
;WIPE_END
G1 Z.6 F720
G1 X206.384 Y140.243 F10800
G1 Z.2 F720
G1 E.8 F2100
M204 S800
;TYPE:Support material
G1 F1200
G1 X192.427 Y140.243 E.43761
G1 X193.401 Y138.803 E.05451
M73 P5 R83
G1 X193.81 Y136.771 E.06499
G1 X193.81 Y73.23 E1.99228
G1 X193.433 Y71.275 E.06243
G1 X192.441 Y69.758 E.05683
G1 X206.384 Y69.757 E.43717
G1 X206.384 Y140.186 E2.20825
M204 S1000
G1 X205.863 Y140.073 F10800
M204 S800
G1 F1200
G1 X205.863 Y70.097 E2.19405
G1 X205.444 Y70.097 E.01314
G1 X205.444 Y139.903 E2.18872
G1 X205.025 Y139.903 E.01314
M73 P6 R83
G1 X205.025 Y70.097 E2.18872
G1 X204.606 Y70.097 E.01314
G1 X204.606 Y139.903 E2.18872
G1 X204.187 Y139.903 E.01314
M73 Q6 S86
G1 X204.187 Y70.097 E2.18872
G1 X203.768 Y70.097 E.01314
M73 Q6 S85
G1 X203.768 Y139.903 E2.18872
G1 X203.349 Y139.903 E.01314
G1 X203.349 Y70.097 E2.18872
G1 X202.93 Y70.097 E.01314
G1 X202.93 Y139.903 E2.18872
G1 X202.511 Y139.903 E.01314
G1 X202.511 Y70.097 E2.18872
G1 X202.092 Y70.097 E.01314
G1 X202.092 Y139.903 E2.18872
G1 X201.673 Y139.903 E.01314
G1 X201.673 Y70.097 E2.18872
G1 X201.254 Y70.097 E.01314
G1 X201.254 Y139.903 E2.18872
G1 X200.835 Y139.903 E.01314
G1 X200.835 Y70.097 E2.18872
G1 X200.416 Y70.097 E.01314
G1 X200.416 Y139.903 E2.18872
G1 X199.997 Y139.903 E.01314
G1 X199.997 Y70.097 E2.18872
G1 X199.578 Y70.097 E.01314
M73 P6 R82
G1 X199.578 Y139.903 E2.18872
G1 X199.159 Y139.903 E.01314
G1 X199.159 Y70.097 E2.18872
G1 X198.74 Y70.097 E.01314
M73 P7 R82
G1 X198.74 Y139.903 E2.18872
G1 X198.321 Y139.903 E.01314
G1 X198.321 Y70.097 E2.18872
G1 X197.902 Y70.097 E.01314
G1 X197.902 Y139.903 E2.18872
G1 X197.483 Y139.903 E.01314
M73 Q7 S85
G1 X197.483 Y70.097 E2.18872
G1 X197.064 Y70.097 E.01314
G1 X197.064 Y139.903 E2.18872
G1 X196.645 Y139.903 E.01314
M73 Q7 S84
G1 X196.645 Y70.097 E2.18872
G1 X196.226 Y70.097 E.01314
G1 X196.226 Y139.903 E2.18872
G1 X195.807 Y139.903 E.01314
G1 X195.807 Y70.097 E2.18872
G1 X195.388 Y70.097 E.01314
G1 X195.388 Y139.903 E2.18872
G1 X194.969 Y139.903 E.01314
G1 X194.969 Y70.097 E2.18872
G1 X194.55 Y70.097 E.01314
G1 X194.55 Y139.903 E2.18872
G1 X194.131 Y139.903 E.01314
G1 X194.131 Y70.097 E2.18872
G1 X193.712 Y70.097 E.01314
G1 X193.712 Y71.081 E.03085
G1 X193.293 Y70.44 E.02401
G1 X193.293 Y69.927 E.01608
M204 S1000
;WIPE_START
G1 F8640
G1 X193.293 Y70.44 E-.11845
G1 X193.712 Y71.081 E-.17682
G1 X193.712 Y70.097 E-.22721
G1 X194.131 Y70.097 E-.09675
G1 X194.131 Y70.88 E-.18077
;WIPE_END
G1 Z.6 F720
G1 X193.712 Y140.073 F10800
G1 Z.2 F720
G1 E.8 F2100
M204 S800
G1 F1200
G1 X193.712 Y138.95 E.03521
G1 X193.293 Y139.569 E.02344
G1 X193.293 Y140.073 E.0158
M204 S1000
;WIPE_START
G1 F8640
G1 X193.293 Y139.569 E-.11637
G1 X193.712 Y138.95 E-.17259
G1 X193.712 Y140.073 E-.2593
;WIPE_END
G1 E-.25174 F2100
G1 Z.6 F720
G1 X187.713 Y135.963 F10800
G1 Z.2 F720
G1 E.8 F2100
M204 S800
;TYPE:Perimeter
;WIDTH:0.419999
G1 F1200
G1 X49.587 Y135.963 E4.33084
G1 X49.587 Y74.037 E1.94164
G1 X187.713 Y74.037 E4.33084
M73 P8 R81
G1 X187.713 Y135.903 E1.93976
M204 S1000
G1 X188.09 Y136.34 F10800
M204 S800
;TYPE:External perimeter
M73 Q8 S84
G1 F1200
G1 X49.21 Y136.34 E4.35448
G1 X49.21 Y73.66 E1.96528
G1 X188.09 Y73.66 E4.35448
G1 X188.09 Y136.28 E1.9634
M204 S1000
M73 Q8 S83
G1 X187.694 Y136.284 F10800
;WIPE_START
G1 F8640
G1 X184.625 Y136.281 E-.8
;WIPE_END
G1 Z.6 F720
G1 X56.228 Y107.003 F10800
G1 Z.2 F720
G1 E.8 F2100
M204 S800
;TYPE:Perimeter
G1 F1200
G1 X55.82 Y107.185 E.01401
G1 X55.277 Y107.284 E.01731
G1 X54.72 Y107.244 E.01751
G1 X54.248 Y107.099 E.01548
G1 X53.818 Y106.856 E.01549
G1 X53.45 Y106.526 E.0155
G1 X53.161 Y106.125 E.0155
G1 X52.961 Y105.648 E.01622
G1 X52.87 Y105.092 E.01766
G1 X52.906 Y104.569 E.01644
G1 X53.149 Y103.903 E.02223
G1 X53.45 Y103.474 E.01643
G1 X53.919 Y103.075 E.01931
G1 X54.391 Y102.848 E.01642
G1 X54.936 Y102.728 E.0175
G1 X55.459 Y102.736 E.0164
G1 X56.137 Y102.943 E.02223
G1 X56.582 Y103.219 E.01642
G1 X57.056 Y103.746 E.02222
G1 X57.295 Y104.213 E.01645
G1 X57.418 Y104.709 E.01602
G1 X57.427 Y105.215 E.01587
G1 X57.325 Y105.709 E.01582
G1 X57.117 Y106.167 E.01577
G1 X56.802 Y106.582 E.01634
G1 X56.282 Y106.979 E.02051
M204 S1000
G1 X56.056 Y106.677 F10800
M204 S800
;TYPE:External perimeter
G1 F1200
G1 X55.641 Y106.845 E.01404
